Develop Presets/HTCH Presets/HTCH 02-1.lrtemplate
s = {
	id = "414389E8-99F5-4130-811F-9FBE1D2D2437",
	internalName = "HTCH 02",
	title = "HTCH 02",
	type = "Develop",
	value = {
		settings = {
			Blacks2012 = 23,
			BlueHue = -12,
			BlueSaturation = -15,
			CameraProfile = "Portra 160⁺¹ - C",
			Clarity2012 = -6,
			ColorNoiseReduction = 25,
			ColorNoiseReductionDetail = 50,
			ColorNoiseReductionSmoothness = 50,
			Contrast2012 = 21,
			ConvertToGrayscale = false,
			Dehaze = 0,
			EnableCalibration = true,
			EnableColorAdjustments = true,
			EnableDetail = true,
			EnableEffects = true,
			EnableSplitToning = true,
			Exposure2012 = -0.4,
			GrainAmount = 17,
			GrainFrequency = 50,
			GrainSize = 40,
			GreenHue = 50,
			GreenSaturation = -10,
			Highlights2012 = -10,
			HueAdjustmentAqua = 5,
			HueAdjustmentBlue = -4,
			HueAdjustmentGreen = -21,
			HueAdjustmentMagenta = 25,
			HueAdjustmentOrange = -3,
			HueAdjustmentPurple = 10,
			HueAdjustmentRed = 8,
			HueAdjustmentYellow = -5,
			LuminanceAdjustmentAqua = 0,
			LuminanceAdjustmentBlue = -10,
			LuminanceAdjustmentGreen = -91,
			LuminanceAdjustmentMagenta = 0,
			LuminanceAdjustmentOrange = -2,
			LuminanceAdjustmentPurple = 0,
			LuminanceAdjustmentRed = -20,
			LuminanceAdjustmentYellow = 47,
			LuminanceNoiseReductionContrast = 0,
			LuminanceNoiseReductionDetail = 50,
			LuminanceSmoothing = 24,
			ParametricDarks = 0,
			ParametricHighlightSplit = 75,
			ParametricHighlights = 0,
			ParametricLights = 0,
			ParametricMidtoneSplit = 60,
			ParametricShadowSplit = 14,
			ParametricShadows = 0,
			PostCropVignetteAmount = 0,
			PostCropVignetteFeather = 50,
			PostCropVignetteHighlightContrast = 0,
			PostCropVignetteMidpoint = 50,
			PostCropVignetteRoundness = 0,
			PostCropVignetteStyle = 1,
			ProcessVersion = "6.7",
			RedHue = 30,
			RedSaturation = -10,
			Saturation = 0,
			SaturationAdjustmentAqua = -10,
			SaturationAdjustmentBlue = -10,
			SaturationAdjustmentGreen = -32,
			SaturationAdjustmentMagenta = -20,
			SaturationAdjustmentOrange = -9,
			SaturationAdjustmentPurple = 0,
			SaturationAdjustmentRed = -20,
			SaturationAdjustmentYellow = -31,
			ShadowTint = 0,
			Shadows2012 = 16,
			SharpenDetail = 25,
			SharpenEdgeMasking = 0,
			SharpenRadius = 1,
			Sharpness = 114,
			SplitToningBalance = 0,
			SplitToningHighlightHue = 235,
			SplitToningHighlightSaturation = 9,
			SplitToningShadowHue = 17,
			SplitToningShadowSaturation = 7,
			Temperature = 6049,
			Tint = 9,
			ToneCurveName2012 = "Custom",
			ToneCurvePV2012 = {
				0,
				0,
				21,
				29,
				51,
				61,
				91,
				97,
				190,
				179,
				244,
				234,
			},
			ToneCurvePV2012Blue = {
				0,
				0,
				44,
				18,
				80,
				63,
				117,
				122,
				179,
				200,
				255,
				255,
			},
			ToneCurvePV2012Green = {
				0,
				0,
				46,
				20,
				117,
				122,
				179,
				200,
				255,
				255,
			},
			ToneCurvePV2012Red = {
				0,
				0,
				47,
				18,
				80,
				62,
				117,
				122,
				179,
				200,
				255,
				255,
			},
			Vibrance = 9,
			WhiteBalance = "Custom",
			Whites2012 = -25,
		},
		uuid = "28AB8FE3-9939-47D7-8C46-1008B3CDDBA2",
	},
	version = 0,
}
