Develop Presets/HTCH Presets/HTCH 03-1.lrtemplate
s = {
	id = "6263FA87-606B-4BAC-8E26-9F3DFCEF140E",
	internalName = "HTCH 03",
	title = "HTCH 03",
	type = "Develop",
	value = {
		settings = {
			Blacks2012 = 48,
			BlueHue = -10,
			BlueSaturation = -10,
			CameraProfile = "Adobe Standard",
			Clarity2012 = -11,
			ColorNoiseReduction = 25,
			ColorNoiseReductionDetail = 50,
			ColorNoiseReductionSmoothness = 50,
			Contrast2012 = 39,
			ConvertToGrayscale = false,
			Dehaze = 0,
			EnableCalibration = true,
			EnableColorAdjustments = true,
			EnableDetail = true,
			EnableEffects = true,
			EnableSplitToning = true,
			Exposure2012 = 0.15,
			GrainAmount = 25,
			GrainFrequency = 50,
			GrainSize = 45,
			GreenHue = 50,
			GreenSaturation = -25,
			Highlights2012 = -5,
			HueAdjustmentAqua = 0,
			HueAdjustmentBlue = -10,
			HueAdjustmentGreen = -11,
			HueAdjustmentMagenta = 0,
			HueAdjustmentOrange = -16,
			HueAdjustmentPurple = 0,
			HueAdjustmentRed = -10,
			HueAdjustmentYellow = -13,
			LuminanceAdjustmentAqua = 0,
			LuminanceAdjustmentBlue = 16,
			LuminanceAdjustmentGreen = -55,
			LuminanceAdjustmentMagenta = 0,
			LuminanceAdjustmentOrange = -6,
			LuminanceAdjustmentPurple = 0,
			LuminanceAdjustmentRed = -15,
			LuminanceAdjustmentYellow = 32,
			LuminanceNoiseReductionContrast = 0,
			LuminanceNoiseReductionDetail = 50,
			LuminanceSmoothing = 28,
			ParametricDarks = 0,
			ParametricHighlightSplit = 75,
			ParametricHighlights = 0,
			ParametricLights = 0,
			ParametricMidtoneSplit = 50,
			ParametricShadowSplit = 25,
			ParametricShadows = 0,
			PostCropVignetteAmount = 0,
			PostCropVignetteFeather = 50,
			PostCropVignetteHighlightContrast = 0,
			PostCropVignetteMidpoint = 50,
			PostCropVignetteRoundness = 0,
			PostCropVignetteStyle = 1,
			ProcessVersion = "6.7",
			RedHue = 46,
			RedSaturation = 5,
			Saturation = -31,
			SaturationAdjustmentAqua = -20,
			SaturationAdjustmentBlue = -22,
			SaturationAdjustmentGreen = -35,
			SaturationAdjustmentMagenta = 0,
			SaturationAdjustmentOrange = -4,
			SaturationAdjustmentPurple = 0,
			SaturationAdjustmentRed = -8,
			SaturationAdjustmentYellow = 6,
			ShadowTint = 0,
			Shadows2012 = 27,
			SharpenDetail = 25,
			SharpenEdgeMasking = 0,
			SharpenRadius = 1,
			Sharpness = 139,
			SplitToningBalance = 0,
			SplitToningHighlightHue = 34,
			SplitToningHighlightSaturation = 0,
			SplitToningShadowHue = 34,
			SplitToningShadowSaturation = 16,
			Temperature = 7172,
			Tint = -5,
			ToneCurveName2012 = "Custom",
			ToneCurvePV2012 = {
				0,
				0,
				21,
				29,
				51,
				61,
				91,
				97,
				199,
				174,
				255,
				219,
			},
			ToneCurvePV2012Blue = {
				0,
				0,
				44,
				18,
				80,
				63,
				117,
				122,
				179,
				200,
				255,
				255,
			},
			ToneCurvePV2012Green = {
				0,
				0,
				46,
				20,
				117,
				122,
				179,
				200,
				255,
				255,
			},
			ToneCurvePV2012Red = {
				0,
				0,
				47,
				18,
				80,
				62,
				117,
				122,
				179,
				200,
				255,
				255,
			},
			Vibrance = 17,
			WhiteBalance = "Custom",
			Whites2012 = 30,
		},
		uuid = "7FA8B317-24C2-4731-83BB-680CC163CDA2",
	},
	version = 0,
}
