Develop Presets/HTCH Presets/HTCH 05-1.lrtemplate
s = {
	id = "B728E06B-59E7-4A7C-8526-7EC320D55739",
	internalName = "HTCH 05",
	title = "HTCH 05",
	type = "Develop",
	value = {
		settings = {
			Blacks2012 = 27,
			BlueHue = -10,
			BlueSaturation = -10,
			CameraProfile = "Adobe Standard",
			Clarity2012 = -11,
			ColorNoiseReduction = 25,
			ColorNoiseReductionDetail = 50,
			ColorNoiseReductionSmoothness = 50,
			Contrast2012 = 22,
			ConvertToGrayscale = false,
			Dehaze = 0,
			EnableCalibration = true,
			EnableColorAdjustments = true,
			EnableDetail = true,
			EnableEffects = true,
			EnableSplitToning = true,
			Exposure2012 = -0.15,
			GrainAmount = 18,
			GrainFrequency = 50,
			GrainSize = 45,
			GreenHue = 50,
			GreenSaturation = -25,
			Highlights2012 = -19,
			HueAdjustmentAqua = 0,
			HueAdjustmentBlue = -10,
			HueAdjustmentGreen = 57,
			HueAdjustmentMagenta = 0,
			HueAdjustmentOrange = -13,
			HueAdjustmentPurple = 0,
			HueAdjustmentRed = -10,
			HueAdjustmentYellow = -25,
			LuminanceAdjustmentAqua = 0,
			LuminanceAdjustmentBlue = 16,
			LuminanceAdjustmentGreen = -75,
			LuminanceAdjustmentMagenta = 0,
			LuminanceAdjustmentOrange = -6,
			LuminanceAdjustmentPurple = 0,
			LuminanceAdjustmentRed = -15,
			LuminanceAdjustmentYellow = -14,
			LuminanceNoiseReductionContrast = 0,
			LuminanceNoiseReductionDetail = 50,
			LuminanceSmoothing = 21,
			ParametricDarks = 0,
			ParametricHighlightSplit = 75,
			ParametricHighlights = 0,
			ParametricLights = 0,
			ParametricMidtoneSplit = 50,
			ParametricShadowSplit = 25,
			ParametricShadows = 0,
			PostCropVignetteAmount = 0,
			PostCropVignetteFeather = 50,
			PostCropVignetteHighlightContrast = 0,
			PostCropVignetteMidpoint = 50,
			PostCropVignetteRoundness = 0,
			PostCropVignetteStyle = 1,
			ProcessVersion = "6.7",
			RedHue = 46,
			RedSaturation = 5,
			Saturation = -31,
			SaturationAdjustmentAqua = -20,
			SaturationAdjustmentBlue = -22,
			SaturationAdjustmentGreen = -13,
			SaturationAdjustmentMagenta = 0,
			SaturationAdjustmentOrange = 9,
			SaturationAdjustmentPurple = 0,
			SaturationAdjustmentRed = -8,
			SaturationAdjustmentYellow = -3,
			ShadowTint = 0,
			Shadows2012 = -19,
			SharpenDetail = 25,
			SharpenEdgeMasking = 0,
			SharpenRadius = 1,
			Sharpness = 139,
			SplitToningBalance = 0,
			SplitToningHighlightHue = 200,
			SplitToningHighlightSaturation = 14,
			SplitToningShadowHue = 17,
			SplitToningShadowSaturation = 16,
			Temperature = 8047,
			Tint = 5,
			ToneCurveName2012 = "Custom",
			ToneCurvePV2012 = {
				0,
				0,
				21,
				29,
				51,
				61,
				91,
				97,
				199,
				170,
				255,
				219,
			},
			ToneCurvePV2012Blue = {
				0,
				0,
				44,
				18,
				80,
				63,
				117,
				122,
				179,
				200,
				255,
				255,
			},
			ToneCurvePV2012Green = {
				0,
				0,
				46,
				20,
				117,
				122,
				179,
				200,
				255,
				255,
			},
			ToneCurvePV2012Red = {
				0,
				0,
				47,
				18,
				80,
				62,
				117,
				122,
				179,
				200,
				255,
				255,
			},
			Vibrance = -5,
			WhiteBalance = "Custom",
			Whites2012 = 30,
		},
		uuid = "54E84D9D-488E-4219-B5E7-142C95B7198F",
	},
	version = 0,
}
