Develop Presets/VSCO Film 02 LR4 Canon/C - Fuji Superia 800 ++.lrtemplate
s = {
	id = "5A9CEC10-3564-4036-BF62-1105C0E7DA95",
	internalName = "C - Fuji Superia 800 ++",
	title = "C - Fuji Superia 800 ++",
	type = "Develop",
	value = {
		settings = {
			Blacks2012 = 25,
			BlueHue = 0,
			BlueSaturation = 0,
			CameraProfile = "Fuji Superia 800 C",
			Clarity2012 = 0,
			Contrast2012 = 0,
			ConvertToGrayscale = false,
			EnableCalibration = true,
			EnableColorAdjustments = true,
			EnableDetail = true,
			EnableEffects = true,
			EnableSplitToning = true,
			GrainAmount = 90,
			GrainFrequency = 60,
			GrainSize = 20,
			GreenHue = 0,
			GreenSaturation = 0,
			Highlights2012 = -10,
			HueAdjustmentAqua = 0,
			HueAdjustmentBlue = 8,
			HueAdjustmentGreen = 15,
			HueAdjustmentMagenta = 20,
			HueAdjustmentOrange = 2,
			HueAdjustmentPurple = 10,
			HueAdjustmentRed = 30,
			HueAdjustmentYellow = 10,
			LuminanceAdjustmentAqua = 30,
			LuminanceAdjustmentBlue = -20,
			LuminanceAdjustmentGreen = 25,
			LuminanceAdjustmentMagenta = 0,
			LuminanceAdjustmentOrange = -5,
			LuminanceAdjustmentPurple = -10,
			LuminanceAdjustmentRed = -10,
			LuminanceAdjustmentYellow = 15,
			ParametricDarks = 0,
			ParametricHighlightSplit = 75,
			ParametricHighlights = 0,
			ParametricLights = 0,
			ParametricMidtoneSplit = 50,
			ParametricShadowSplit = 25,
			ParametricShadows = 0,
			ProcessVersion = "6.7",
			RedHue = 10,
			RedSaturation = 10,
			Saturation = -10,
			SaturationAdjustmentAqua = -35,
			SaturationAdjustmentBlue = -20,
			SaturationAdjustmentGreen = -30,
			SaturationAdjustmentMagenta = -30,
			SaturationAdjustmentOrange = -10,
			SaturationAdjustmentPurple = -30,
			SaturationAdjustmentRed = -10,
			SaturationAdjustmentYellow = 0,
			ShadowTint = 0,
			Shadows2012 = 40,
			SharpenDetail = 25,
			SharpenEdgeMasking = 0,
			SharpenRadius = 1,
			Sharpness = 25,
			SplitToningBalance = 0,
			SplitToningHighlightHue = 0,
			SplitToningHighlightSaturation = 0,
			SplitToningShadowHue = 0,
			SplitToningShadowSaturation = 0,
			ToneCurveName2012 = "Custom",
			ToneCurvePV2012 = {
				0,
				55,
				48,
				71,
				126,
				131,
				255,
				242,
			},
			ToneCurvePV2012Blue = {
				0,
				4,
				20,
				19,
				66,
				58,
				117,
				120,
				176,
				185,
				255,
				249,
			},
			ToneCurvePV2012Green = {
				0,
				9,
				64,
				53,
				117,
				121,
				183,
				196,
				255,
				253,
			},
			ToneCurvePV2012Red = {
				0,
				0,
				21,
				10,
				73,
				55,
				118,
				120,
				179,
				197,
				255,
				253,
			},
			Vibrance = 0,
			Whites2012 = -10,
		},
		uuid = "752712B5-CA21-46C3-BB80-BE7A631FE868",
	},
	version = 0,
}
