Develop Presets/VSCO Film 02 LR4 Canon/C - Kodak Portra 400 NC ++.lrtemplate
s = {
	id = "D4D9683D-C977-4CE5-A367-4A34E2C805D9",
	internalName = "C - Kodak Portra 400 NC ++ Purple",
	title = "C - Kodak Portra 400 NC ++",
	type = "Develop",
	value = {
		settings = {
			Blacks2012 = 25,
			BlueHue = -5,
			BlueSaturation = 0,
			CameraProfile = "Kodak Portra 400 NC C",
			Clarity2012 = 0,
			Contrast2012 = 0,
			ConvertToGrayscale = false,
			EnableCalibration = true,
			EnableColorAdjustments = true,
			EnableDetail = true,
			EnableEffects = true,
			EnableSplitToning = true,
			GrainAmount = 50,
			GrainFrequency = 50,
			GrainSize = 30,
			GreenHue = 0,
			GreenSaturation = 0,
			Highlights2012 = -20,
			HueAdjustmentAqua = 0,
			HueAdjustmentBlue = -10,
			HueAdjustmentGreen = 10,
			HueAdjustmentMagenta = 40,
			HueAdjustmentOrange = 0,
			HueAdjustmentPurple = 15,
			HueAdjustmentRed = 20,
			HueAdjustmentYellow = 15,
			LuminanceAdjustmentAqua = 10,
			LuminanceAdjustmentBlue = -15,
			LuminanceAdjustmentGreen = -10,
			LuminanceAdjustmentMagenta = 0,
			LuminanceAdjustmentOrange = -8,
			LuminanceAdjustmentPurple = 0,
			LuminanceAdjustmentRed = -20,
			LuminanceAdjustmentYellow = -8,
			ParametricDarks = 0,
			ParametricHighlightSplit = 75,
			ParametricHighlights = 0,
			ParametricLights = 0,
			ParametricMidtoneSplit = 50,
			ParametricShadowSplit = 25,
			ParametricShadows = 0,
			ProcessVersion = "6.7",
			RedHue = 5,
			RedSaturation = 0,
			Saturation = -5,
			SaturationAdjustmentAqua = -40,
			SaturationAdjustmentBlue = -20,
			SaturationAdjustmentGreen = -50,
			SaturationAdjustmentMagenta = -25,
			SaturationAdjustmentOrange = -4,
			SaturationAdjustmentPurple = -35,
			SaturationAdjustmentRed = -10,
			SaturationAdjustmentYellow = -8,
			ShadowTint = -2,
			Shadows2012 = 25,
			SharpenDetail = 25,
			SharpenEdgeMasking = 0,
			SharpenRadius = 1,
			Sharpness = 25,
			SplitToningBalance = 0,
			SplitToningHighlightHue = 0,
			SplitToningHighlightSaturation = 0,
			SplitToningShadowHue = 0,
			SplitToningShadowSaturation = 0,
			ToneCurveName2012 = "Custom",
			ToneCurvePV2012 = {
				0,
				29,
				46,
				52,
				120,
				125,
				186,
				193,
				255,
				249,
			},
			ToneCurvePV2012Blue = {
				1,
				5,
				44,
				40,
				129,
				130,
				187,
				190,
				255,
				255,
			},
			ToneCurvePV2012Green = {
				0,
				0,
				53,
				46,
				130,
				130,
				181,
				183,
				224,
				224,
				255,
				255,
			},
			ToneCurvePV2012Red = {
				0,
				19,
				52,
				46,
				126,
				128,
				186,
				190,
				255,
				255,
			},
			Vibrance = 0,
			Whites2012 = -10,
		},
		uuid = "C4D0E142-2419-4201-B06B-415C42FCA6FD",
	},
	version = 0,
}
