Develop Presets/VSCO Film 02 LR4 Canon/C - Kodak Portra 400 UC -.lrtemplate
s = {
	id = "3C15B723-4FCC-4CCF-B011-DD94999E4C30",
	internalName = "C - Kodak Portra 400 UC -",
	title = "C - Kodak Portra 400 UC -",
	type = "Develop",
	value = {
		settings = {
			Blacks2012 = 25,
			BlueHue = -5,
			BlueSaturation = 5,
			CameraProfile = "Kodak Portra 400 UC C",
			Clarity2012 = 0,
			Contrast2012 = 0,
			ConvertToGrayscale = false,
			EnableCalibration = true,
			EnableColorAdjustments = true,
			EnableDetail = true,
			EnableEffects = true,
			EnableSplitToning = true,
			GrainAmount = 15,
			GrainFrequency = 50,
			GrainSize = 30,
			GreenHue = 5,
			GreenSaturation = 0,
			Highlights2012 = -20,
			HueAdjustmentAqua = 0,
			HueAdjustmentBlue = -10,
			HueAdjustmentGreen = 30,
			HueAdjustmentMagenta = 20,
			HueAdjustmentOrange = 2,
			HueAdjustmentPurple = 15,
			HueAdjustmentRed = 15,
			HueAdjustmentYellow = 15,
			LuminanceAdjustmentAqua = -10,
			LuminanceAdjustmentBlue = -30,
			LuminanceAdjustmentGreen = -15,
			LuminanceAdjustmentMagenta = -10,
			LuminanceAdjustmentOrange = -8,
			LuminanceAdjustmentPurple = -10,
			LuminanceAdjustmentRed = -15,
			LuminanceAdjustmentYellow = 0,
			ParametricDarks = 0,
			ParametricHighlightSplit = 75,
			ParametricHighlights = 0,
			ParametricLights = 0,
			ParametricMidtoneSplit = 50,
			ParametricShadowSplit = 25,
			ParametricShadows = 0,
			ProcessVersion = "6.7",
			RedHue = 10,
			RedSaturation = 0,
			Saturation = 5,
			SaturationAdjustmentAqua = -30,
			SaturationAdjustmentBlue = -20,
			SaturationAdjustmentGreen = -50,
			SaturationAdjustmentMagenta = -25,
			SaturationAdjustmentOrange = -4,
			SaturationAdjustmentPurple = -30,
			SaturationAdjustmentRed = -10,
			SaturationAdjustmentYellow = -5,
			ShadowTint = 0,
			Shadows2012 = 25,
			SharpenDetail = 25,
			SharpenEdgeMasking = 0,
			SharpenRadius = 1,
			Sharpness = 25,
			SplitToningBalance = 0,
			SplitToningHighlightHue = 0,
			SplitToningHighlightSaturation = 0,
			SplitToningShadowHue = 0,
			SplitToningShadowSaturation = 0,
			ToneCurveName2012 = "Custom",
			ToneCurvePV2012 = {
				0,
				0,
				43,
				56,
				127,
				131,
				255,
				255,
			},
			ToneCurvePV2012Blue = {
				0,
				0,
				43,
				33,
				130,
				130,
				179,
				191,
				255,
				255,
			},
			ToneCurvePV2012Green = {
				0,
				0,
				43,
				33,
				127,
				129,
				173,
				185,
				255,
				255,
			},
			ToneCurvePV2012Red = {
				0,
				0,
				45,
				32,
				87,
				76,
				126,
				130,
				177,
				191,
				255,
				255,
			},
			Vibrance = 0,
			Whites2012 = -10,
		},
		uuid = "876FBD72-86CE-45C8-922C-F63B409156E5",
	},
	version = 0,
}
