Develop Presets/VSCO Film 02 LR4 Canon/C - Kodak Portra 160 VC.lrtemplate
s = {
	id = "F1492BBF-9A7A-4CA1-B537-E7E93C345A9A",
	internalName = "C - Kodak Portra 160 VC",
	title = "C - Kodak Portra 160 VC",
	type = "Develop",
	value = {
		settings = {
			Blacks2012 = 25,
			BlueHue = -5,
			BlueSaturation = 0,
			CameraProfile = "Kodak Portra 160 VC  C",
			Clarity2012 = 0,
			Contrast2012 = 0,
			ConvertToGrayscale = false,
			EnableCalibration = true,
			EnableColorAdjustments = true,
			EnableDetail = true,
			EnableEffects = true,
			EnableSplitToning = true,
			GrainAmount = 15,
			GrainFrequency = 40,
			GrainSize = 25,
			GreenHue = 0,
			GreenSaturation = 0,
			Highlights2012 = -10,
			HueAdjustmentAqua = 0,
			HueAdjustmentBlue = -10,
			HueAdjustmentGreen = 20,
			HueAdjustmentMagenta = 40,
			HueAdjustmentOrange = 0,
			HueAdjustmentPurple = 15,
			HueAdjustmentRed = 20,
			HueAdjustmentYellow = 10,
			LuminanceAdjustmentAqua = 0,
			LuminanceAdjustmentBlue = 0,
			LuminanceAdjustmentGreen = 0,
			LuminanceAdjustmentMagenta = 0,
			LuminanceAdjustmentOrange = -8,
			LuminanceAdjustmentPurple = 15,
			LuminanceAdjustmentRed = 0,
			LuminanceAdjustmentYellow = 0,
			ParametricDarks = 0,
			ParametricHighlightSplit = 75,
			ParametricHighlights = 0,
			ParametricLights = 0,
			ParametricMidtoneSplit = 50,
			ParametricShadowSplit = 25,
			ParametricShadows = 0,
			ProcessVersion = "6.7",
			RedHue = 10,
			RedSaturation = 0,
			Saturation = 0,
			SaturationAdjustmentAqua = -10,
			SaturationAdjustmentBlue = -20,
			SaturationAdjustmentGreen = -50,
			SaturationAdjustmentMagenta = -20,
			SaturationAdjustmentOrange = -5,
			SaturationAdjustmentPurple = -35,
			SaturationAdjustmentRed = -5,
			SaturationAdjustmentYellow = -15,
			ShadowTint = -2,
			Shadows2012 = 25,
			SharpenDetail = 25,
			SharpenEdgeMasking = 0,
			SharpenRadius = 1,
			Sharpness = 25,
			SplitToningBalance = 0,
			SplitToningHighlightHue = 0,
			SplitToningHighlightSaturation = 0,
			SplitToningShadowHue = 0,
			SplitToningShadowSaturation = 0,
			ToneCurveName2012 = "Custom",
			ToneCurvePV2012 = {
				0,
				8,
				255,
				249,
			},
			ToneCurvePV2012Blue = {
				0,
				0,
				43,
				36,
				130,
				130,
				183,
				190,
				235,
				238,
				255,
				255,
			},
			ToneCurvePV2012Green = {
				0,
				0,
				46,
				35,
				130,
				130,
				178,
				183,
				255,
				255,
			},
			ToneCurvePV2012Red = {
				0,
				0,
				46,
				32,
				129,
				130,
				182,
				191,
				220,
				226,
				255,
				255,
			},
			Vibrance = 0,
			Whites2012 = -10,
		},
		uuid = "FCB447E2-F47D-498E-AF00-EAF71A6CAE64",
	},
	version = 0,
}
