Develop Presets/VSCO Film 02 LR4 Canon/C - Fuji Superia 100 +.lrtemplate
s = {
	id = "BDED4F0D-9A5E-47ED-9119-ECDF25C997AC",
	internalName = "C - Fuji Superia Reala 100 +",
	title = "C - Fuji Superia 100 +",
	type = "Develop",
	value = {
		settings = {
			Blacks2012 = 25,
			BlueHue = 5,
			BlueSaturation = 0,
			CameraProfile = "Fuji Reala 100 C",
			Clarity2012 = 0,
			Contrast2012 = 0,
			ConvertToGrayscale = false,
			EnableCalibration = true,
			EnableColorAdjustments = true,
			EnableDetail = true,
			EnableEffects = true,
			EnableSplitToning = true,
			GrainAmount = 25,
			GrainFrequency = 30,
			GrainSize = 25,
			GreenHue = 0,
			GreenSaturation = -10,
			Highlights2012 = -15,
			HueAdjustmentAqua = 0,
			HueAdjustmentBlue = 0,
			HueAdjustmentGreen = 30,
			HueAdjustmentMagenta = 20,
			HueAdjustmentOrange = 10,
			HueAdjustmentPurple = 0,
			HueAdjustmentRed = 15,
			HueAdjustmentYellow = 10,
			LuminanceAdjustmentAqua = 20,
			LuminanceAdjustmentBlue = 0,
			LuminanceAdjustmentGreen = 20,
			LuminanceAdjustmentMagenta = -5,
			LuminanceAdjustmentOrange = -5,
			LuminanceAdjustmentPurple = 5,
			LuminanceAdjustmentRed = -20,
			LuminanceAdjustmentYellow = 0,
			ParametricDarks = 0,
			ParametricHighlightSplit = 75,
			ParametricHighlights = 0,
			ParametricLights = 0,
			ParametricMidtoneSplit = 50,
			ParametricShadowSplit = 25,
			ParametricShadows = 0,
			ProcessVersion = "6.7",
			RedHue = 5,
			RedSaturation = 0,
			Saturation = 0,
			SaturationAdjustmentAqua = -34,
			SaturationAdjustmentBlue = 0,
			SaturationAdjustmentGreen = -30,
			SaturationAdjustmentMagenta = -20,
			SaturationAdjustmentOrange = -5,
			SaturationAdjustmentPurple = -10,
			SaturationAdjustmentRed = -5,
			SaturationAdjustmentYellow = 0,
			ShadowTint = -2,
			Shadows2012 = 20,
			SharpenDetail = 25,
			SharpenEdgeMasking = 0,
			SharpenRadius = 1.5,
			Sharpness = 35,
			SplitToningBalance = 0,
			SplitToningHighlightHue = 0,
			SplitToningHighlightSaturation = 0,
			SplitToningShadowHue = 0,
			SplitToningShadowSaturation = 0,
			ToneCurveName2012 = "Custom",
			ToneCurvePV2012 = {
				0,
				9,
				53,
				55,
				124,
				126,
				255,
				255,
			},
			ToneCurvePV2012Blue = {
				0,
				2,
				128,
				128,
				192,
				193,
				255,
				255,
			},
			ToneCurvePV2012Green = {
				0,
				0,
				60,
				56,
				132,
				132,
				191,
				189,
				255,
				255,
			},
			ToneCurvePV2012Red = {
				0,
				0,
				26,
				15,
				66,
				58,
				122,
				123,
				255,
				255,
			},
			Vibrance = 0,
			Whites2012 = -10,
		},
		uuid = "50069957-7039-4919-8B26-681415352D51",
	},
	version = 0,
}
