Develop Presets/VSCO Film 02 LR4 Canon/C - Fuji Superia 400 ++.lrtemplate
s = {
	id = "3683B4F1-7E75-48E7-9C79-ADBE601AB4AB",
	internalName = "C - Fuji Superia 400 ++",
	title = "C - Fuji Superia 400 ++",
	type = "Develop",
	value = {
		settings = {
			Blacks2012 = 25,
			BlueHue = 0,
			BlueSaturation = 0,
			CameraProfile = "Fuji Superia 400 C",
			Clarity2012 = 0,
			Contrast2012 = 0,
			ConvertToGrayscale = false,
			EnableCalibration = true,
			EnableColorAdjustments = true,
			EnableDetail = true,
			EnableEffects = true,
			EnableSplitToning = true,
			GrainAmount = 50,
			GrainFrequency = 30,
			GrainSize = 25,
			GreenHue = 0,
			GreenSaturation = 0,
			Highlights2012 = -15,
			HueAdjustmentAqua = 0,
			HueAdjustmentBlue = 0,
			HueAdjustmentGreen = 15,
			HueAdjustmentMagenta = 20,
			HueAdjustmentOrange = 2,
			HueAdjustmentPurple = 10,
			HueAdjustmentRed = 15,
			HueAdjustmentYellow = 0,
			LuminanceAdjustmentAqua = 0,
			LuminanceAdjustmentBlue = -20,
			LuminanceAdjustmentGreen = -10,
			LuminanceAdjustmentMagenta = 0,
			LuminanceAdjustmentOrange = -12,
			LuminanceAdjustmentPurple = 0,
			LuminanceAdjustmentRed = -5,
			LuminanceAdjustmentYellow = 15,
			ParametricDarks = 0,
			ParametricHighlightSplit = 75,
			ParametricHighlights = 0,
			ParametricLights = 0,
			ParametricMidtoneSplit = 50,
			ParametricShadowSplit = 25,
			ParametricShadows = 0,
			ProcessVersion = "6.7",
			RedHue = 10,
			RedSaturation = 10,
			Saturation = -5,
			SaturationAdjustmentAqua = -45,
			SaturationAdjustmentBlue = -10,
			SaturationAdjustmentGreen = -55,
			SaturationAdjustmentMagenta = -30,
			SaturationAdjustmentOrange = 0,
			SaturationAdjustmentPurple = -40,
			SaturationAdjustmentRed = -10,
			SaturationAdjustmentYellow = -5,
			ShadowTint = 0,
			Shadows2012 = 25,
			SharpenDetail = 25,
			SharpenEdgeMasking = 0,
			SharpenRadius = 1,
			Sharpness = 25,
			SplitToningBalance = 0,
			SplitToningHighlightHue = 0,
			SplitToningHighlightSaturation = 0,
			SplitToningShadowHue = 0,
			SplitToningShadowSaturation = 0,
			ToneCurveName2012 = "Custom",
			ToneCurvePV2012 = {
				0,
				24,
				46,
				59,
				119,
				124,
				255,
				250,
			},
			ToneCurvePV2012Blue = {
				0,
				4,
				68,
				51,
				119,
				122,
				171,
				189,
				255,
				253,
			},
			ToneCurvePV2012Green = {
				0,
				3,
				67,
				53,
				117,
				121,
				172,
				192,
				213,
				229,
				255,
				253,
			},
			ToneCurvePV2012Red = {
				0,
				0,
				25,
				12,
				73,
				56,
				118,
				120,
				172,
				193,
				255,
				253,
			},
			Vibrance = 0,
			Whites2012 = -10,
		},
		uuid = "C2694D18-36DC-4FCE-A49F-81DA1D080A3F",
	},
	version = 0,
}
