Develop Presets/Loupedeck BW Toning Set 2017/BW - Light Seepia.lrtemplate
s = {
	id = "05AA7A2F-D863-454E-A8CA-8CBA1448BF7E",
	internalName = "BW - Light Sepia",
	title = "BW - Light Sepia",
	type = "Develop",
	value = {
		settings = {
			Blacks2012 = 19,
			BlueHue = 0,
			BlueSaturation = 0,
			CameraProfile = "Adobe Standard",
			Clarity2012 = -2,
			ColorNoiseReduction = 25,
			ColorNoiseReductionDetail = 50,
			ColorNoiseReductionSmoothness = 50,
			Contrast2012 = 64,
			ConvertToGrayscale = true,
			Dehaze = 12,
			EnableCalibration = true,
			EnableCircularGradientBasedCorrections = true,
			EnableDetail = true,
			EnableEffects = true,
			EnableGradientBasedCorrections = true,
			EnableGrayscaleMix = true,
			EnableSplitToning = true,
			Exposure2012 = 0.83,
			GrainAmount = 0,
			GrainFrequency = 50,
			GrainSize = 25,
			GrayMixerAqua = -18,
			GrayMixerBlue = 9,
			GrayMixerGreen = -26,
			GrayMixerMagenta = 4,
			GrayMixerOrange = -18,
			GrayMixerPurple = 15,
			GrayMixerRed = -9,
			GrayMixerYellow = -22,
			GreenHue = 0,
			GreenSaturation = 0,
			Highlights2012 = -88,
			LuminanceNoiseReductionContrast = 0,
			LuminanceNoiseReductionDetail = 50,
			LuminanceSmoothing = 10,
			ParametricDarks = 0,
			ParametricHighlightSplit = 75,
			ParametricHighlights = 0,
			ParametricLights = 0,
			ParametricMidtoneSplit = 50,
			ParametricShadowSplit = 25,
			ParametricShadows = 0,
			PostCropVignetteAmount = -57,
			PostCropVignetteFeather = 73,
			PostCropVignetteHighlightContrast = 21,
			PostCropVignetteMidpoint = 33,
			PostCropVignetteRoundness = 0,
			PostCropVignetteStyle = 1,
			ProcessVersion = "6.7",
			RedHue = 0,
			RedSaturation = 0,
			ShadowTint = 0,
			Shadows2012 = 67,
			SharpenDetail = 25,
			SharpenEdgeMasking = 0,
			SharpenRadius = 1,
			Sharpness = 59,
			SplitToningBalance = 81,
			SplitToningHighlightHue = 41,
			SplitToningHighlightSaturation = 25,
			SplitToningShadowHue = 43,
			SplitToningShadowSaturation = 82,
			ToneCurveName2012 = "Linear",
			ToneCurvePV2012 = {
				0,
				0,
				255,
				255,
			},
			ToneCurvePV2012Blue = {
				0,
				0,
				255,
				255,
			},
			ToneCurvePV2012Green = {
				0,
				0,
				255,
				255,
			},
			ToneCurvePV2012Red = {
				0,
				0,
				255,
				255,
			},
			WhiteBalance = "As Shot",
			Whites2012 = 43,
			orientation = "AB",
		},
		uuid = "DB74576A-98FC-4885-95ED-FEB79DE1A37D",
	},
	version = 0,
}
