Develop Presets/Loupedeck BW Toning Set 2017/BW - Underwater.lrtemplate
s = {
	id = "06CF48B7-1950-44FD-8288-A01B82A138C2",
	internalName = "BW - Underwater",
	title = "BW - Underwater",
	type = "Develop",
	value = {
		settings = {
			Blacks2012 = 10,
			BlueHue = 0,
			BlueSaturation = 0,
			CameraProfile = "Adobe Standard",
			Clarity2012 = 10,
			ColorNoiseReduction = 25,
			ColorNoiseReductionDetail = 50,
			ColorNoiseReductionSmoothness = 50,
			Contrast2012 = 33,
			ConvertToGrayscale = true,
			Dehaze = 3,
			EnableCalibration = true,
			EnableDetail = true,
			EnableEffects = true,
			EnableGrayscaleMix = true,
			EnableSplitToning = true,
			Exposure2012 = 0.83,
			GrainAmount = 0,
			GrainFrequency = 50,
			GrainSize = 25,
			GrayMixerAqua = -18,
			GrayMixerBlue = 9,
			GrayMixerGreen = -26,
			GrayMixerMagenta = 4,
			GrayMixerOrange = -18,
			GrayMixerPurple = 15,
			GrayMixerRed = -9,
			GrayMixerYellow = -22,
			GreenHue = 0,
			GreenSaturation = 0,
			Highlights2012 = -76,
			LuminanceNoiseReductionContrast = 0,
			LuminanceNoiseReductionDetail = 50,
			LuminanceSmoothing = 10,
			ParametricDarks = 0,
			ParametricHighlightSplit = 75,
			ParametricHighlights = 0,
			ParametricLights = 0,
			ParametricMidtoneSplit = 50,
			ParametricShadowSplit = 25,
			ParametricShadows = 0,
			PostCropVignetteAmount = -57,
			PostCropVignetteFeather = 73,
			PostCropVignetteHighlightContrast = 21,
			PostCropVignetteMidpoint = 33,
			PostCropVignetteRoundness = 0,
			PostCropVignetteStyle = 1,
			ProcessVersion = "6.7",
			RedHue = 0,
			RedSaturation = 0,
			ShadowTint = 0,
			Shadows2012 = 57,
			SharpenDetail = 25,
			SharpenEdgeMasking = 0,
			SharpenRadius = 1,
			Sharpness = 59,
			SplitToningBalance = 48,
			SplitToningHighlightHue = 53,
			SplitToningHighlightSaturation = 33,
			SplitToningShadowHue = 182,
			SplitToningShadowSaturation = 89,
			ToneCurveName2012 = "Linear",
			ToneCurvePV2012 = {
				0,
				0,
				255,
				255,
			},
			ToneCurvePV2012Blue = {
				0,
				0,
				255,
				255,
			},
			ToneCurvePV2012Green = {
				0,
				0,
				255,
				255,
			},
			ToneCurvePV2012Red = {
				0,
				0,
				255,
				255,
			},
			WhiteBalance = "As Shot",
			Whites2012 = 50,
		},
		uuid = "FF3536B4-7150-4908-90DD-EF1257FF87ED",
	},
	version = 0,
}
