Develop Presets/VSCO Film 06 Push & Pull - Canon/C - Portra 400+1.lrtemplate
s = {
	id = "0C123119-7B38-4D2A-BAC2-F413D8446A59",
	internalName = "C - Portra 400⁺¹",
	title = "C - Portra 400⁺¹",
	type = "Develop",
	value = {
		settings = {
			Blacks2012 = 15,
			BlueHue = -10,
			BlueSaturation = -10,
			CameraProfile = "Portra 400⁺¹ - C",
			Clarity2012 = 0,
			Contrast2012 = 0,
			ConvertToGrayscale = false,
			EnableCalibration = true,
			EnableColorAdjustments = true,
			EnableDetail = true,
			EnableEffects = true,
			EnableSplitToning = true,
			GrainAmount = 20,
			GrainFrequency = 60,
			GrainSize = 20,
			GreenHue = 50,
			GreenSaturation = -25,
			Highlights2012 = -20,
			HueAdjustmentAqua = 0,
			HueAdjustmentBlue = -5,
			HueAdjustmentGreen = 15,
			HueAdjustmentMagenta = 0,
			HueAdjustmentOrange = 10,
			HueAdjustmentPurple = 0,
			HueAdjustmentRed = -10,
			HueAdjustmentYellow = 15,
			LuminanceAdjustmentAqua = 0,
			LuminanceAdjustmentBlue = -15,
			LuminanceAdjustmentGreen = -10,
			LuminanceAdjustmentMagenta = 0,
			LuminanceAdjustmentOrange = -10,
			LuminanceAdjustmentPurple = 0,
			LuminanceAdjustmentRed = -15,
			LuminanceAdjustmentYellow = -14,
			ParametricDarks = 0,
			ParametricHighlightSplit = 75,
			ParametricHighlights = 0,
			ParametricLights = 0,
			ParametricMidtoneSplit = 50,
			ParametricShadowSplit = 25,
			ParametricShadows = 0,
			ProcessVersion = "6.7",
			RedHue = 35,
			RedSaturation = 5,
			Saturation = 0,
			SaturationAdjustmentAqua = -5,
			SaturationAdjustmentBlue = -5,
			SaturationAdjustmentGreen = -10,
			SaturationAdjustmentMagenta = 0,
			SaturationAdjustmentOrange = -5,
			SaturationAdjustmentPurple = 0,
			SaturationAdjustmentRed = -10,
			SaturationAdjustmentYellow = 0,
			ShadowTint = 0,
			Shadows2012 = 25,
			SharpenDetail = 25,
			SharpenEdgeMasking = 0,
			SharpenRadius = 1,
			Sharpness = 0,
			SplitToningBalance = 0,
			SplitToningHighlightHue = 0,
			SplitToningHighlightSaturation = 0,
			SplitToningShadowHue = 0,
			SplitToningShadowSaturation = 0,
			ToneCurveName2012 = "Portra 400+1",
			ToneCurvePV2012 = {
				0,
				15,
				54,
				65,
				171,
				180,
				255,
				255,
			},
			ToneCurvePV2012Blue = {
				0,
				0,
				39,
				13,
				87,
				65,
				123,
				124,
				183,
				199,
				255,
				255,
			},
			ToneCurvePV2012Green = {
				0,
				0,
				40,
				14,
				83,
				59,
				123,
				126,
				170,
				187,
				255,
				255,
			},
			ToneCurvePV2012Red = {
				0,
				0,
				40,
				12,
				84,
				58,
				123,
				125,
				182,
				200,
				255,
				255,
			},
			Vibrance = 0,
			Whites2012 = -15,
		},
		uuid = "900DE16E-72C0-43F6-9F5E-049D0022D6F2",
	},
	version = 0,
}
