Develop Presets/VSCO Film 06 Push & Pull - Canon/C - 400H+1 ++.lrtemplate
s = {
	id = "A70E0936-547B-4AC9-9DE2-380C56C14BEB",
	internalName = "C - 400H⁺¹ ++",
	title = "C - 400H⁺¹ ++",
	type = "Develop",
	value = {
		settings = {
			Blacks2012 = 5,
			BlueHue = -15,
			BlueSaturation = -10,
			CameraProfile = "400H⁺¹ - C",
			Clarity2012 = 0,
			Contrast2012 = 0,
			ConvertToGrayscale = false,
			EnableCalibration = true,
			EnableColorAdjustments = true,
			EnableDetail = true,
			EnableEffects = true,
			EnableSplitToning = true,
			GrainAmount = 15,
			GrainFrequency = 80,
			GrainSize = 30,
			GreenHue = 40,
			GreenSaturation = -25,
			Highlights2012 = -35,
			HueAdjustmentAqua = 0,
			HueAdjustmentBlue = 0,
			HueAdjustmentGreen = 15,
			HueAdjustmentMagenta = 25,
			HueAdjustmentOrange = 12,
			HueAdjustmentPurple = 4,
			HueAdjustmentRed = 5,
			HueAdjustmentYellow = 12,
			LuminanceAdjustmentAqua = 0,
			LuminanceAdjustmentBlue = -10,
			LuminanceAdjustmentGreen = 10,
			LuminanceAdjustmentMagenta = 0,
			LuminanceAdjustmentOrange = 5,
			LuminanceAdjustmentPurple = -15,
			LuminanceAdjustmentRed = -10,
			LuminanceAdjustmentYellow = 0,
			ParametricDarks = 0,
			ParametricHighlightSplit = 75,
			ParametricHighlights = 0,
			ParametricLights = 0,
			ParametricMidtoneSplit = 60,
			ParametricShadowSplit = 14,
			ParametricShadows = 0,
			ProcessVersion = "6.7",
			RedHue = 25,
			RedSaturation = 0,
			Saturation = 0,
			SaturationAdjustmentAqua = -30,
			SaturationAdjustmentBlue = -10,
			SaturationAdjustmentGreen = -25,
			SaturationAdjustmentMagenta = -20,
			SaturationAdjustmentOrange = 0,
			SaturationAdjustmentPurple = -10,
			SaturationAdjustmentRed = -10,
			SaturationAdjustmentYellow = 0,
			ShadowTint = 0,
			Shadows2012 = 15,
			SharpenDetail = 25,
			SharpenEdgeMasking = 0,
			SharpenRadius = 1,
			Sharpness = 0,
			SplitToningBalance = 0,
			SplitToningHighlightHue = 0,
			SplitToningHighlightSaturation = 0,
			SplitToningShadowHue = 0,
			SplitToningShadowSaturation = 0,
			ToneCurveName2012 = "400H+1 ++",
			ToneCurvePV2012 = {
				0,
				44,
				43,
				61,
				85,
				90,
				168,
				169,
				255,
				249,
			},
			ToneCurvePV2012Blue = {
				0,
				0,
				41,
				26,
				113,
				123,
				178,
				203,
				255,
				255,
			},
			ToneCurvePV2012Green = {
				0,
				0,
				43,
				22,
				70,
				53,
				112,
				122,
				180,
				202,
				255,
				255,
			},
			ToneCurvePV2012Red = {
				0,
				0,
				46,
				17,
				80,
				60,
				113,
				123,
				178,
				203,
				255,
				255,
			},
			Vibrance = 0,
			Whites2012 = -15,
		},
		uuid = "61EB0932-01F6-4460-859E-817646222C90",
	},
	version = 0,
}
