Develop Presets/VSCO Film 06 Push & Pull - Canon/C - Portra 400+1 Vibrant.lrtemplate
s = {
	id = "7142E327-65CB-438F-BEE8-8F484A81EF1A",
	internalName = "C - Portra 400⁺¹ Vibrant",
	title = "C - Portra 400⁺¹ Vibrant",
	type = "Develop",
	value = {
		settings = {
			Blacks2012 = 20,
			BlueHue = -12,
			BlueSaturation = -5,
			CameraProfile = "Portra 400⁺¹ - C",
			Clarity2012 = 0,
			Contrast2012 = 0,
			ConvertToGrayscale = false,
			EnableCalibration = true,
			EnableColorAdjustments = true,
			EnableDetail = true,
			EnableEffects = true,
			EnableSplitToning = true,
			GrainAmount = 20,
			GrainFrequency = 60,
			GrainSize = 20,
			GreenHue = 55,
			GreenSaturation = -18,
			Highlights2012 = -30,
			HueAdjustmentAqua = 0,
			HueAdjustmentBlue = -5,
			HueAdjustmentGreen = 20,
			HueAdjustmentMagenta = 0,
			HueAdjustmentOrange = 10,
			HueAdjustmentPurple = 0,
			HueAdjustmentRed = -5,
			HueAdjustmentYellow = 15,
			LuminanceAdjustmentAqua = 0,
			LuminanceAdjustmentBlue = -15,
			LuminanceAdjustmentGreen = -10,
			LuminanceAdjustmentMagenta = 0,
			LuminanceAdjustmentOrange = -10,
			LuminanceAdjustmentPurple = 0,
			LuminanceAdjustmentRed = -10,
			LuminanceAdjustmentYellow = -14,
			ParametricDarks = 0,
			ParametricHighlightSplit = 75,
			ParametricHighlights = 0,
			ParametricLights = 0,
			ParametricMidtoneSplit = 50,
			ParametricShadowSplit = 25,
			ParametricShadows = 0,
			ProcessVersion = "6.7",
			RedHue = 40,
			RedSaturation = 10,
			Saturation = 0,
			SaturationAdjustmentAqua = -5,
			SaturationAdjustmentBlue = -10,
			SaturationAdjustmentGreen = -10,
			SaturationAdjustmentMagenta = 0,
			SaturationAdjustmentOrange = -2,
			SaturationAdjustmentPurple = 0,
			SaturationAdjustmentRed = -15,
			SaturationAdjustmentYellow = 0,
			ShadowTint = 0,
			Shadows2012 = 35,
			SharpenDetail = 25,
			SharpenEdgeMasking = 0,
			SharpenRadius = 1,
			Sharpness = 0,
			SplitToningBalance = 0,
			SplitToningHighlightHue = 0,
			SplitToningHighlightSaturation = 0,
			SplitToningShadowHue = 0,
			SplitToningShadowSaturation = 0,
			ToneCurveName2012 = "Portra 400+1 Vibrant",
			ToneCurvePV2012 = {
				0,
				13,
				42,
				51,
				107,
				116,
				171,
				180,
				255,
				255,
			},
			ToneCurvePV2012Blue = {
				0,
				0,
				39,
				13,
				87,
				65,
				123,
				124,
				183,
				199,
				255,
				255,
			},
			ToneCurvePV2012Green = {
				0,
				0,
				40,
				14,
				83,
				59,
				123,
				126,
				170,
				187,
				255,
				255,
			},
			ToneCurvePV2012Red = {
				0,
				0,
				40,
				11,
				84,
				58,
				123,
				125,
				182,
				200,
				255,
				255,
			},
			Vibrance = 0,
			Whites2012 = -25,
		},
		uuid = "15A45893-6827-4CF7-8757-2694845AA95C",
	},
	version = 0,
}
