Develop Presets/VSCO Film 06 Push & Pull - Canon/C - Portra 400+2 ++.lrtemplate
s = {
	id = "F426F7D2-09FB-4CA3-9033-BD3F416ACC1A",
	internalName = "C - Portra 400⁺² ++",
	title = "C - Portra 400⁺² ++",
	type = "Develop",
	value = {
		settings = {
			Blacks2012 = 10,
			BlueHue = -5,
			BlueSaturation = -10,
			CameraProfile = "Portra 400⁺² - C",
			Clarity2012 = 0,
			Contrast2012 = 0,
			ConvertToGrayscale = false,
			EnableCalibration = true,
			EnableColorAdjustments = true,
			EnableDetail = true,
			EnableEffects = true,
			EnableSplitToning = true,
			GrainAmount = 30,
			GrainFrequency = 60,
			GrainSize = 20,
			GreenHue = 50,
			GreenSaturation = -15,
			Highlights2012 = -20,
			HueAdjustmentAqua = 0,
			HueAdjustmentBlue = 5,
			HueAdjustmentGreen = 15,
			HueAdjustmentMagenta = 0,
			HueAdjustmentOrange = 12,
			HueAdjustmentPurple = 0,
			HueAdjustmentRed = 0,
			HueAdjustmentYellow = 15,
			LuminanceAdjustmentAqua = 0,
			LuminanceAdjustmentBlue = 0,
			LuminanceAdjustmentGreen = -10,
			LuminanceAdjustmentMagenta = 34,
			LuminanceAdjustmentOrange = -6,
			LuminanceAdjustmentPurple = 0,
			LuminanceAdjustmentRed = -15,
			LuminanceAdjustmentYellow = 0,
			ParametricDarks = 0,
			ParametricHighlightSplit = 75,
			ParametricHighlights = 0,
			ParametricLights = 0,
			ParametricMidtoneSplit = 50,
			ParametricShadowSplit = 25,
			ParametricShadows = 0,
			ProcessVersion = "6.7",
			RedHue = 35,
			RedSaturation = -10,
			Saturation = 0,
			SaturationAdjustmentAqua = 0,
			SaturationAdjustmentBlue = 0,
			SaturationAdjustmentGreen = -10,
			SaturationAdjustmentMagenta = 0,
			SaturationAdjustmentOrange = 0,
			SaturationAdjustmentPurple = 0,
			SaturationAdjustmentRed = -15,
			SaturationAdjustmentYellow = 0,
			ShadowTint = 0,
			Shadows2012 = 25,
			SharpenDetail = 25,
			SharpenEdgeMasking = 0,
			SharpenRadius = 1,
			Sharpness = 0,
			SplitToningBalance = 0,
			SplitToningHighlightHue = 0,
			SplitToningHighlightSaturation = 0,
			SplitToningShadowHue = 0,
			SplitToningShadowSaturation = 0,
			ToneCurveName2012 = "Portra 400+2 ++",
			ToneCurvePV2012 = {
				0,
				57,
				109,
				118,
				176,
				180,
				255,
				255,
			},
			ToneCurvePV2012Blue = {
				0,
				0,
				40,
				13,
				88,
				63,
				128,
				120,
				197,
				206,
				255,
				255,
			},
			ToneCurvePV2012Green = {
				0,
				0,
				39,
				11,
				89,
				63,
				127,
				121,
				198,
				205,
				255,
				255,
			},
			ToneCurvePV2012Red = {
				0,
				0,
				39,
				9,
				89,
				60,
				127,
				120,
				197,
				206,
				255,
				255,
			},
			Vibrance = 0,
			Whites2012 = -15,
		},
		uuid = "2FA45B43-6E86-4533-855F-0B63050B1AE9",
	},
	version = 0,
}
