Develop Presets/VSCO Film 06 Push & Pull - Canon/C - Provia 400X+1 ++.lrtemplate
s = {
	id = "4EE5D527-565A-4B57-AAA2-175DC8824341",
	internalName = "C - Provia 400X⁺¹ ++",
	title = "C - Provia 400X⁺¹ ++",
	type = "Develop",
	value = {
		settings = {
			Blacks2012 = 10,
			BlueHue = 5,
			BlueSaturation = -30,
			CameraProfile = "Provia 400X⁺¹ - C",
			Clarity2012 = 0,
			Contrast2012 = 0,
			ConvertToGrayscale = false,
			EnableCalibration = true,
			EnableColorAdjustments = true,
			EnableDetail = true,
			EnableEffects = true,
			EnableSplitToning = true,
			GrainAmount = 30,
			GrainFrequency = 45,
			GrainSize = 25,
			GreenHue = 40,
			GreenSaturation = -40,
			Highlights2012 = -15,
			HueAdjustmentAqua = 8,
			HueAdjustmentBlue = 0,
			HueAdjustmentGreen = 10,
			HueAdjustmentMagenta = -15,
			HueAdjustmentOrange = 4,
			HueAdjustmentPurple = -10,
			HueAdjustmentRed = 5,
			HueAdjustmentYellow = 10,
			LuminanceAdjustmentAqua = -5,
			LuminanceAdjustmentBlue = -12,
			LuminanceAdjustmentGreen = 0,
			LuminanceAdjustmentMagenta = -10,
			LuminanceAdjustmentOrange = -15,
			LuminanceAdjustmentPurple = 0,
			LuminanceAdjustmentRed = -20,
			LuminanceAdjustmentYellow = -10,
			ParametricDarks = 0,
			ParametricHighlightSplit = 75,
			ParametricHighlights = 0,
			ParametricLights = 0,
			ParametricMidtoneSplit = 50,
			ParametricShadowSplit = 25,
			ParametricShadows = 0,
			ProcessVersion = "6.7",
			RedHue = 15,
			RedSaturation = 30,
			Saturation = 0,
			SaturationAdjustmentAqua = -15,
			SaturationAdjustmentBlue = 10,
			SaturationAdjustmentGreen = -20,
			SaturationAdjustmentMagenta = -30,
			SaturationAdjustmentOrange = -10,
			SaturationAdjustmentPurple = -25,
			SaturationAdjustmentRed = -25,
			SaturationAdjustmentYellow = -10,
			ShadowTint = 0,
			Shadows2012 = 15,
			SharpenDetail = 25,
			SharpenEdgeMasking = 0,
			SharpenRadius = 1,
			Sharpness = 0,
			SplitToningBalance = 0,
			SplitToningHighlightHue = 0,
			SplitToningHighlightSaturation = 0,
			SplitToningShadowHue = 0,
			SplitToningShadowSaturation = 0,
			ToneCurveName2012 = "Provia 400X+1 ++",
			ToneCurvePV2012 = {
				0,
				40,
				30,
				56,
				116,
				121,
				255,
				255,
			},
			ToneCurvePV2012Blue = {
				0,
				0,
				66,
				34,
				125,
				128,
				203,
				230,
				255,
				255,
			},
			ToneCurvePV2012Green = {
				0,
				0,
				30,
				9,
				73,
				41,
				127,
				128,
				155,
				176,
				201,
				229,
				255,
				255,
			},
			ToneCurvePV2012Red = {
				0,
				0,
				30,
				8,
				72,
				41,
				126,
				127,
				203,
				229,
				255,
				255,
			},
			Vibrance = 0,
			Whites2012 = -10,
		},
		uuid = "81DD3991-36A8-4E2D-97B0-ACFA5CFA11F5",
	},
	version = 0,
}
