Develop Presets/VSCO Film 06 Push & Pull - Canon/C - Portra 400+2 +.lrtemplate
s = {
	id = "A0F0FE0B-CED7-4FEA-887D-D06644584BF8",
	internalName = "C - Portra 400⁺² +",
	title = "C - Portra 400⁺² +",
	type = "Develop",
	value = {
		settings = {
			Blacks2012 = 10,
			BlueHue = -10,
			BlueSaturation = -10,
			CameraProfile = "Portra 400⁺² - C",
			Clarity2012 = 0,
			Contrast2012 = 0,
			ConvertToGrayscale = false,
			EnableCalibration = true,
			EnableColorAdjustments = true,
			EnableDetail = true,
			EnableEffects = true,
			EnableSplitToning = true,
			GrainAmount = 30,
			GrainFrequency = 60,
			GrainSize = 20,
			GreenHue = 50,
			GreenSaturation = -25,
			Highlights2012 = -20,
			HueAdjustmentAqua = 0,
			HueAdjustmentBlue = 0,
			HueAdjustmentGreen = 15,
			HueAdjustmentMagenta = 0,
			HueAdjustmentOrange = 12,
			HueAdjustmentPurple = 0,
			HueAdjustmentRed = 0,
			HueAdjustmentYellow = 12,
			LuminanceAdjustmentAqua = 0,
			LuminanceAdjustmentBlue = -15,
			LuminanceAdjustmentGreen = -10,
			LuminanceAdjustmentMagenta = 0,
			LuminanceAdjustmentOrange = -6,
			LuminanceAdjustmentPurple = 0,
			LuminanceAdjustmentRed = -15,
			LuminanceAdjustmentYellow = -14,
			ParametricDarks = 0,
			ParametricHighlightSplit = 75,
			ParametricHighlights = 0,
			ParametricLights = 0,
			ParametricMidtoneSplit = 50,
			ParametricShadowSplit = 25,
			ParametricShadows = 0,
			ProcessVersion = "6.7",
			RedHue = 35,
			RedSaturation = 5,
			Saturation = 0,
			SaturationAdjustmentAqua = -5,
			SaturationAdjustmentBlue = 0,
			SaturationAdjustmentGreen = -10,
			SaturationAdjustmentMagenta = 0,
			SaturationAdjustmentOrange = -5,
			SaturationAdjustmentPurple = 0,
			SaturationAdjustmentRed = 0,
			SaturationAdjustmentYellow = 0,
			ShadowTint = 0,
			Shadows2012 = 25,
			SharpenDetail = 25,
			SharpenEdgeMasking = 0,
			SharpenRadius = 1,
			Sharpness = 0,
			SplitToningBalance = 0,
			SplitToningHighlightHue = 0,
			SplitToningHighlightSaturation = 0,
			SplitToningShadowHue = 0,
			SplitToningShadowSaturation = 0,
			ToneCurveName2012 = "Portra 400+2 +",
			ToneCurvePV2012 = {
				0,
				39,
				57,
				78,
				110,
				120,
				184,
				190,
				255,
				255,
			},
			ToneCurvePV2012Blue = {
				0,
				0,
				38,
				17,
				86,
				65,
				127,
				121,
				199,
				203,
				255,
				255,
			},
			ToneCurvePV2012Green = {
				0,
				0,
				39,
				13,
				88,
				64,
				127,
				121,
				198,
				205,
				255,
				255,
			},
			ToneCurvePV2012Red = {
				0,
				0,
				39,
				13,
				87,
				60,
				127,
				120,
				197,
				206,
				255,
				255,
			},
			Vibrance = 0,
			Whites2012 = -15,
		},
		uuid = "8927DFFB-96E9-4586-ACAB-2A261D7ADE3F",
	},
	version = 0,
}
