Develop Presets/VSCO Film 06 Push & Pull - Canon/C - 400H+1 Night.lrtemplate
s = {
	id = "141C6D32-50A6-4829-97A2-D233EEAF019C",
	internalName = "C - 400H⁺¹ Night",
	title = "C - 400H⁺¹ Night",
	type = "Develop",
	value = {
		settings = {
			Blacks2012 = 5,
			BlueHue = -5,
			BlueSaturation = -10,
			CameraProfile = "400H⁺¹ - C",
			Clarity2012 = 0,
			Contrast2012 = 0,
			ConvertToGrayscale = false,
			EnableCalibration = true,
			EnableColorAdjustments = true,
			EnableDetail = true,
			EnableEffects = true,
			EnableSplitToning = true,
			GrainAmount = 15,
			GrainFrequency = 80,
			GrainSize = 30,
			GreenHue = 40,
			GreenSaturation = -25,
			Highlights2012 = -35,
			HueAdjustmentAqua = 0,
			HueAdjustmentBlue = 0,
			HueAdjustmentGreen = 15,
			HueAdjustmentMagenta = 25,
			HueAdjustmentOrange = 6,
			HueAdjustmentPurple = 4,
			HueAdjustmentRed = 5,
			HueAdjustmentYellow = 5,
			LuminanceAdjustmentAqua = 0,
			LuminanceAdjustmentBlue = -10,
			LuminanceAdjustmentGreen = 10,
			LuminanceAdjustmentMagenta = 0,
			LuminanceAdjustmentOrange = 5,
			LuminanceAdjustmentPurple = -15,
			LuminanceAdjustmentRed = -10,
			LuminanceAdjustmentYellow = 0,
			ParametricDarks = 0,
			ParametricHighlightSplit = 75,
			ParametricHighlights = 0,
			ParametricLights = 0,
			ParametricMidtoneSplit = 60,
			ParametricShadowSplit = 14,
			ParametricShadows = 0,
			ProcessVersion = "6.7",
			RedHue = 20,
			RedSaturation = -20,
			Saturation = 0,
			SaturationAdjustmentAqua = -30,
			SaturationAdjustmentBlue = -10,
			SaturationAdjustmentGreen = -25,
			SaturationAdjustmentMagenta = -20,
			SaturationAdjustmentOrange = 0,
			SaturationAdjustmentPurple = -10,
			SaturationAdjustmentRed = -20,
			SaturationAdjustmentYellow = 0,
			ShadowTint = 0,
			Shadows2012 = 15,
			SharpenDetail = 25,
			SharpenEdgeMasking = 0,
			SharpenRadius = 1,
			Sharpness = 0,
			SplitToningBalance = 0,
			SplitToningHighlightHue = 0,
			SplitToningHighlightSaturation = 0,
			SplitToningShadowHue = 0,
			SplitToningShadowSaturation = 0,
			ToneCurveName2012 = "400H+1 Night",
			ToneCurvePV2012 = {
				0,
				35,
				36,
				51,
				85,
				90,
				168,
				169,
				255,
				249,
			},
			ToneCurvePV2012Blue = {
				0,
				0,
				48,
				19,
				112,
				120,
				178,
				203,
				255,
				255,
			},
			ToneCurvePV2012Green = {
				0,
				0,
				42,
				23,
				113,
				120,
				180,
				202,
				255,
				255,
			},
			ToneCurvePV2012Red = {
				0,
				0,
				45,
				18,
				78,
				60,
				116,
				123,
				180,
				202,
				255,
				255,
			},
			Vibrance = 0,
			Whites2012 = -15,
		},
		uuid = "E1FC3640-126F-4D22-A15D-92F5C8C45127",
	},
	version = 0,
}
