Develop Presets/Loupedeck Old School Colorization 2017/Oldies Greenish.lrtemplate
s = {
	id = "119C3C0D-CC1E-4A14-B375-F4946E1A0871",
	internalName = "Oldies Greenish",
	title = "Oldies Greenish",
	type = "Develop",
	value = {
		settings = {
			Blacks2012 = 40,
			BlueHue = 0,
			BlueSaturation = 0,
			CameraProfile = "Adobe Standard",
			Clarity2012 = 9,
			ColorNoiseReduction = 25,
			ColorNoiseReductionDetail = 50,
			ColorNoiseReductionSmoothness = 50,
			Contrast2012 = 52,
			ConvertToGrayscale = true,
			Dehaze = -20,
			EnableCalibration = true,
			EnableDetail = true,
			EnableEffects = true,
			EnableGrayscaleMix = true,
			EnableSplitToning = true,
			Exposure2012 = 0.95,
			GrainAmount = 45,
			GrainFrequency = 39,
			GrainSize = 30,
			GrayMixerAqua = -18,
			GrayMixerBlue = 9,
			GrayMixerGreen = -26,
			GrayMixerMagenta = 4,
			GrayMixerOrange = -18,
			GrayMixerPurple = 15,
			GrayMixerRed = -9,
			GrayMixerYellow = -22,
			GreenHue = 0,
			GreenSaturation = 0,
			Highlights2012 = -90,
			LuminanceNoiseReductionContrast = 0,
			LuminanceNoiseReductionDetail = 50,
			LuminanceSmoothing = 10,
			ParametricDarks = 0,
			ParametricHighlightSplit = 75,
			ParametricHighlights = 0,
			ParametricLights = 0,
			ParametricMidtoneSplit = 50,
			ParametricShadowSplit = 25,
			ParametricShadows = 0,
			PostCropVignetteAmount = -57,
			PostCropVignetteFeather = 73,
			PostCropVignetteHighlightContrast = 21,
			PostCropVignetteMidpoint = 33,
			PostCropVignetteRoundness = 0,
			PostCropVignetteStyle = 1,
			ProcessVersion = "6.7",
			RedHue = 0,
			RedSaturation = 0,
			ShadowTint = 0,
			Shadows2012 = 58,
			SharpenDetail = 25,
			SharpenEdgeMasking = 0,
			SharpenRadius = 1,
			Sharpness = 59,
			SplitToningBalance = 7,
			SplitToningHighlightHue = 48,
			SplitToningHighlightSaturation = 15,
			SplitToningShadowHue = 114,
			SplitToningShadowSaturation = 20,
			ToneCurveName2012 = "Linear",
			ToneCurvePV2012 = {
				0,
				0,
				255,
				255,
			},
			ToneCurvePV2012Blue = {
				0,
				0,
				255,
				255,
			},
			ToneCurvePV2012Green = {
				0,
				0,
				255,
				255,
			},
			ToneCurvePV2012Red = {
				0,
				0,
				255,
				255,
			},
			WhiteBalance = "As Shot",
			Whites2012 = 43,
		},
		uuid = "50889B1D-6EFE-412F-9C3E-1AEDF7610B0A",
	},
	version = 0,
}
