Develop Presets/VSCO Film LR4 Toolkit/Contrast - -.lrtemplate
s = {
	id = "FD958355-01DF-469C-8F6B-9A5EDBA1F0E0",
	internalName = "Contrast - - LR4",
	title = "Contrast - -",
	type = "Develop",
	value = {
		settings = {
			ParametricDarks = 20,
			ParametricHighlightSplit = 75,
			ParametricHighlights = -10,
			ParametricLights = -20,
			ParametricMidtoneSplit = 50,
			ParametricShadowSplit = 25,
			ParametricShadows = 10,
		},
		uuid = "06781364-305E-4357-9021-B3340FB5318E",
	},
	version = 0,
}
