Develop Presets/VSCO Film LR4 Toolkit/Contrast +.lrtemplate
s = {
	id = "B9FAFF86-5176-437B-A528-661437E243B6",
	internalName = "Contrast + LR4",
	title = "Contrast +",
	type = "Develop",
	value = {
		settings = {
			ParametricDarks = -10,
			ParametricHighlightSplit = 75,
			ParametricHighlights = 5,
			ParametricLights = 10,
			ParametricMidtoneSplit = 50,
			ParametricShadowSplit = 25,
			ParametricShadows = -5,
			ProcessVersion = "6.7",
		},
		uuid = "B885FF3C-FA95-4C0C-B4DB-279CC94381B5",
	},
	version = 0,
}
