Develop Presets/VSCO Film LR4 Toolkit/DR- Shadow Save.lrtemplate
s = {
	id = "612C1959-D5F9-4121-80EF-3F17EF170380",
	internalName = "DR: Shadow Save",
	title = "DR: Shadow Save",
	type = "Develop",
	value = {
		settings = {
			ProcessVersion = "6.7",
			Shadows2012 = 20,
		},
		uuid = "AD399A2C-D5F5-4D8F-8254-9B93D6B0C881",
	},
	version = 0,
}
