Develop Presets/VSCO Film LR4 Toolkit/DR- Shadow Save +.lrtemplate
s = {
	id = "F9FB9A91-9E2D-4D03-9E1E-516608037C07",
	internalName = "DR: Shadow Save +",
	title = "DR: Shadow Save +",
	type = "Develop",
	value = {
		settings = {
			ProcessVersion = "6.7",
			Shadows2012 = 40,
		},
		uuid = "A88311B4-A2C4-4781-AD27-87E429FD0DD4",
	},
	version = 0,
}
