Develop Presets/VSCO Film LR4 Toolkit/DR- Highlight Save.lrtemplate
s = {
	id = "552F7B12-5499-4A33-AF32-73C980C09A09",
	internalName = "DR: Highlight Save",
	title = "DR: Highlight Save",
	type = "Develop",
	value = {
		settings = {
			Highlights2012 = -35,
			ProcessVersion = "6.7",
		},
		uuid = "C489BA7D-E298-4A01-9C4F-2CE63041DE0F",
	},
	version = 0,
}
