Develop Presets/VSCO Film LR4 Toolkit/Fade Shadows +.lrtemplate
s = {
	id = "6062844D-2592-44E3-BDC1-941A6DDF6E0A",
	internalName = "Faded Shadows ++",
	title = "Fade Shadows +",
	type = "Develop",
	value = {
		settings = {
			ToneCurveName2012 = "Faded Shadows ++",
			ToneCurvePV2012 = {
				0,
				31,
				41,
				60,
				77,
				89,
				255,
				254,
			},
		},
		uuid = "A73967B6-C355-42BB-ACA0-FBE653B03FED",
	},
	version = 0,
}
