Develop Presets/VSCO Film 06 Push & Pull - Standard/400H+1 +++.lrtemplate
s = {
	id = "0BF369F1-053A-4B96-8558-B1AF99D74D43",
	internalName = "S - 400H⁺¹ +++",
	title = "S - 400H⁺¹ +++",
	type = "Develop",
	value = {
		settings = {
			Blacks2012 = 5,
			BlueHue = -15,
			BlueSaturation = -15,
			CameraProfile = "Adobe Standard",
			Clarity2012 = -5,
			Contrast2012 = 0,
			ConvertToGrayscale = false,
			EnableCalibration = true,
			EnableColorAdjustments = true,
			EnableDetail = true,
			EnableEffects = true,
			EnableSplitToning = true,
			GrainAmount = 20,
			GrainFrequency = 80,
			GrainSize = 30,
			GreenHue = 40,
			GreenSaturation = -25,
			Highlights2012 = -35,
			HueAdjustmentAqua = 0,
			HueAdjustmentBlue = 0,
			HueAdjustmentGreen = 15,
			HueAdjustmentMagenta = 25,
			HueAdjustmentOrange = 12,
			HueAdjustmentPurple = 4,
			HueAdjustmentRed = 5,
			HueAdjustmentYellow = 12,
			LuminanceAdjustmentAqua = 0,
			LuminanceAdjustmentBlue = -10,
			LuminanceAdjustmentGreen = 10,
			LuminanceAdjustmentMagenta = 0,
			LuminanceAdjustmentOrange = 5,
			LuminanceAdjustmentPurple = -15,
			LuminanceAdjustmentRed = -20,
			LuminanceAdjustmentYellow = 0,
			ParametricDarks = -5,
			ParametricHighlightSplit = 75,
			ParametricHighlights = -2,
			ParametricLights = 4,
			ParametricMidtoneSplit = 47,
			ParametricShadowSplit = 18,
			ParametricShadows = -5,
			ProcessVersion = "6.7",
			RedHue = 22,
			RedSaturation = 0,
			Saturation = -5,
			SaturationAdjustmentAqua = -30,
			SaturationAdjustmentBlue = -10,
			SaturationAdjustmentGreen = -25,
			SaturationAdjustmentMagenta = -20,
			SaturationAdjustmentOrange = 0,
			SaturationAdjustmentPurple = -10,
			SaturationAdjustmentRed = -10,
			SaturationAdjustmentYellow = 0,
			ShadowTint = 0,
			Shadows2012 = 15,
			SharpenDetail = 25,
			SharpenEdgeMasking = 0,
			SharpenRadius = 1,
			Sharpness = 0,
			SplitToningBalance = 0,
			SplitToningHighlightHue = 0,
			SplitToningHighlightSaturation = 0,
			SplitToningShadowHue = 0,
			SplitToningShadowSaturation = 0,
			ToneCurveName2012 = "400H+1 +++",
			ToneCurvePV2012 = {
				0,
				53,
				41,
				61,
				82,
				91,
				146,
				147,
				255,
				249,
			},
			ToneCurvePV2012Blue = {
				0,
				0,
				43,
				22,
				114,
				122,
				179,
				201,
				255,
				255,
			},
			ToneCurvePV2012Green = {
				0,
				0,
				43,
				22,
				112,
				121,
				181,
				201,
				255,
				255,
			},
			ToneCurvePV2012Red = {
				0,
				0,
				43,
				22,
				113,
				123,
				178,
				203,
				255,
				255,
			},
			Vibrance = 0,
			Whites2012 = -15,
		},
		uuid = "D3557F3D-D28E-4BB6-9FF1-13CA4765BC9E",
	},
	version = 0,
}
