Develop Presets/VSCO Film 06 Push & Pull - Standard/400H+1 Vibrant.lrtemplate
s = {
	id = "A6B53854-0C43-41A5-87B2-07606980F46C",
	internalName = "S - 400H⁺¹ Vibrant",
	title = "S - 400H⁺¹ Vibrant",
	type = "Develop",
	value = {
		settings = {
			Blacks2012 = 5,
			BlueHue = -15,
			BlueSaturation = -10,
			CameraProfile = "Adobe Standard",
			Clarity2012 = 0,
			Contrast2012 = 0,
			ConvertToGrayscale = false,
			EnableCalibration = true,
			EnableColorAdjustments = true,
			EnableDetail = true,
			EnableEffects = true,
			EnableSplitToning = true,
			GrainAmount = 20,
			GrainFrequency = 80,
			GrainSize = 30,
			GreenHue = 40,
			GreenSaturation = -5,
			Highlights2012 = -35,
			HueAdjustmentAqua = 0,
			HueAdjustmentBlue = 0,
			HueAdjustmentGreen = 20,
			HueAdjustmentMagenta = 25,
			HueAdjustmentOrange = 12,
			HueAdjustmentPurple = 4,
			HueAdjustmentRed = 5,
			HueAdjustmentYellow = 12,
			LuminanceAdjustmentAqua = 0,
			LuminanceAdjustmentBlue = -15,
			LuminanceAdjustmentGreen = 10,
			LuminanceAdjustmentMagenta = 0,
			LuminanceAdjustmentOrange = -5,
			LuminanceAdjustmentPurple = -15,
			LuminanceAdjustmentRed = -5,
			LuminanceAdjustmentYellow = 0,
			ParametricDarks = -5,
			ParametricHighlightSplit = 75,
			ParametricHighlights = -2,
			ParametricLights = 4,
			ParametricMidtoneSplit = 47,
			ParametricShadowSplit = 18,
			ParametricShadows = -5,
			ProcessVersion = "6.7",
			RedHue = 22,
			RedSaturation = 0,
			Saturation = 5,
			SaturationAdjustmentAqua = -30,
			SaturationAdjustmentBlue = -15,
			SaturationAdjustmentGreen = -25,
			SaturationAdjustmentMagenta = -20,
			SaturationAdjustmentOrange = -5,
			SaturationAdjustmentPurple = -10,
			SaturationAdjustmentRed = -25,
			SaturationAdjustmentYellow = -5,
			ShadowTint = 0,
			Shadows2012 = 15,
			SharpenDetail = 25,
			SharpenEdgeMasking = 0,
			SharpenRadius = 1,
			Sharpness = 0,
			SplitToningBalance = 0,
			SplitToningHighlightHue = 0,
			SplitToningHighlightSaturation = 0,
			SplitToningShadowHue = 0,
			SplitToningShadowSaturation = 0,
			ToneCurveName2012 = "400H+1 Vibrant",
			ToneCurvePV2012 = {
				0,
				19,
				34,
				41,
				88,
				92,
				255,
				249,
			},
			ToneCurvePV2012Blue = {
				0,
				0,
				43,
				22,
				113,
				123,
				178,
				201,
				255,
				255,
			},
			ToneCurvePV2012Green = {
				0,
				0,
				43,
				22,
				112,
				122,
				180,
				202,
				255,
				255,
			},
			ToneCurvePV2012Red = {
				0,
				0,
				44,
				21,
				77,
				62,
				113,
				123,
				178,
				203,
				255,
				255,
			},
			Vibrance = 0,
			Whites2012 = -15,
		},
		uuid = "20F41A7C-14BD-48D9-9563-ABABE8A6AEAC",
	},
	version = 0,
}
