Develop Presets/VSCO Film 06 Push & Pull - Standard/HP5+2 ++.lrtemplate
s = {
	id = "0FDB4F2B-DC44-4AEE-A6C0-04A9999ACD98",
	internalName = "S - HP5⁺² ++",
	title = "S - HP5⁺² ++",
	type = "Develop",
	value = {
		settings = {
			Blacks2012 = 15,
			BlueHue = 0,
			BlueSaturation = 5,
			CameraProfile = "Adobe Standard",
			Clarity2012 = 0,
			Contrast2012 = 0,
			ConvertToGrayscale = true,
			EnableCalibration = true,
			EnableDetail = true,
			EnableEffects = true,
			EnableGrayscaleMix = true,
			EnableSplitToning = true,
			GrainAmount = 25,
			GrainFrequency = 95,
			GrainSize = 15,
			GrayMixerAqua = -15,
			GrayMixerBlue = 0,
			GrayMixerGreen = -20,
			GrayMixerMagenta = 8,
			GrayMixerOrange = 0,
			GrayMixerPurple = 0,
			GrayMixerRed = -5,
			GrayMixerYellow = -15,
			GreenHue = 0,
			GreenSaturation = -50,
			Highlights2012 = -20,
			ParametricDarks = -36,
			ParametricHighlightSplit = 84,
			ParametricHighlights = -45,
			ParametricLights = 45,
			ParametricMidtoneSplit = 44,
			ParametricShadowSplit = 30,
			ParametricShadows = -22,
			ProcessVersion = "6.7",
			RedHue = 0,
			RedSaturation = 0,
			ShadowTint = 0,
			Shadows2012 = 10,
			SharpenDetail = 25,
			SharpenEdgeMasking = 0,
			SharpenRadius = 1,
			Sharpness = 0,
			SplitToningBalance = 0,
			SplitToningHighlightHue = 0,
			SplitToningHighlightSaturation = 0,
			SplitToningShadowHue = 0,
			SplitToningShadowSaturation = 0,
			ToneCurveName2012 = "HP5+2 ++",
			ToneCurvePV2012 = {
				0,
				38,
				60,
				73,
				121,
				127,
				179,
				185,
				255,
				251,
			},
			ToneCurvePV2012Blue = {
				0,
				0,
				255,
				255,
			},
			ToneCurvePV2012Green = {
				0,
				0,
				255,
				255,
			},
			ToneCurvePV2012Red = {
				0,
				0,
				255,
				255,
			},
			Whites2012 = -10,
		},
		uuid = "2ABE04E1-8480-4627-B6F7-06528E824BFD",
	},
	version = 0,
}
