Develop Presets/VSCO Film 06 Push & Pull - Standard/HP5+1 -.lrtemplate
s = {
	id = "DD9C4D56-26FF-4BD7-81FB-11C102C4C1AA",
	internalName = "S - HP5⁺¹ -",
	title = "S - HP5⁺¹ -",
	type = "Develop",
	value = {
		settings = {
			Blacks2012 = 25,
			BlueHue = 0,
			BlueSaturation = 30,
			CameraProfile = "Adobe Standard",
			Clarity2012 = 0,
			Contrast2012 = 0,
			ConvertToGrayscale = true,
			EnableCalibration = true,
			EnableDetail = true,
			EnableEffects = true,
			EnableGrayscaleMix = true,
			EnableSplitToning = true,
			GrainAmount = 10,
			GrainFrequency = 85,
			GrainSize = 15,
			GrayMixerAqua = -15,
			GrayMixerBlue = -5,
			GrayMixerGreen = -20,
			GrayMixerMagenta = 4,
			GrayMixerOrange = 0,
			GrayMixerPurple = 0,
			GrayMixerRed = -5,
			GrayMixerYellow = -15,
			GreenHue = 0,
			GreenSaturation = -50,
			Highlights2012 = -30,
			ParametricDarks = -36,
			ParametricHighlightSplit = 84,
			ParametricHighlights = -45,
			ParametricLights = 45,
			ParametricMidtoneSplit = 44,
			ParametricShadowSplit = 30,
			ParametricShadows = -22,
			ProcessVersion = "6.7",
			RedHue = 0,
			RedSaturation = 0,
			ShadowTint = 0,
			Shadows2012 = 25,
			SharpenDetail = 25,
			SharpenEdgeMasking = 0,
			SharpenRadius = 1,
			Sharpness = 0,
			SplitToningBalance = 0,
			SplitToningHighlightHue = 0,
			SplitToningHighlightSaturation = 0,
			SplitToningShadowHue = 0,
			SplitToningShadowSaturation = 0,
			ToneCurveName2012 = "HP5+1 -",
			ToneCurvePV2012 = {
				0,
				2,
				38,
				48,
				121,
				123,
				255,
				255,
			},
			ToneCurvePV2012Blue = {
				0,
				0,
				255,
				255,
			},
			ToneCurvePV2012Green = {
				0,
				0,
				255,
				255,
			},
			ToneCurvePV2012Red = {
				0,
				0,
				255,
				255,
			},
			Whites2012 = -15,
		},
		uuid = "31C68484-E806-4D63-958E-0C4008DB2476",
	},
	version = 0,
}
