Develop Presets/VSCO Film 06 Push & Pull - Standard/Portra 400+2 ++.lrtemplate
s = {
	id = "7727E438-25C6-4003-86D1-44020453A1F6",
	internalName = "S - Portra 400⁺² ++",
	title = "S - Portra 400⁺² ++",
	type = "Develop",
	value = {
		settings = {
			Blacks2012 = 10,
			BlueHue = -5,
			BlueSaturation = -10,
			CameraProfile = "Adobe Standard",
			Clarity2012 = 0,
			Contrast2012 = 0,
			ConvertToGrayscale = false,
			EnableCalibration = true,
			EnableColorAdjustments = true,
			EnableDetail = true,
			EnableEffects = true,
			EnableSplitToning = true,
			GrainAmount = 30,
			GrainFrequency = 60,
			GrainSize = 20,
			GreenHue = 50,
			GreenSaturation = -15,
			Highlights2012 = -20,
			HueAdjustmentAqua = 0,
			HueAdjustmentBlue = 5,
			HueAdjustmentGreen = 15,
			HueAdjustmentMagenta = 0,
			HueAdjustmentOrange = 12,
			HueAdjustmentPurple = 0,
			HueAdjustmentRed = 0,
			HueAdjustmentYellow = 15,
			LuminanceAdjustmentAqua = 0,
			LuminanceAdjustmentBlue = 0,
			LuminanceAdjustmentGreen = -10,
			LuminanceAdjustmentMagenta = 34,
			LuminanceAdjustmentOrange = -6,
			LuminanceAdjustmentPurple = 0,
			LuminanceAdjustmentRed = -15,
			LuminanceAdjustmentYellow = 0,
			ParametricDarks = -25,
			ParametricHighlightSplit = 75,
			ParametricHighlights = -15,
			ParametricLights = 22,
			ParametricMidtoneSplit = 43,
			ParametricShadowSplit = 25,
			ParametricShadows = -25,
			ProcessVersion = "6.7",
			RedHue = 35,
			RedSaturation = -10,
			Saturation = 0,
			SaturationAdjustmentAqua = 0,
			SaturationAdjustmentBlue = 0,
			SaturationAdjustmentGreen = -10,
			SaturationAdjustmentMagenta = 0,
			SaturationAdjustmentOrange = 0,
			SaturationAdjustmentPurple = 0,
			SaturationAdjustmentRed = -15,
			SaturationAdjustmentYellow = 0,
			ShadowTint = 0,
			Shadows2012 = 25,
			SharpenDetail = 25,
			SharpenEdgeMasking = 0,
			SharpenRadius = 1,
			Sharpness = 0,
			SplitToningBalance = 0,
			SplitToningHighlightHue = 0,
			SplitToningHighlightSaturation = 0,
			SplitToningShadowHue = 0,
			SplitToningShadowSaturation = 0,
			ToneCurveName2012 = "Portra 400+2 ++",
			ToneCurvePV2012 = {
				0,
				57,
				109,
				118,
				176,
				180,
				255,
				255,
			},
			ToneCurvePV2012Blue = {
				0,
				0,
				40,
				13,
				88,
				63,
				128,
				120,
				197,
				206,
				255,
				255,
			},
			ToneCurvePV2012Green = {
				0,
				0,
				39,
				11,
				89,
				63,
				127,
				121,
				198,
				205,
				255,
				255,
			},
			ToneCurvePV2012Red = {
				0,
				0,
				39,
				9,
				89,
				60,
				127,
				120,
				197,
				206,
				255,
				255,
			},
			Vibrance = 0,
			Whites2012 = -15,
		},
		uuid = "83ADD7BA-2D42-4CEA-9BC4-E85722794866",
	},
	version = 0,
}
