Develop Presets/VSCO Film 06 Push & Pull - Standard/Portra 800+1 ++.lrtemplate
s = {
	id = "262C25F5-4E9B-417F-BFE0-0CA7A5A7A70B",
	internalName = "S - Portra 800⁺¹ ++",
	title = "S - Portra 800⁺¹ ++",
	type = "Develop",
	value = {
		settings = {
			Blacks2012 = 20,
			BlueHue = -5,
			BlueSaturation = 5,
			CameraProfile = "Adobe Standard",
			Clarity2012 = 0,
			Contrast2012 = 0,
			ConvertToGrayscale = false,
			EnableCalibration = true,
			EnableColorAdjustments = true,
			EnableDetail = true,
			EnableEffects = true,
			EnableSplitToning = true,
			GrainAmount = 25,
			GrainFrequency = 100,
			GrainSize = 25,
			GreenHue = 55,
			GreenSaturation = -25,
			Highlights2012 = -20,
			HueAdjustmentAqua = 5,
			HueAdjustmentBlue = -5,
			HueAdjustmentGreen = 22,
			HueAdjustmentMagenta = 0,
			HueAdjustmentOrange = 12,
			HueAdjustmentPurple = 0,
			HueAdjustmentRed = 5,
			HueAdjustmentYellow = 15,
			LuminanceAdjustmentAqua = -10,
			LuminanceAdjustmentBlue = -8,
			LuminanceAdjustmentGreen = -15,
			LuminanceAdjustmentMagenta = 0,
			LuminanceAdjustmentOrange = -10,
			LuminanceAdjustmentPurple = 0,
			LuminanceAdjustmentRed = -20,
			LuminanceAdjustmentYellow = -14,
			ParametricDarks = 0,
			ParametricHighlightSplit = 75,
			ParametricHighlights = 0,
			ParametricLights = 0,
			ParametricMidtoneSplit = 50,
			ParametricShadowSplit = 25,
			ParametricShadows = 0,
			ProcessVersion = "6.7",
			RedHue = 40,
			RedSaturation = 5,
			Saturation = 0,
			SaturationAdjustmentAqua = -25,
			SaturationAdjustmentBlue = -5,
			SaturationAdjustmentGreen = -15,
			SaturationAdjustmentMagenta = -25,
			SaturationAdjustmentOrange = -5,
			SaturationAdjustmentPurple = 0,
			SaturationAdjustmentRed = -20,
			SaturationAdjustmentYellow = -5,
			ShadowTint = 0,
			Shadows2012 = 25,
			SharpenDetail = 25,
			SharpenEdgeMasking = 0,
			SharpenRadius = 1,
			Sharpness = 0,
			SplitToningBalance = 0,
			SplitToningHighlightHue = 0,
			SplitToningHighlightSaturation = 0,
			SplitToningShadowHue = 0,
			SplitToningShadowSaturation = 0,
			ToneCurveName2012 = "Portra 800+1 ++",
			ToneCurvePV2012 = {
				0,
				42,
				34,
				49,
				123,
				126,
				189,
				193,
				255,
				255,
			},
			ToneCurvePV2012Blue = {
				0,
				0,
				26,
				17,
				117,
				120,
				221,
				239,
				255,
				255,
			},
			ToneCurvePV2012Green = {
				0,
				0,
				36,
				9,
				77,
				47,
				119,
				119,
				221,
				242,
				255,
				255,
			},
			ToneCurvePV2012Red = {
				0,
				0,
				41,
				9,
				80,
				47,
				118,
				119,
				167,
				193,
				255,
				255,
			},
			Vibrance = 0,
			Whites2012 = -15,
		},
		uuid = "0855E39C-4FC1-4D20-9411-B73539D6E1AA",
	},
	version = 0,
}
