Develop Presets/VSCO Film 06 Push & Pull - Standard/Portra 160+1 +.lrtemplate
s = {
	id = "2A63CFBA-13B6-46D4-A994-A3029F29BF5E",
	internalName = "S - Portra 160⁺¹ +",
	title = "S - Portra 160⁺¹ +",
	type = "Develop",
	value = {
		settings = {
			Blacks2012 = 25,
			BlueHue = -12,
			BlueSaturation = -15,
			CameraProfile = "Portra 160⁺¹",
			Clarity2012 = 0,
			Contrast2012 = 0,
			ConvertToGrayscale = false,
			EnableCalibration = true,
			EnableColorAdjustments = true,
			EnableDetail = true,
			EnableEffects = true,
			EnableSplitToning = true,
			GrainAmount = 20,
			GrainFrequency = 50,
			GrainSize = 20,
			GreenHue = 50,
			GreenSaturation = -10,
			Highlights2012 = -25,
			HueAdjustmentAqua = 5,
			HueAdjustmentBlue = -4,
			HueAdjustmentGreen = 15,
			HueAdjustmentMagenta = 25,
			HueAdjustmentOrange = 12,
			HueAdjustmentPurple = 10,
			HueAdjustmentRed = 8,
			HueAdjustmentYellow = 10,
			LuminanceAdjustmentAqua = 0,
			LuminanceAdjustmentBlue = -10,
			LuminanceAdjustmentGreen = 0,
			LuminanceAdjustmentMagenta = 0,
			LuminanceAdjustmentOrange = -5,
			LuminanceAdjustmentPurple = 0,
			LuminanceAdjustmentRed = -20,
			LuminanceAdjustmentYellow = 0,
			ParametricDarks = 4,
			ParametricHighlightSplit = 75,
			ParametricHighlights = -5,
			ParametricLights = 0,
			ParametricMidtoneSplit = 48,
			ParametricShadowSplit = 20,
			ParametricShadows = -15,
			ProcessVersion = "6.7",
			RedHue = 30,
			RedSaturation = -10,
			Saturation = 0,
			SaturationAdjustmentAqua = -10,
			SaturationAdjustmentBlue = -10,
			SaturationAdjustmentGreen = -20,
			SaturationAdjustmentMagenta = -20,
			SaturationAdjustmentOrange = 0,
			SaturationAdjustmentPurple = 0,
			SaturationAdjustmentRed = -20,
			SaturationAdjustmentYellow = -5,
			ShadowTint = 0,
			Shadows2012 = 25,
			SharpenDetail = 25,
			SharpenEdgeMasking = 0,
			SharpenRadius = 1,
			Sharpness = 0,
			SplitToningBalance = 0,
			SplitToningHighlightHue = 0,
			SplitToningHighlightSaturation = 0,
			SplitToningShadowHue = 0,
			SplitToningShadowSaturation = 0,
			ToneCurveName2012 = "Portra 160+1 +",
			ToneCurvePV2012 = {
				0,
				14,
				27,
				35,
				96,
				96,
				187,
				186,
				255,
				255,
			},
			ToneCurvePV2012Blue = {
				0,
				0,
				38,
				18,
				79,
				64,
				115,
				122,
				179,
				200,
				255,
				255,
			},
			ToneCurvePV2012Green = {
				0,
				0,
				46,
				20,
				86,
				72,
				115,
				124,
				179,
				200,
				255,
				255,
			},
			ToneCurvePV2012Red = {
				0,
				0,
				47,
				19,
				82,
				61,
				114,
				122,
				179,
				200,
				255,
				255,
			},
			Vibrance = 0,
			Whites2012 = -25,
		},
		uuid = "54C982BE-E450-4F23-8762-733F230F87E8",
	},
	version = 0,
}
