Develop Presets/VSCO Film 06 Push & Pull - Standard/Portra 160+1 Alt +.lrtemplate
s = {
	id = "578C256D-F84E-4435-8279-802BE2072B1A",
	internalName = "S - Portra 160⁺¹ Alt +",
	title = "S - Portra 160⁺¹ Alt +",
	type = "Develop",
	value = {
		settings = {
			Blacks2012 = 25,
			BlueHue = -20,
			BlueSaturation = 0,
			CameraProfile = "Portra 160⁺¹",
			Clarity2012 = 0,
			Contrast2012 = 0,
			ConvertToGrayscale = false,
			EnableCalibration = true,
			EnableColorAdjustments = true,
			EnableDetail = true,
			EnableEffects = true,
			EnableSplitToning = true,
			GrainAmount = 20,
			GrainFrequency = 50,
			GrainSize = 20,
			GreenHue = 50,
			GreenSaturation = -10,
			Highlights2012 = -45,
			HueAdjustmentAqua = 0,
			HueAdjustmentBlue = -10,
			HueAdjustmentGreen = 10,
			HueAdjustmentMagenta = 25,
			HueAdjustmentOrange = 20,
			HueAdjustmentPurple = 0,
			HueAdjustmentRed = 0,
			HueAdjustmentYellow = 18,
			LuminanceAdjustmentAqua = 0,
			LuminanceAdjustmentBlue = -5,
			LuminanceAdjustmentGreen = 0,
			LuminanceAdjustmentMagenta = 0,
			LuminanceAdjustmentOrange = 0,
			LuminanceAdjustmentPurple = 0,
			LuminanceAdjustmentRed = -20,
			LuminanceAdjustmentYellow = 0,
			ParametricDarks = 4,
			ParametricHighlightSplit = 75,
			ParametricHighlights = -5,
			ParametricLights = 0,
			ParametricMidtoneSplit = 48,
			ParametricShadowSplit = 20,
			ParametricShadows = -15,
			ProcessVersion = "6.7",
			RedHue = 30,
			RedSaturation = -10,
			Saturation = 0,
			SaturationAdjustmentAqua = -10,
			SaturationAdjustmentBlue = -20,
			SaturationAdjustmentGreen = -20,
			SaturationAdjustmentMagenta = -20,
			SaturationAdjustmentOrange = -6,
			SaturationAdjustmentPurple = 0,
			SaturationAdjustmentRed = -20,
			SaturationAdjustmentYellow = -5,
			ShadowTint = 0,
			Shadows2012 = 25,
			SharpenDetail = 25,
			SharpenEdgeMasking = 0,
			SharpenRadius = 1,
			Sharpness = 0,
			SplitToningBalance = 0,
			SplitToningHighlightHue = 0,
			SplitToningHighlightSaturation = 0,
			SplitToningShadowHue = 0,
			SplitToningShadowSaturation = 0,
			ToneCurveName2012 = "Portra 160+1 Alt +",
			ToneCurvePV2012 = {
				0,
				31,
				32,
				52,
				88,
				96,
				179,
				180,
				255,
				250,
			},
			ToneCurvePV2012Blue = {
				0,
				15,
				53,
				35,
				80,
				68,
				114,
				122,
				179,
				199,
				224,
				232,
				255,
				254,
			},
			ToneCurvePV2012Green = {
				0,
				0,
				45,
				18,
				78,
				63,
				112,
				123,
				179,
				200,
				255,
				255,
			},
			ToneCurvePV2012Red = {
				0,
				2,
				46,
				18,
				79,
				63,
				112,
				123,
				179,
				201,
				255,
				255,
			},
			Vibrance = 0,
			Whites2012 = -40,
		},
		uuid = "BEA21B5D-DF44-45ED-AF93-1B460D873D2C",
	},
	version = 0,
}
