Develop Presets/VSCO Film 06 Push & Pull - Standard/Provia 400X+1 -.lrtemplate
s = {
	id = "C69438AA-0BF9-4905-90CE-CADD2B121BAD",
	internalName = "S - Provia 400X⁺¹ -",
	title = "S - Provia 400X⁺¹ -",
	type = "Develop",
	value = {
		settings = {
			Blacks2012 = 15,
			BlueHue = 0,
			BlueSaturation = -30,
			CameraProfile = "Adobe Standard",
			Clarity2012 = 0,
			Contrast2012 = 0,
			ConvertToGrayscale = false,
			EnableCalibration = true,
			EnableColorAdjustments = true,
			EnableDetail = true,
			EnableEffects = true,
			EnableSplitToning = true,
			GrainAmount = 15,
			GrainFrequency = 45,
			GrainSize = 25,
			GreenHue = 40,
			GreenSaturation = -40,
			Highlights2012 = -20,
			HueAdjustmentAqua = 8,
			HueAdjustmentBlue = 0,
			HueAdjustmentGreen = 12,
			HueAdjustmentMagenta = -15,
			HueAdjustmentOrange = 5,
			HueAdjustmentPurple = -10,
			HueAdjustmentRed = 5,
			HueAdjustmentYellow = 10,
			LuminanceAdjustmentAqua = -5,
			LuminanceAdjustmentBlue = -12,
			LuminanceAdjustmentGreen = 0,
			LuminanceAdjustmentMagenta = -10,
			LuminanceAdjustmentOrange = -15,
			LuminanceAdjustmentPurple = 0,
			LuminanceAdjustmentRed = -20,
			LuminanceAdjustmentYellow = -10,
			ParametricDarks = 0,
			ParametricHighlightSplit = 75,
			ParametricHighlights = 0,
			ParametricLights = 6,
			ParametricMidtoneSplit = 41,
			ParametricShadowSplit = 26,
			ParametricShadows = -4,
			ProcessVersion = "6.7",
			RedHue = 20,
			RedSaturation = 30,
			Saturation = 0,
			SaturationAdjustmentAqua = -15,
			SaturationAdjustmentBlue = 10,
			SaturationAdjustmentGreen = -20,
			SaturationAdjustmentMagenta = -30,
			SaturationAdjustmentOrange = -10,
			SaturationAdjustmentPurple = -25,
			SaturationAdjustmentRed = -25,
			SaturationAdjustmentYellow = -10,
			ShadowTint = 0,
			Shadows2012 = 20,
			SharpenDetail = 25,
			SharpenEdgeMasking = 0,
			SharpenRadius = 1,
			Sharpness = 0,
			SplitToningBalance = 0,
			SplitToningHighlightHue = 0,
			SplitToningHighlightSaturation = 0,
			SplitToningShadowHue = 0,
			SplitToningShadowSaturation = 0,
			ToneCurveName2012 = "Provia 400X+1 -",
			ToneCurvePV2012 = {
				0,
				0,
				33,
				44,
				117,
				123,
				255,
				255,
			},
			ToneCurvePV2012Blue = {
				0,
				0,
				65,
				39,
				127,
				128,
				205,
				228,
				255,
				255,
			},
			ToneCurvePV2012Green = {
				0,
				0,
				70,
				42,
				124,
				127,
				201,
				226,
				255,
				255,
			},
			ToneCurvePV2012Red = {
				0,
				0,
				30,
				8,
				72,
				40,
				124,
				127,
				203,
				228,
				255,
				255,
			},
			Vibrance = 0,
			Whites2012 = -15,
		},
		uuid = "2B09A91C-62C4-4FF3-AE42-EBE960280B94",
	},
	version = 0,
}
