Develop Presets/VSCO Film 06 Push & Pull - Standard/Provia 400X+1 +.lrtemplate
s = {
	id = "696FD626-27B6-43B0-9C94-6E30A046945E",
	internalName = "S - Provia 400X⁺¹ +",
	title = "S - Provia 400X⁺¹ +",
	type = "Develop",
	value = {
		settings = {
			Blacks2012 = 30,
			BlueHue = 5,
			BlueSaturation = -30,
			CameraProfile = "Adobe Standard",
			Clarity2012 = 0,
			Contrast2012 = 0,
			ConvertToGrayscale = false,
			EnableCalibration = true,
			EnableColorAdjustments = true,
			EnableDetail = true,
			EnableEffects = true,
			EnableSplitToning = true,
			GrainAmount = 30,
			GrainFrequency = 45,
			GrainSize = 25,
			GreenHue = 40,
			GreenSaturation = -40,
			Highlights2012 = -15,
			HueAdjustmentAqua = 8,
			HueAdjustmentBlue = 0,
			HueAdjustmentGreen = 10,
			HueAdjustmentMagenta = -15,
			HueAdjustmentOrange = 4,
			HueAdjustmentPurple = -10,
			HueAdjustmentRed = 5,
			HueAdjustmentYellow = 10,
			LuminanceAdjustmentAqua = -5,
			LuminanceAdjustmentBlue = -12,
			LuminanceAdjustmentGreen = 0,
			LuminanceAdjustmentMagenta = -10,
			LuminanceAdjustmentOrange = -15,
			LuminanceAdjustmentPurple = 0,
			LuminanceAdjustmentRed = -20,
			LuminanceAdjustmentYellow = -10,
			ParametricDarks = 0,
			ParametricHighlightSplit = 75,
			ParametricHighlights = 0,
			ParametricLights = 6,
			ParametricMidtoneSplit = 41,
			ParametricShadowSplit = 26,
			ParametricShadows = -4,
			ProcessVersion = "6.7",
			RedHue = 10,
			RedSaturation = 30,
			Saturation = 0,
			SaturationAdjustmentAqua = -15,
			SaturationAdjustmentBlue = 10,
			SaturationAdjustmentGreen = -20,
			SaturationAdjustmentMagenta = -30,
			SaturationAdjustmentOrange = -10,
			SaturationAdjustmentPurple = -25,
			SaturationAdjustmentRed = -25,
			SaturationAdjustmentYellow = -10,
			ShadowTint = 0,
			Shadows2012 = 15,
			SharpenDetail = 25,
			SharpenEdgeMasking = 0,
			SharpenRadius = 1,
			Sharpness = 0,
			SplitToningBalance = 0,
			SplitToningHighlightHue = 0,
			SplitToningHighlightSaturation = 0,
			SplitToningShadowHue = 0,
			SplitToningShadowSaturation = 0,
			ToneCurveName2012 = "Provia 400X+1 +",
			ToneCurvePV2012 = {
				0,
				22,
				48,
				61,
				255,
				255,
			},
			ToneCurvePV2012Blue = {
				0,
				0,
				65,
				39,
				125,
				128,
				203,
				230,
				255,
				255,
			},
			ToneCurvePV2012Green = {
				0,
				0,
				30,
				8,
				74,
				40,
				127,
				128,
				155,
				176,
				201,
				229,
				255,
				255,
			},
			ToneCurvePV2012Red = {
				0,
				0,
				30,
				8,
				74,
				39,
				127,
				127,
				203,
				229,
				255,
				255,
			},
			Vibrance = 0,
			Whites2012 = -10,
		},
		uuid = "B15D5E1B-714D-402C-ADAD-AC538900759E",
	},
	version = 0,
}
