Develop Presets/VSCO Film 06 Push & Pull - Standard/TRI-X+1 -.lrtemplate
s = {
	id = "28A40351-9CD3-421C-AEB0-960A1C8752E5",
	internalName = "S - TRI-X⁺¹ -",
	title = "S - TRI-X⁺¹ -",
	type = "Develop",
	value = {
		settings = {
			Blacks2012 = 25,
			BlueHue = 0,
			BlueSaturation = -30,
			CameraProfile = "Adobe Standard",
			Clarity2012 = 0,
			Contrast2012 = 0,
			ConvertToGrayscale = true,
			EnableCalibration = true,
			EnableDetail = true,
			EnableEffects = true,
			EnableGrayscaleMix = true,
			EnableSplitToning = true,
			GrainAmount = 10,
			GrainFrequency = 75,
			GrainSize = 20,
			GrayMixerAqua = -18,
			GrayMixerBlue = 10,
			GrayMixerGreen = -18,
			GrayMixerMagenta = 12,
			GrayMixerOrange = -5,
			GrayMixerPurple = 15,
			GrayMixerRed = 0,
			GrayMixerYellow = -8,
			GreenHue = 0,
			GreenSaturation = 0,
			Highlights2012 = -20,
			ParametricDarks = -10,
			ParametricHighlightSplit = 75,
			ParametricHighlights = -21,
			ParametricLights = 28,
			ParametricMidtoneSplit = 42,
			ParametricShadowSplit = 25,
			ParametricShadows = -35,
			ProcessVersion = "6.7",
			RedHue = 0,
			RedSaturation = 20,
			ShadowTint = 0,
			Shadows2012 = 10,
			SharpenDetail = 25,
			SharpenEdgeMasking = 0,
			SharpenRadius = 1,
			Sharpness = 25,
			SplitToningBalance = 0,
			SplitToningHighlightHue = 0,
			SplitToningHighlightSaturation = 0,
			SplitToningShadowHue = 0,
			SplitToningShadowSaturation = 0,
			ToneCurveName2012 = "TRI-X+1 -",
			ToneCurvePV2012 = {
				0,
				0,
				46,
				54,
				126,
				128,
				255,
				255,
			},
			ToneCurvePV2012Blue = {
				0,
				0,
				255,
				255,
			},
			ToneCurvePV2012Green = {
				0,
				0,
				255,
				255,
			},
			ToneCurvePV2012Red = {
				0,
				0,
				255,
				255,
			},
			Whites2012 = -15,
		},
		uuid = "B513A0E4-D304-483A-9386-C3E07F3EB883",
	},
	version = 0,
}
