Develop Presets/VSCO Film 06 Push & Pull - Standard/TRI-X-1 +.lrtemplate
s = {
	id = "8883C5D5-7CAA-4410-85E7-395AB5D84A3C",
	internalName = "S - TRI-X⁻¹ +",
	title = "S - TRI-X⁻¹ +",
	type = "Develop",
	value = {
		settings = {
			Blacks2012 = 25,
			BlueHue = 0,
			BlueSaturation = -30,
			CameraProfile = "Adobe Standard",
			Clarity2012 = 0,
			Contrast2012 = 0,
			ConvertToGrayscale = true,
			EnableCalibration = true,
			EnableDetail = true,
			EnableEffects = true,
			EnableGrayscaleMix = true,
			EnableSplitToning = true,
			GrainAmount = 20,
			GrainFrequency = 65,
			GrainSize = 20,
			GrayMixerAqua = -18,
			GrayMixerBlue = 10,
			GrayMixerGreen = -18,
			GrayMixerMagenta = 12,
			GrayMixerOrange = 0,
			GrayMixerPurple = 15,
			GrayMixerRed = 0,
			GrayMixerYellow = -8,
			GreenHue = 0,
			GreenSaturation = 0,
			Highlights2012 = -30,
			ParametricDarks = 15,
			ParametricHighlightSplit = 78,
			ParametricHighlights = -25,
			ParametricLights = 20,
			ParametricMidtoneSplit = 50,
			ParametricShadowSplit = 25,
			ParametricShadows = -34,
			ProcessVersion = "6.7",
			RedHue = 0,
			RedSaturation = 20,
			ShadowTint = 0,
			Shadows2012 = 10,
			SharpenDetail = 25,
			SharpenEdgeMasking = 0,
			SharpenRadius = 1,
			Sharpness = 25,
			SplitToningBalance = 0,
			SplitToningHighlightHue = 0,
			SplitToningHighlightSaturation = 0,
			SplitToningShadowHue = 0,
			SplitToningShadowSaturation = 0,
			ToneCurveName2012 = "TRI-X-1 +",
			ToneCurvePV2012 = {
				0,
				20,
				58,
				59,
				123,
				126,
				172,
				182,
				255,
				255,
			},
			ToneCurvePV2012Blue = {
				0,
				0,
				255,
				255,
			},
			ToneCurvePV2012Green = {
				0,
				0,
				255,
				255,
			},
			ToneCurvePV2012Red = {
				0,
				0,
				255,
				255,
			},
			Whites2012 = -10,
		},
		uuid = "575A6B7D-BECF-4190-813B-EF70BDAB1550",
	},
	version = 0,
}
