Develop Presets/Archipelago - Kevin Klein/KLN 01 C V2.lrtemplate
s = {
	id = "8F5D4136-9D32-4930-8C0D-D5F54B938B1E",
	internalName = "Kevin Klein 01 C V2",
	title = "KLN 01 C V2",
	type = "Develop",
	value = {
		settings = {
			Blacks2012 = 13,
			BlueHue = 0,
			BlueSaturation = 0,
			CameraProfile = "Adobe Standard",
			Clarity2012 = 5,
			ColorNoiseReduction = 25,
			ColorNoiseReductionDetail = 50,
			ColorNoiseReductionSmoothness = 50,
			Contrast2012 = 31,
			ConvertToGrayscale = false,
			Dehaze = 0,
			EnableCalibration = true,
			EnableColorAdjustments = true,
			EnableDetail = true,
			EnableEffects = true,
			EnableSplitToning = true,
			GrainAmount = 25,
			GrainFrequency = 45,
			GrainSize = 25,
			GreenHue = 5,
			GreenSaturation = 0,
			Highlights2012 = -39,
			HueAdjustmentAqua = 15,
			HueAdjustmentBlue = -5,
			HueAdjustmentGreen = -35,
			HueAdjustmentMagenta = 15,
			HueAdjustmentOrange = 2,
			HueAdjustmentPurple = 0,
			HueAdjustmentRed = 14,
			HueAdjustmentYellow = 0,
			LuminanceAdjustmentAqua = 20,
			LuminanceAdjustmentBlue = -15,
			LuminanceAdjustmentGreen = -26,
			LuminanceAdjustmentMagenta = 10,
			LuminanceAdjustmentOrange = 36,
			LuminanceAdjustmentPurple = 15,
			LuminanceAdjustmentRed = 0,
			LuminanceAdjustmentYellow = 15,
			LuminanceNoiseReductionContrast = 0,
			LuminanceNoiseReductionDetail = 50,
			LuminanceSmoothing = 0,
			ParametricDarks = 0,
			ParametricHighlightSplit = 75,
			ParametricHighlights = 0,
			ParametricLights = 0,
			ParametricMidtoneSplit = 50,
			ParametricShadowSplit = 25,
			ParametricShadows = 0,
			PostCropVignetteAmount = 0,
			PostCropVignetteFeather = 50,
			PostCropVignetteHighlightContrast = 0,
			PostCropVignetteMidpoint = 50,
			PostCropVignetteRoundness = 0,
			PostCropVignetteStyle = 1,
			ProcessVersion = "6.7",
			RedHue = 5,
			RedSaturation = -5,
			Saturation = -4,
			SaturationAdjustmentAqua = -40,
			SaturationAdjustmentBlue = -10,
			SaturationAdjustmentGreen = -79,
			SaturationAdjustmentMagenta = -2,
			SaturationAdjustmentOrange = -4,
			SaturationAdjustmentPurple = 0,
			SaturationAdjustmentRed = -24,
			SaturationAdjustmentYellow = -79,
			ShadowTint = -25,
			Shadows2012 = 40,
			SplitToningBalance = 0,
			SplitToningHighlightHue = 65,
			SplitToningHighlightSaturation = 3,
			SplitToningShadowHue = 19,
			SplitToningShadowSaturation = 16,
			ToneCurveName2012 = "Custom",
			ToneCurvePV2012 = {
				0,
				19,
				33,
				41,
				55,
				61,
				121,
				125,
				255,
				252,
			},
			ToneCurvePV2012Blue = {
				0,
				0,
				36,
				17,
				109,
				120,
				183,
				194,
				255,
				255,
			},
			ToneCurvePV2012Green = {
				0,
				0,
				33,
				20,
				109,
				120,
				185,
				196,
				255,
				255,
			},
			ToneCurvePV2012Red = {
				0,
				0,
				36,
				22,
				111,
				122,
				183,
				195,
				255,
				255,
			},
			Vibrance = 0,
			Whites2012 = 21,
		},
		uuid = "646C0C7F-6299-4982-916A-C58B002F2D8E",
	},
	version = 0,
}
