Develop Presets/Archipelago - Kevin Klein/~KLN 03 C - ORG.lrtemplate
s = {
	id = "546E56F4-98E6-44C0-810C-BE77035BF70D",
	internalName = "Kevin Klein 03 C - ORG",
	title = "KLN 03 C - ORG",
	type = "Develop",
	value = {
		settings = {
			Blacks2012 = -10,
			BlueHue = 0,
			BlueSaturation = 0,
			CameraProfile = "Adobe Standard",
			Clarity2012 = 2,
			ColorNoiseReduction = 25,
			ColorNoiseReductionDetail = 50,
			ColorNoiseReductionSmoothness = 50,
			Contrast2012 = 28,
			ConvertToGrayscale = false,
			Dehaze = 0,
			EnableCalibration = true,
			EnableColorAdjustments = true,
			EnableDetail = true,
			EnableEffects = true,
			EnableSplitToning = true,
			GrainAmount = 25,
			GrainFrequency = 45,
			GrainSize = 25,
			GreenHue = 5,
			GreenSaturation = 0,
			Highlights2012 = -20,
			HueAdjustmentAqua = 15,
			HueAdjustmentBlue = -5,
			HueAdjustmentGreen = -35,
			HueAdjustmentMagenta = 15,
			HueAdjustmentOrange = 4,
			HueAdjustmentPurple = 0,
			HueAdjustmentRed = 14,
			HueAdjustmentYellow = 0,
			LuminanceAdjustmentAqua = 20,
			LuminanceAdjustmentBlue = -15,
			LuminanceAdjustmentGreen = 10,
			LuminanceAdjustmentMagenta = 10,
			LuminanceAdjustmentOrange = 18,
			LuminanceAdjustmentPurple = 15,
			LuminanceAdjustmentRed = 0,
			LuminanceAdjustmentYellow = -7,
			LuminanceNoiseReductionContrast = 0,
			LuminanceNoiseReductionDetail = 50,
			LuminanceSmoothing = 0,
			ParametricDarks = 0,
			ParametricHighlightSplit = 75,
			ParametricHighlights = 0,
			ParametricLights = 0,
			ParametricMidtoneSplit = 50,
			ParametricShadowSplit = 25,
			ParametricShadows = 0,
			PostCropVignetteAmount = 0,
			PostCropVignetteFeather = 50,
			PostCropVignetteHighlightContrast = 0,
			PostCropVignetteMidpoint = 50,
			PostCropVignetteRoundness = 0,
			PostCropVignetteStyle = 1,
			ProcessVersion = "6.7",
			RedHue = 5,
			RedSaturation = -7,
			Saturation = 0,
			SaturationAdjustmentAqua = -40,
			SaturationAdjustmentBlue = -10,
			SaturationAdjustmentGreen = -70,
			SaturationAdjustmentMagenta = -7,
			SaturationAdjustmentOrange = -39,
			SaturationAdjustmentPurple = -41,
			SaturationAdjustmentRed = -11,
			SaturationAdjustmentYellow = -77,
			ShadowTint = -3,
			Shadows2012 = 30,
			SplitToningBalance = 0,
			SplitToningHighlightHue = 0,
			SplitToningHighlightSaturation = 0,
			SplitToningShadowHue = 19,
			SplitToningShadowSaturation = 7,
			ToneCurveName2012 = "Custom",
			ToneCurvePV2012 = {
				0,
				12,
				36,
				42,
				55,
				61,
				121,
				125,
				255,
				252,
			},
			ToneCurvePV2012Blue = {
				0,
				0,
				36,
				17,
				109,
				120,
				183,
				194,
				255,
				255,
			},
			ToneCurvePV2012Green = {
				0,
				0,
				33,
				20,
				109,
				120,
				185,
				196,
				255,
				255,
			},
			ToneCurvePV2012Red = {
				0,
				0,
				36,
				24,
				111,
				122,
				183,
				195,
				255,
				255,
			},
			Vibrance = 0,
			Whites2012 = 6,
		},
		uuid = "92C94B4B-1AA8-4239-9CE4-67E7AA140AFA",
	},
	version = 0,
}
