Develop Presets/VSCO Film 02 LR4 Standard/S - Kodak Portra 400 UC -.lrtemplate
s = {
	id = "3C15B723-4FCC-4CCF-B011-DD94999E4C30",
	internalName = "C - Kodak Portra 400 UC -",
	title = "S - Kodak Portra 400 UC -",
	type = "Develop",
	value = {
		settings = {
			Blacks2012 = 25,
			BlueHue = 0,
			BlueSaturation = 0,
			CameraProfile = "Adobe Standard",
			Clarity2012 = 0,
			Contrast2012 = 0,
			ConvertToGrayscale = false,
			EnableCalibration = true,
			EnableColorAdjustments = true,
			EnableDetail = true,
			EnableEffects = true,
			EnableSplitToning = true,
			GrainAmount = 15,
			GrainFrequency = 50,
			GrainSize = 30,
			GreenHue = 0,
			GreenSaturation = 0,
			Highlights2012 = -20,
			HueAdjustmentAqua = 0,
			HueAdjustmentBlue = -10,
			HueAdjustmentGreen = 30,
			HueAdjustmentMagenta = 25,
			HueAdjustmentOrange = 2,
			HueAdjustmentPurple = 10,
			HueAdjustmentRed = 25,
			HueAdjustmentYellow = 15,
			LuminanceAdjustmentAqua = -12,
			LuminanceAdjustmentBlue = -30,
			LuminanceAdjustmentGreen = -10,
			LuminanceAdjustmentMagenta = -10,
			LuminanceAdjustmentOrange = -8,
			LuminanceAdjustmentPurple = 0,
			LuminanceAdjustmentRed = -10,
			LuminanceAdjustmentYellow = 0,
			ParametricDarks = -4,
			ParametricHighlightSplit = 84,
			ParametricHighlights = -50,
			ParametricLights = 25,
			ParametricMidtoneSplit = 46,
			ParametricShadowSplit = 26,
			ParametricShadows = -50,
			ProcessVersion = "6.7",
			RedHue = 0,
			RedSaturation = 0,
			Saturation = 5,
			SaturationAdjustmentAqua = -30,
			SaturationAdjustmentBlue = -20,
			SaturationAdjustmentGreen = -50,
			SaturationAdjustmentMagenta = -30,
			SaturationAdjustmentOrange = -4,
			SaturationAdjustmentPurple = -35,
			SaturationAdjustmentRed = -12,
			SaturationAdjustmentYellow = -30,
			ShadowTint = 0,
			Shadows2012 = 25,
			SharpenDetail = 25,
			SharpenEdgeMasking = 0,
			SharpenRadius = 1,
			Sharpness = 25,
			SplitToningBalance = 0,
			SplitToningHighlightHue = 0,
			SplitToningHighlightSaturation = 0,
			SplitToningShadowHue = 0,
			SplitToningShadowSaturation = 0,
			ToneCurveName2012 = "Custom",
			ToneCurvePV2012 = {
				0,
				0,
				43,
				56,
				127,
				131,
				255,
				255,
			},
			ToneCurvePV2012Blue = {
				0,
				0,
				43,
				33,
				130,
				130,
				179,
				191,
				255,
				255,
			},
			ToneCurvePV2012Green = {
				0,
				0,
				43,
				32,
				127,
				129,
				173,
				185,
				255,
				255,
			},
			ToneCurvePV2012Red = {
				0,
				0,
				45,
				32,
				87,
				76,
				126,
				130,
				177,
				191,
				255,
				255,
			},
			Vibrance = 0,
			Whites2012 = -10,
		},
		uuid = "B6E20260-F692-4F73-A06B-3EDEFB534432",
	},
	version = 0,
}
