Develop Presets/VSCO Film 02 LR4 Standard/S - Kodak Portra 400 NC.lrtemplate
s = {
	id = "E4ED7263-6C74-4538-9549-D718FD617BEE",
	internalName = "C - Kodak Portra 400 NC",
	title = "S - Kodak Portra 400 NC",
	type = "Develop",
	value = {
		settings = {
			Blacks2012 = 25,
			BlueHue = 0,
			BlueSaturation = 0,
			CameraProfile = "Adobe Standard",
			Clarity2012 = 0,
			Contrast2012 = 0,
			ConvertToGrayscale = false,
			EnableCalibration = true,
			EnableColorAdjustments = true,
			EnableDetail = true,
			EnableEffects = true,
			EnableSplitToning = true,
			GrainAmount = 30,
			GrainFrequency = 50,
			GrainSize = 30,
			GreenHue = 0,
			GreenSaturation = 0,
			Highlights2012 = -20,
			HueAdjustmentAqua = 0,
			HueAdjustmentBlue = -10,
			HueAdjustmentGreen = 10,
			HueAdjustmentMagenta = 40,
			HueAdjustmentOrange = 0,
			HueAdjustmentPurple = 15,
			HueAdjustmentRed = 20,
			HueAdjustmentYellow = 15,
			LuminanceAdjustmentAqua = 10,
			LuminanceAdjustmentBlue = -15,
			LuminanceAdjustmentGreen = -10,
			LuminanceAdjustmentMagenta = 0,
			LuminanceAdjustmentOrange = -8,
			LuminanceAdjustmentPurple = 0,
			LuminanceAdjustmentRed = -20,
			LuminanceAdjustmentYellow = -8,
			ParametricDarks = -4,
			ParametricHighlightSplit = 84,
			ParametricHighlights = -50,
			ParametricLights = 32,
			ParametricMidtoneSplit = 46,
			ParametricShadowSplit = 26,
			ParametricShadows = -70,
			ProcessVersion = "6.7",
			RedHue = 0,
			RedSaturation = 0,
			Saturation = -6,
			SaturationAdjustmentAqua = -40,
			SaturationAdjustmentBlue = -20,
			SaturationAdjustmentGreen = -50,
			SaturationAdjustmentMagenta = -25,
			SaturationAdjustmentOrange = 0,
			SaturationAdjustmentPurple = -35,
			SaturationAdjustmentRed = -20,
			SaturationAdjustmentYellow = -8,
			ShadowTint = 0,
			Shadows2012 = 25,
			SharpenDetail = 25,
			SharpenEdgeMasking = 0,
			SharpenRadius = 1,
			Sharpness = 25,
			SplitToningBalance = 0,
			SplitToningHighlightHue = 0,
			SplitToningHighlightSaturation = 0,
			SplitToningShadowHue = 0,
			SplitToningShadowSaturation = 0,
			ToneCurveName2012 = "Custom",
			ToneCurvePV2012 = {
				0,
				14,
				255,
				249,
			},
			ToneCurvePV2012Blue = {
				0,
				0,
				44,
				40,
				129,
				130,
				187,
				190,
				255,
				255,
			},
			ToneCurvePV2012Green = {
				0,
				0,
				53,
				46,
				130,
				130,
				180,
				184,
				224,
				224,
				255,
				255,
			},
			ToneCurvePV2012Red = {
				0,
				0,
				56,
				47,
				126,
				128,
				186,
				190,
				255,
				255,
			},
			Vibrance = 0,
			Whites2012 = -10,
		},
		uuid = "18383A1F-FCBB-43C7-BC91-8746833F2E09",
	},
	version = 0,
}
