Develop Presets/VSCO Film Toolkit/Blacks ++.lrtemplate
s = {
	id = "B8968926-5C9B-4F03-8982-94D842D2ABF9",
	internalName = "Blacks Crush ++",
	title = "Blacks ++",
	type = "Develop",
	value = {
		settings = {
			Blacks2012 = -30,
			ProcessVersion = "6.7",
		},
		uuid = "E18A673B-84E2-4374-9889-B865CD7233C9",
	},
	version = 0,
}
