Develop Presets/VSCO Film Toolkit/Contrast -.lrtemplate
s = {
	id = "699523CA-00FE-408E-B7F7-8097375A083C",
	internalName = "Contrast - LR4",
	title = "Contrast -",
	type = "Develop",
	value = {
		settings = {
			ParametricDarks = 10,
			ParametricHighlightSplit = 75,
			ParametricHighlights = -5,
			ParametricLights = -10,
			ParametricMidtoneSplit = 50,
			ParametricShadowSplit = 25,
			ParametricShadows = 5,
			ProcessVersion = "6.7",
		},
		uuid = "07D5A2B3-9682-49A4-9BB6-9AB3207B9D6E",
	},
	version = 0,
}
