Develop Presets/VSCO Film Toolkit/Fade ++.lrtemplate
s = {
	id = "70672591-78A1-4977-A519-8EBEC2628E08",
	internalName = "Faded ++ v2",
	title = "Fade ++",
	type = "Develop",
	value = {
		settings = {
			ToneCurveName2012 = "Faded ++",
			ToneCurvePV2012 = {
				0,
				19,
				61,
				68,
				128,
				127,
				194,
				186,
				255,
				235,
			},
		},
		uuid = "71277347-87CE-40D6-8485-D4158DA3D67A",
	},
	version = 0,
}
