Develop Presets/VSCO Film Toolkit/Fade Highlights.lrtemplate
s = {
	id = "0087836F-FDDC-4ADF-B47E-CBD679B10B0C",
	internalName = "Faded Highlights v2",
	title = "Fade Highlights",
	type = "Develop",
	value = {
		settings = {
			ProcessVersion = "6.7",
			ToneCurveName2012 = "Faded Highlights",
			ToneCurvePV2012 = {
				0,
				0,
				138,
				136,
				255,
				246,
			},
		},
		uuid = "08BD5DD1-AA94-4E20-88ED-6F4EF9DB8D1F",
	},
	version = 0,
}
