Develop Presets/Archipelago - LOAF/LOAF BW2.lrtemplate
s = {
	id = "046AF2EB-7E2E-4813-A858-60FE5315D4D9",
	internalName = "LOAF BW2",
	title = "LOAF BW2",
	type = "Develop",
	value = {
		settings = {
			Blacks2012 = -69,
			BlueHue = 2,
			BlueSaturation = -45,
			CameraProfile = "Adobe Standard",
			Clarity2012 = 0,
			ColorNoiseReduction = 25,
			ColorNoiseReductionDetail = 50,
			ColorNoiseReductionSmoothness = 50,
			Contrast2012 = 30,
			ConvertToGrayscale = true,
			Dehaze = 0,
			EnableCalibration = true,
			EnableDetail = true,
			EnableEffects = true,
			EnableGrayscaleMix = true,
			EnableSplitToning = true,
			GrainAmount = 45,
			GrainFrequency = 60,
			GrainSize = 30,
			GrayMixerAqua = -17,
			GrayMixerBlue = 13,
			GrayMixerGreen = -28,
			GrayMixerMagenta = 5,
			GrayMixerOrange = -20,
			GrayMixerPurple = 18,
			GrayMixerRed = -10,
			GrayMixerYellow = -24,
			GreenHue = 12,
			GreenSaturation = -27,
			Highlights2012 = -34,
			LuminanceNoiseReductionContrast = 0,
			LuminanceNoiseReductionDetail = 50,
			LuminanceSmoothing = 0,
			ParametricDarks = 0,
			ParametricHighlightSplit = 75,
			ParametricHighlights = 0,
			ParametricLights = 0,
			ParametricMidtoneSplit = 50,
			ParametricShadowSplit = 25,
			ParametricShadows = 0,
			PostCropVignetteAmount = 0,
			PostCropVignetteFeather = 50,
			PostCropVignetteHighlightContrast = 0,
			PostCropVignetteMidpoint = 50,
			PostCropVignetteRoundness = 0,
			PostCropVignetteStyle = 1,
			ProcessVersion = "6.7",
			RedHue = 13,
			RedSaturation = 8,
			ShadowTint = 0,
			Shadows2012 = 74,
			SplitToningBalance = 0,
			SplitToningHighlightHue = 0,
			SplitToningHighlightSaturation = 0,
			SplitToningShadowHue = 0,
			SplitToningShadowSaturation = 0,
			ToneCurveName2012 = "Custom",
			ToneCurvePV2012 = {
				0,
				16,
				41,
				42,
				116,
				130,
				171,
				180,
				255,
				237,
			},
			ToneCurvePV2012Blue = {
				0,
				0,
				255,
				255,
			},
			ToneCurvePV2012Green = {
				0,
				0,
				255,
				255,
			},
			ToneCurvePV2012Red = {
				0,
				0,
				255,
				255,
			},
			Whites2012 = -42,
		},
		uuid = "03EBC513-A7DE-4A74-A143-5E032B6E6252",
	},
	version = 0,
}
