Develop Presets/Mastin Labs Ilford BW - Fuji X Trans/1b. HP5 35mm - F.lrtemplate
s = {
	id = "916837E6-1BE4-470C-8FC5-DA04946044E6",
	internalName = "1b. HP5 35mm - F",
	title = "1b. HP5 35mm - F",
	type = "Develop",
	value = {
		settings = {
			Blacks2012 = 52,
			BlueHue = 0,
			BlueSaturation = 0,
			CameraProfile = "Adobe Standard",
			Clarity2012 = 0,
			Contrast2012 = 87,
			ConvertToGrayscale = true,
			EnableCalibration = true,
			EnableEffects = true,
			EnableGrayscaleMix = true,
			EnableSplitToning = true,
			GrainAmount = 52,
			GrainFrequency = 59,
			GrainSize = 25,
			GrayMixerAqua = 1,
			GrayMixerBlue = -2,
			GrayMixerGreen = -20,
			GrayMixerMagenta = 9,
			GrayMixerOrange = -10,
			GrayMixerPurple = 26,
			GrayMixerRed = 3,
			GrayMixerYellow = -13,
			GreenHue = 0,
			GreenSaturation = 0,
			Highlights2012 = -31,
			ParametricDarks = 14,
			ParametricHighlightSplit = 75,
			ParametricHighlights = -15,
			ParametricLights = 8,
			ParametricMidtoneSplit = 50,
			ParametricShadowSplit = 25,
			ParametricShadows = -1,
			ProcessVersion = "6.7",
			RedHue = 0,
			RedSaturation = 0,
			ShadowTint = 0,
			Shadows2012 = -11,
			SplitToningBalance = 0,
			SplitToningHighlightHue = 0,
			SplitToningHighlightSaturation = 0,
			SplitToningShadowHue = 0,
			SplitToningShadowSaturation = 0,
			ToneCurveName2012 = "Linear",
			ToneCurvePV2012 = {
				0,
				0,
				255,
				255,
			},
			ToneCurvePV2012Blue = {
				0,
				0,
				255,
				255,
			},
			ToneCurvePV2012Green = {
				0,
				0,
				255,
				255,
			},
			ToneCurvePV2012Red = {
				0,
				0,
				255,
				255,
			},
			Whites2012 = 6,
		},
		uuid = "77880CC1-AB0E-4209-93A2-BD6881A860EC",
	},
	version = 0,
}
