Develop Presets/Mastin Labs Ilford BW - Fuji X Trans/2a. All Hard - F _.lrtemplate
s = {
	id = "FF6F81FC-B219-46FC-AD32-0B69C9834E18",
	internalName = "2a. All Hard - F  ",
	title = "2a. All Hard - F  ",
	type = "Develop",
	value = {
		settings = {
			Blacks2012 = 29,
			Highlights2012 = -23,
			ProcessVersion = "6.7",
			Shadows2012 = -32,
			Whites2012 = 14,
		},
		uuid = "8E78BF19-C90E-437A-94E3-6BF53DCC1B6B",
	},
	version = 0,
}
