Develop Presets/Mastin Labs Ilford BW - Fuji X Trans/2b. All Soft - F _.lrtemplate
s = {
	id = "ED1858D5-2BDE-4DEC-B502-A981F0E106E3",
	internalName = "2b. All Soft - F  ",
	title = "2b. All Soft - F  ",
	type = "Develop",
	value = {
		settings = {
			Blacks2012 = 52,
			Highlights2012 = -55,
			ProcessVersion = "6.7",
			Shadows2012 = 54,
			Whites2012 = -5,
		},
		uuid = "CAD3807D-58BB-4631-99B1-230D61C8DA34",
	},
	version = 0,
}
