Develop Presets/Mastin Labs Ilford BW - Fuji X Trans/2e. Shadow Hard - F _.lrtemplate
s = {
	id = "865E448A-A1AC-4260-9D99-861ADA75EFC8",
	internalName = "2e. Shadow Hard - F  ",
	title = "2e. Shadow Hard - F  ",
	type = "Develop",
	value = {
		settings = {
			Blacks2012 = 29,
			Highlights2012 = -33,
			ProcessVersion = "6.7",
			Shadows2012 = -32,
			Whites2012 = 6,
		},
		uuid = "3ED8F414-EC4A-4E92-A49D-4BE8F762AC91",
	},
	version = 0,
}
