Develop Presets/Mastin Labs Ilford BW - Fuji X Trans/4a. Warmtone Paper - F _.lrtemplate
s = {
	id = "BF9023E6-5CA3-4DD4-A357-D9B04F4D1263",
	internalName = "4a. Warmtone Paper - F  ",
	title = "4a. Warmtone Paper - F  ",
	type = "Develop",
	value = {
		settings = {
			EnableSplitToning = true,
			ProcessVersion = "6.7",
			SplitToningBalance = 0,
			SplitToningHighlightHue = 55,
			SplitToningHighlightSaturation = 5,
			SplitToningShadowHue = 53,
			SplitToningShadowSaturation = 5,
		},
		uuid = "D3EB1CA6-C49B-43F4-ABD5-602DB835683E",
	},
	version = 0,
}
