Develop Presets/VSCO Film LR4 Toolkit - Color/Color- Greener Greens.lrtemplate
s = {
	id = "97736BC7-7D9D-4153-8F5F-047E117BD557",
	internalName = "29i. Greener Greens",
	title = "Color: Greener Greens",
	type = "Develop",
	value = {
		settings = {
			ConvertToGrayscale = false,
			EnableColorAdjustments = true,
			HueAdjustmentGreen = 10,
		},
		uuid = "58B6E494-316B-4AD9-8033-968C3217830B",
	},
	version = 0,
}
