Develop Presets/VSCO Film LR4 Toolkit - Color/Color- Blues +.lrtemplate
s = {
	id = "E8E8B11A-3A18-415A-9B88-6F485B23D9CF",
	internalName = "Richer Blues",
	title = "Color: Blues +",
	type = "Develop",
	value = {
		settings = {
			ConvertToGrayscale = false,
			EnableColorAdjustments = true,
			LuminanceAdjustmentAqua = -15,
			LuminanceAdjustmentBlue = -25,
			SaturationAdjustmentAqua = 0,
			SaturationAdjustmentBlue = 25,
		},
		uuid = "C3C97416-F973-435E-AAFC-2E96DDA2F5B7",
	},
	version = 0,
}
