Develop Presets/VSCO Film LR4 Toolkit - Color/Color- Blues ++.lrtemplate
s = {
	id = "861D9A03-4040-4F0A-ACE7-9C960A196034",
	internalName = "Richer Blues +",
	title = "Color: Blues ++",
	type = "Develop",
	value = {
		settings = {
			ConvertToGrayscale = false,
			EnableColorAdjustments = true,
			LuminanceAdjustmentAqua = -15,
			LuminanceAdjustmentBlue = -35,
			SaturationAdjustmentAqua = 0,
			SaturationAdjustmentBlue = 40,
		},
		uuid = "236A2B1F-411D-481E-8595-8BE4DC0EF89C",
	},
	version = 0,
}
