Develop Presets/VSCO Film LR4 Toolkit - Color/Color- Blues +++.lrtemplate
s = {
	id = "98A4282B-A5B7-4C63-97BB-625D6CED1B89",
	internalName = "Richer Blues ++",
	title = "Color: Blues +++",
	type = "Develop",
	value = {
		settings = {
			ConvertToGrayscale = false,
			EnableColorAdjustments = true,
			LuminanceAdjustmentAqua = -25,
			LuminanceAdjustmentBlue = -45,
			SaturationAdjustmentAqua = 15,
			SaturationAdjustmentBlue = 70,
		},
		uuid = "FAAD5F53-A55E-4CA1-BCCB-A838EFB1183F",
	},
	version = 0,
}
