Develop Presets/ME+HIM PRESETS/B+W - Moody.lrtemplate
s = {
	id = "D36DCB52-C408-4C8E-AAC4-5B10931A9952",
	internalName = "B+W 3",
	title = "B+W - Moody",
	type = "Develop",
	value = {
		settings = {
			AutoLateralCA = 0,
			Blacks2012 = -68,
			BlueHue = 0,
			BlueSaturation = 0,
			CameraProfile = "Adobe Standard",
			ChromaticAberrationB = 0,
			ChromaticAberrationR = 0,
			Clarity2012 = 0,
			ColorNoiseReduction = 25,
			ColorNoiseReductionDetail = 50,
			ColorNoiseReductionSmoothness = 50,
			Contrast2012 = 38,
			ConvertToGrayscale = true,
			CropConstrainToWarp = 0,
			Defringe = 0,
			DefringeGreenAmount = 0,
			DefringeGreenHueHi = 60,
			DefringeGreenHueLo = 40,
			DefringePurpleAmount = 0,
			DefringePurpleHueHi = 70,
			DefringePurpleHueLo = 30,
			Dehaze = 0,
			EnableCalibration = true,
			EnableDetail = true,
			EnableEffects = true,
			EnableGrayscaleMix = true,
			EnableLensCorrections = true,
			EnableSplitToning = true,
			Exposure2012 = -0.4,
			GrainAmount = 30,
			GrainFrequency = 50,
			GrainSize = 25,
			GrayMixerAqua = -15,
			GrayMixerBlue = 0,
			GrayMixerGreen = -20,
			GrayMixerMagenta = 8,
			GrayMixerOrange = 0,
			GrayMixerPurple = 0,
			GrayMixerRed = -5,
			GrayMixerYellow = -15,
			GreenHue = 0,
			GreenSaturation = 0,
			Highlights2012 = -20,
			LensManualDistortionAmount = 0,
			LuminanceNoiseReductionContrast = 0,
			LuminanceNoiseReductionDetail = 50,
			LuminanceSmoothing = 20,
			ParametricDarks = 0,
			ParametricHighlightSplit = 75,
			ParametricHighlights = 0,
			ParametricLights = 0,
			ParametricMidtoneSplit = 60,
			ParametricShadowSplit = 14,
			ParametricShadows = 0,
			PostCropVignetteAmount = 0,
			PostCropVignetteFeather = 50,
			PostCropVignetteHighlightContrast = 0,
			PostCropVignetteMidpoint = 50,
			PostCropVignetteRoundness = 0,
			PostCropVignetteStyle = 1,
			ProcessVersion = "6.7",
			RedHue = 0,
			RedSaturation = 0,
			ShadowTint = 0,
			Shadows2012 = 97,
			SharpenDetail = 40,
			SharpenEdgeMasking = 25,
			SharpenRadius = 1,
			Sharpness = 40,
			SplitToningBalance = 0,
			SplitToningHighlightHue = 0,
			SplitToningHighlightSaturation = 0,
			SplitToningShadowHue = 0,
			SplitToningShadowSaturation = 0,
			Temperature = 6000,
			Tint = 29,
			ToneCurveName2012 = "Custom",
			ToneCurvePV2012 = {
				0,
				60,
				51,
				69,
				123,
				130,
				177,
				183,
				255,
				247,
			},
			ToneCurvePV2012Blue = {
				0,
				0,
				255,
				255,
			},
			ToneCurvePV2012Green = {
				0,
				0,
				255,
				255,
			},
			ToneCurvePV2012Red = {
				0,
				0,
				255,
				255,
			},
			VignetteAmount = 0,
			VignetteMidpoint = 50,
			WhiteBalance = "Custom",
			Whites2012 = 55,
		},
		uuid = "8E94F444-9B5E-4ED4-BDB9-9C4AEBB47302",
	},
	version = 0,
}
