Develop Presets/ME+HIM PRESETS/Indoor.lrtemplate
s = {
	id = "D3FF42B1-2D6B-4AE6-BF31-DC5436B645BE",
	internalName = "Indoor",
	title = "Indoor",
	type = "Develop",
	value = {
		settings = {
			Blacks2012 = -29,
			Clarity2012 = 0,
			ColorNoiseReduction = 50,
			ColorNoiseReductionDetail = 50,
			ColorNoiseReductionSmoothness = 50,
			Contrast2012 = 53,
			ConvertToGrayscale = false,
			CropConstrainToWarp = 0,
			Dehaze = 0,
			EnableColorAdjustments = true,
			EnableDetail = true,
			EnableEffects = true,
			EnableLensCorrections = true,
			EnableSplitToning = true,
			Exposure2012 = 0.7,
			Highlights2012 = 0,
			HueAdjustmentAqua = 0,
			HueAdjustmentBlue = 0,
			HueAdjustmentGreen = -35,
			HueAdjustmentMagenta = 0,
			HueAdjustmentOrange = 0,
			HueAdjustmentPurple = 0,
			HueAdjustmentRed = 1,
			HueAdjustmentYellow = -2,
			LensManualDistortionAmount = 0,
			LuminanceAdjustmentAqua = -15,
			LuminanceAdjustmentBlue = -25,
			LuminanceAdjustmentGreen = -20,
			LuminanceAdjustmentMagenta = 0,
			LuminanceAdjustmentOrange = 11,
			LuminanceAdjustmentPurple = 0,
			LuminanceAdjustmentRed = 7,
			LuminanceAdjustmentYellow = 5,
			LuminanceNoiseReductionContrast = 0,
			LuminanceNoiseReductionDetail = 50,
			LuminanceSmoothing = 25,
			ParametricDarks = -10,
			ParametricHighlightSplit = 75,
			ParametricHighlights = 0,
			ParametricLights = 10,
			ParametricMidtoneSplit = 50,
			ParametricShadowSplit = 25,
			ParametricShadows = -5,
			ProcessVersion = "6.7",
			Saturation = 7,
			SaturationAdjustmentAqua = 0,
			SaturationAdjustmentBlue = 25,
			SaturationAdjustmentGreen = -47,
			SaturationAdjustmentMagenta = -41,
			SaturationAdjustmentOrange = -15,
			SaturationAdjustmentPurple = -60,
			SaturationAdjustmentRed = -17,
			SaturationAdjustmentYellow = -14,
			Shadows2012 = -15,
			SharpenDetail = 25,
			SharpenEdgeMasking = 0,
			SharpenRadius = 1,
			Sharpness = 25,
			SplitToningBalance = -37,
			SplitToningHighlightHue = 62,
			SplitToningHighlightSaturation = 12,
			SplitToningShadowHue = 230,
			SplitToningShadowSaturation = 14,
			Temperature = 4600,
			Tint = 22,
			ToneCurveName2012 = "Custom",
			ToneCurvePV2012 = {
				0,
				30,
				34,
				46,
				69,
				77,
				136,
				136,
				187,
				177,
				255,
				226,
			},
			ToneCurvePV2012Blue = {
				0,
				0,
				255,
				255,
			},
			ToneCurvePV2012Green = {
				0,
				6,
				255,
				255,
			},
			ToneCurvePV2012Red = {
				0,
				0,
				255,
				255,
			},
			Vibrance = 2,
			WhiteBalance = "Custom",
			Whites2012 = -60,
		},
		uuid = "32532AF6-CB5C-4915-80F4-FC030906F030",
	},
	version = 0,
}
