Develop Presets/ME+HIM PRESETS/Woods+Trees - Porta 160 VC++.lrtemplate
s = {
	id = "CE88B46C-7DBB-4067-A7B2-25AD8255A667",
	internalName = "Woods+Trees - Porta 160 VC++",
	title = "Woods+Trees - Porta 160 VC++",
	type = "Develop",
	value = {
		settings = {
			AutoLateralCA = 0,
			Blacks2012 = 25,
			BlueHue = -5,
			BlueSaturation = 0,
			CameraProfile = "Kodak Portra 160 VC  C",
			ChromaticAberrationB = 0,
			ChromaticAberrationR = 0,
			Clarity2012 = 0,
			ColorNoiseReduction = 25,
			ColorNoiseReductionDetail = 50,
			ColorNoiseReductionSmoothness = 50,
			Contrast2012 = 19,
			ConvertToGrayscale = false,
			CropConstrainToWarp = 0,
			Defringe = 0,
			DefringeGreenAmount = 0,
			DefringeGreenHueHi = 60,
			DefringeGreenHueLo = 40,
			DefringePurpleAmount = 0,
			DefringePurpleHueHi = 70,
			DefringePurpleHueLo = 30,
			Dehaze = 0,
			EnableCalibration = true,
			EnableColorAdjustments = true,
			EnableDetail = true,
			EnableEffects = true,
			EnableLensCorrections = true,
			EnableSplitToning = true,
			Exposure2012 = -0.85,
			GrainAmount = 0,
			GrainFrequency = 40,
			GrainSize = 25,
			GreenHue = 0,
			GreenSaturation = 0,
			Highlights2012 = -20,
			HueAdjustmentAqua = 0,
			HueAdjustmentBlue = -10,
			HueAdjustmentGreen = -20,
			HueAdjustmentMagenta = 40,
			HueAdjustmentOrange = 0,
			HueAdjustmentPurple = 15,
			HueAdjustmentRed = 20,
			HueAdjustmentYellow = 10,
			LensManualDistortionAmount = 0,
			LuminanceAdjustmentAqua = 0,
			LuminanceAdjustmentBlue = 0,
			LuminanceAdjustmentGreen = 25,
			LuminanceAdjustmentMagenta = 0,
			LuminanceAdjustmentOrange = -8,
			LuminanceAdjustmentPurple = 15,
			LuminanceAdjustmentRed = 0,
			LuminanceAdjustmentYellow = 0,
			LuminanceNoiseReductionContrast = 0,
			LuminanceNoiseReductionDetail = 50,
			LuminanceSmoothing = 0,
			ParametricDarks = 0,
			ParametricHighlightSplit = 75,
			ParametricHighlights = 0,
			ParametricLights = 0,
			ParametricMidtoneSplit = 50,
			ParametricShadowSplit = 25,
			ParametricShadows = 0,
			PostCropVignetteAmount = 0,
			PostCropVignetteFeather = 50,
			PostCropVignetteHighlightContrast = 0,
			PostCropVignetteMidpoint = 50,
			PostCropVignetteRoundness = 0,
			PostCropVignetteStyle = 1,
			ProcessVersion = "6.7",
			RedHue = 10,
			RedSaturation = 0,
			Saturation = 0,
			SaturationAdjustmentAqua = -10,
			SaturationAdjustmentBlue = -20,
			SaturationAdjustmentGreen = -45,
			SaturationAdjustmentMagenta = -20,
			SaturationAdjustmentOrange = -25,
			SaturationAdjustmentPurple = -35,
			SaturationAdjustmentRed = -5,
			SaturationAdjustmentYellow = -15,
			ShadowTint = -2,
			Shadows2012 = 10,
			SharpenDetail = 25,
			SharpenEdgeMasking = 0,
			SharpenRadius = 1,
			Sharpness = 25,
			SplitToningBalance = 0,
			SplitToningHighlightHue = 0,
			SplitToningHighlightSaturation = 0,
			SplitToningShadowHue = 90,
			SplitToningShadowSaturation = 12,
			Temperature = 5500,
			Tint = 1,
			ToneCurveName2012 = "Custom",
			ToneCurvePV2012 = {
				0,
				33,
				52,
				69,
				112,
				119,
				255,
				249,
			},
			ToneCurvePV2012Blue = {
				0,
				0,
				45,
				24,
				130,
				130,
				183,
				190,
				235,
				238,
				255,
				255,
			},
			ToneCurvePV2012Green = {
				0,
				12,
				40,
				29,
				130,
				130,
				178,
				183,
				255,
				255,
			},
			ToneCurvePV2012Red = {
				1,
				12,
				39,
				31,
				129,
				130,
				182,
				193,
				220,
				226,
				255,
				255,
			},
			Vibrance = 0,
			VignetteAmount = 0,
			VignetteMidpoint = 50,
			WhiteBalance = "Custom",
			Whites2012 = -10,
		},
		uuid = "9F188B12-9D25-4AF7-A90B-E611532B3AE1",
	},
	version = 0,
}
