Develop Presets/Mastin Labs Fujicolor Original - Canon/1b. Pro 400H Blue - C_.lrtemplate
s = {
	id = "D76A68C3-AA09-4F47-8E0E-CADF6C5DEB7F",
	internalName = "1b. Pro 400H Blue - C ",
	title = "1b. Pro 400H Blue - C ",
	type = "Develop",
	value = {
		settings = {
			Blacks2012 = 80,
			BlueHue = -12,
			BlueSaturation = 8,
			CameraProfile = "Adobe Standard",
			Contrast2012 = 85,
			ConvertToGrayscale = false,
			EnableCalibration = true,
			EnableColorAdjustments = true,
			GreenHue = 0,
			GreenSaturation = 8,
			Highlights2012 = -63,
			HueAdjustmentAqua = 3,
			HueAdjustmentBlue = -7,
			HueAdjustmentGreen = 43,
			HueAdjustmentMagenta = -25,
			HueAdjustmentOrange = 7,
			HueAdjustmentPurple = 21,
			HueAdjustmentRed = 5,
			HueAdjustmentYellow = 22,
			LuminanceAdjustmentAqua = 14,
			LuminanceAdjustmentBlue = 19,
			LuminanceAdjustmentGreen = 19,
			LuminanceAdjustmentMagenta = 14,
			LuminanceAdjustmentOrange = 1,
			LuminanceAdjustmentPurple = 18,
			LuminanceAdjustmentRed = 0,
			LuminanceAdjustmentYellow = 28,
			ParametricDarks = 0,
			ParametricHighlightSplit = 75,
			ParametricHighlights = 0,
			ParametricLights = 0,
			ParametricMidtoneSplit = 50,
			ParametricShadowSplit = 25,
			ParametricShadows = 0,
			ProcessVersion = "10.0",
			RedHue = 0,
			RedSaturation = 0,
			Saturation = -7,
			SaturationAdjustmentAqua = 7,
			SaturationAdjustmentBlue = 5,
			SaturationAdjustmentGreen = -68,
			SaturationAdjustmentMagenta = -39,
			SaturationAdjustmentOrange = -22,
			SaturationAdjustmentPurple = -11,
			SaturationAdjustmentRed = -10,
			SaturationAdjustmentYellow = -44,
			ShadowTint = 0,
			Shadows2012 = 29,
			ToneCurveName2012 = "Custom",
			ToneCurvePV2012 = {
				0,
				0,
				33,
				13,
				66,
				51,
				129,
				127,
				255,
				255,
			},
			ToneCurvePV2012Blue = {
				0,
				0,
				255,
				255,
			},
			ToneCurvePV2012Green = {
				0,
				0,
				255,
				255,
			},
			ToneCurvePV2012Red = {
				0,
				0,
				255,
				255,
			},
			Vibrance = -5,
			Whites2012 = -53,
		},
		uuid = "5747D78C-2A9E-4C34-85E4-4D96584363E3",
	},
	version = 0,
}
