Develop Presets/Mastin Labs Fujicolor Original - Canon/2a. All Hard -  C.lrtemplate
s = {
	id = "E11596F5-7A89-4170-A07A-7FFFB8027983",
	internalName = "2a. All Hard -  C",
	title = "2a. All Hard -  C",
	type = "Develop",
	value = {
		settings = {
			Highlights2012 = -25,
			ProcessVersion = "10.0",
			Shadows2012 = -4,
			Whites2012 = -31,
		},
		uuid = "EFEBF524-A60C-4770-BB0D-83E1EC292C1F",
	},
	version = 0,
}
