Develop Presets/Mastin Labs Fujicolor Original - Canon/2f. Shadow Soft -  C.lrtemplate
s = {
	id = "B4771354-3FAD-4227-A036-5BC8F02A869B",
	internalName = "2f. Shadow Soft -  C",
	title = "2f. Shadow Soft -  C",
	type = "Develop",
	value = {
		settings = {
			Highlights2012 = -63,
			ProcessVersion = "10.0",
			Shadows2012 = 40,
			Whites2012 = -53,
		},
		uuid = "0CBB66CD-8A64-4125-9D51-742203E77D50",
	},
	version = 0,
}
