Develop Presets/Mastin Labs Ilford BW - Canon/1b. HP5 35mm - C.lrtemplate
s = {
	id = "1B8C4FF8-F176-4607-A58D-F280D3F9FD88",
	internalName = "HP5 BEST Dec 17",
	title = "1b. HP5 35mm - C",
	type = "Develop",
	value = {
		settings = {
			Blacks2012 = 52,
			BlueHue = 0,
			BlueSaturation = 0,
			CameraProfile = "Adobe Standard",
			Clarity2012 = 0,
			Contrast2012 = 87,
			ConvertToGrayscale = true,
			EnableCalibration = true,
			EnableEffects = true,
			EnableGrayscaleMix = true,
			GrainAmount = 52,
			GrainFrequency = 59,
			GrainSize = 25,
			GrayMixerAqua = 1,
			GrayMixerBlue = 1,
			GrayMixerGreen = -20,
			GrayMixerMagenta = 9,
			GrayMixerOrange = -10,
			GrayMixerPurple = 34,
			GrayMixerRed = 3,
			GrayMixerYellow = -13,
			GreenHue = 0,
			GreenSaturation = 0,
			Highlights2012 = -33,
			ParametricDarks = 15,
			ParametricHighlightSplit = 75,
			ParametricHighlights = -32,
			ParametricLights = 1,
			ParametricMidtoneSplit = 50,
			ParametricShadowSplit = 25,
			ParametricShadows = 0,
			ProcessVersion = "6.7",
			RedHue = 0,
			RedSaturation = 0,
			ShadowTint = 0,
			Shadows2012 = -11,
			ToneCurveName2012 = "Linear",
			ToneCurvePV2012 = {
				0,
				0,
				255,
				255,
			},
			ToneCurvePV2012Blue = {
				0,
				0,
				255,
				255,
			},
			ToneCurvePV2012Green = {
				0,
				0,
				255,
				255,
			},
			ToneCurvePV2012Red = {
				0,
				0,
				255,
				255,
			},
			Whites2012 = 6,
		},
		uuid = "47902E4D-2EA5-4500-9081-B7C3728F3D9E",
	},
	version = 0,
}
