Develop Presets/Mastin Labs Ilford BW - Canon/2a. All Hard - C_.lrtemplate
s = {
	id = "940361BF-B774-4B24-8BC0-9A8BDD3D318F",
	internalName = "2. All Hard - C ",
	title = "2a. All Hard - C ",
	type = "Develop",
	value = {
		settings = {
			Blacks2012 = 29,
			Contrast2012 = 87,
			Highlights2012 = -23,
			Shadows2012 = -32,
			Whites2012 = 14,
		},
		uuid = "79C2E7CA-4EF4-4FC5-A453-F72EE89B2F77",
	},
	version = 0,
}
