Develop Presets/Mastin Labs Ilford BW - Canon/2b. All Soft - C_.lrtemplate
s = {
	id = "5A3A2E46-63F7-4569-A7BE-CC25692D0595",
	internalName = "2c. All Soft",
	title = "2b. All Soft - C ",
	type = "Develop",
	value = {
		settings = {
			Blacks2012 = 52,
			Contrast2012 = 87,
			Highlights2012 = -55,
			ProcessVersion = "6.7",
			Shadows2012 = 54,
			Whites2012 = -5,
		},
		uuid = "48763FC5-602C-401E-9D19-CF443AB7FFDC",
	},
	version = 0,
}
