Develop Presets/Mastin Labs Ilford BW - Canon/2c. Highlight Hard - C_.lrtemplate
s = {
	id = "C21291B4-5CF7-4045-B666-94891A475E46",
	internalName = "4. Highlight Hard - C ",
	title = "2c. Highlight Hard - C ",
	type = "Develop",
	value = {
		settings = {
			Blacks2012 = 52,
			Contrast2012 = 87,
			Highlights2012 = -23,
			Shadows2012 = -11,
			Whites2012 = 14,
		},
		uuid = "D7895C19-94D4-49F7-99BD-B2FF67C66B85",
	},
	version = 0,
}
