Develop Presets/Mastin Labs Ilford BW - Canon/2e. Shadow Hard - C_.lrtemplate
s = {
	id = "69FED15B-E7B7-454E-BD57-C7288EFD0706",
	internalName = "6. Shadow Hard - C ",
	title = "2e. Shadow Hard - C ",
	type = "Develop",
	value = {
		settings = {
			Blacks2012 = 29,
			Contrast2012 = 87,
			Highlights2012 = -33,
			Shadows2012 = -32,
			Whites2012 = 6,
		},
		uuid = "9E8B1A45-5CFB-425B-BA4C-E4CB3961FE99",
	},
	version = 0,
}
