Develop Presets/Archipelago-LXCN/LXCN 06 M.lrtemplate
s = {
	id = "3EB6C34D-AE61-4A73-84FD-EF95CDB8C36D",
	internalName = "LXCN 06 M",
	title = "LXCN 06 M",
	type = "Develop",
	value = {
		settings = {
			Blacks2012 = 33,
			BlueHue = 0,
			BlueSaturation = 0,
			CameraProfile = "Adobe Standard",
			Clarity2012 = 0,
			ColorNoiseReduction = 25,
			ColorNoiseReductionDetail = 50,
			ColorNoiseReductionSmoothness = 50,
			Contrast2012 = 0,
			ConvertToGrayscale = true,
			Dehaze = 0,
			EnableCalibration = true,
			EnableDetail = true,
			EnableEffects = true,
			EnableGrayscaleMix = true,
			EnableSplitToning = true,
			GrainAmount = 10,
			GrainFrequency = 43,
			GrainSize = 66,
			GrayMixerAqua = 0,
			GrayMixerBlue = 22,
			GrayMixerGreen = -33,
			GrayMixerMagenta = 0,
			GrayMixerOrange = -7,
			GrayMixerPurple = 0,
			GrayMixerRed = -22,
			GrayMixerYellow = 0,
			GreenHue = 0,
			GreenSaturation = 0,
			Highlights2012 = -51,
			LuminanceNoiseReductionContrast = 0,
			LuminanceNoiseReductionDetail = 50,
			LuminanceSmoothing = 0,
			ParametricDarks = 0,
			ParametricHighlightSplit = 75,
			ParametricHighlights = 0,
			ParametricLights = 0,
			ParametricMidtoneSplit = 50,
			ParametricShadowSplit = 25,
			ParametricShadows = 0,
			PostCropVignetteAmount = 0,
			PostCropVignetteFeather = 50,
			PostCropVignetteHighlightContrast = 0,
			PostCropVignetteMidpoint = 50,
			PostCropVignetteRoundness = 0,
			PostCropVignetteStyle = 1,
			ProcessVersion = "6.7",
			RedHue = 0,
			RedSaturation = 0,
			ShadowTint = 0,
			Shadows2012 = 50,
			SharpenDetail = 25,
			SharpenEdgeMasking = 0,
			SharpenRadius = 1,
			Sharpness = 60,
			SplitToningBalance = 0,
			SplitToningHighlightHue = 0,
			SplitToningHighlightSaturation = 0,
			SplitToningShadowHue = 0,
			SplitToningShadowSaturation = 0,
			ToneCurveName2012 = "Custom",
			ToneCurvePV2012 = {
				0,
				0,
				69,
				36,
				109,
				81,
				132,
				122,
				255,
				255,
			},
			ToneCurvePV2012Blue = {
				0,
				0,
				255,
				255,
			},
			ToneCurvePV2012Green = {
				0,
				0,
				255,
				255,
			},
			ToneCurvePV2012Red = {
				0,
				0,
				255,
				255,
			},
			Whites2012 = -51,
		},
		uuid = "8E86807F-6B40-4DAD-AE58-F3076CC2D12C",
	},
	version = 0,
}
