Develop Presets/Archipelago-LXCN/~LXCN 05 S.lrtemplate
s = {
	id = "3B28C7F9-7FD2-48AA-A3D3-1709DA7D8425",
	internalName = "LXCN 05 S",
	title = "LXCN 05 S",
	type = "Develop",
	value = {
		settings = {
			Blacks2012 = 68,
			BlueHue = 0,
			BlueSaturation = 0,
			CameraProfile = "Adobe Standard",
			Clarity2012 = -20,
			ColorNoiseReduction = 25,
			ColorNoiseReductionDetail = 50,
			ColorNoiseReductionSmoothness = 50,
			Contrast2012 = 0,
			ConvertToGrayscale = true,
			Dehaze = 0,
			EnableCalibration = true,
			EnableDetail = true,
			EnableEffects = true,
			EnableGrayscaleMix = true,
			EnableSplitToning = true,
			GrainAmount = 18,
			GrainFrequency = 50,
			GrainSize = 24,
			GrayMixerAqua = -3,
			GrayMixerBlue = 0,
			GrayMixerGreen = 8,
			GrayMixerMagenta = 0,
			GrayMixerOrange = 3,
			GrayMixerPurple = 0,
			GrayMixerRed = 5,
			GrayMixerYellow = 1,
			GreenHue = 0,
			GreenSaturation = 0,
			Highlights2012 = -100,
			LuminanceNoiseReductionContrast = 0,
			LuminanceNoiseReductionDetail = 50,
			LuminanceSmoothing = 0,
			ParametricDarks = 0,
			ParametricHighlightSplit = 75,
			ParametricHighlights = 0,
			ParametricLights = 0,
			ParametricMidtoneSplit = 50,
			ParametricShadowSplit = 25,
			ParametricShadows = 0,
			PostCropVignetteAmount = 0,
			PostCropVignetteFeather = 50,
			PostCropVignetteHighlightContrast = 0,
			PostCropVignetteMidpoint = 50,
			PostCropVignetteRoundness = 0,
			PostCropVignetteStyle = 1,
			ProcessVersion = "6.7",
			RedHue = 0,
			RedSaturation = 0,
			ShadowTint = 0,
			Shadows2012 = 45,
			SharpenDetail = 25,
			SharpenEdgeMasking = 0,
			SharpenRadius = 1,
			Sharpness = 60,
			SplitToningBalance = 0,
			SplitToningHighlightHue = 0,
			SplitToningHighlightSaturation = 0,
			SplitToningShadowHue = 0,
			SplitToningShadowSaturation = 0,
			ToneCurveName2012 = "Custom",
			ToneCurvePV2012 = {
				0,
				0,
				73,
				15,
				114,
				60,
				126,
				88,
				144,
				131,
				175,
				174,
				255,
				196,
			},
			ToneCurvePV2012Blue = {
				0,
				0,
				255,
				255,
			},
			ToneCurvePV2012Green = {
				0,
				0,
				255,
				255,
			},
			ToneCurvePV2012Red = {
				0,
				0,
				255,
				255,
			},
			Whites2012 = -100,
		},
		uuid = "490DB703-B824-49E2-8BA0-0D08F75D9A20",
	},
	version = 0,
}
