Develop Presets/DVLOP - JONAS PETERSON/Skogafoss Matte.lrtemplate
s = {
	id = "203F0EAD-CF99-4B69-8BAE-E7200ACA9D0F",
	internalName = "JONAS-GAMMA-MAIN",
	title = "Skogafoss Matte",
	type = "Develop",
	value = {
		settings = {
			Blacks2012 = -4,
			BlueHue = 0,
			BlueSaturation = 0,
			CameraProfile = "DVLOP",
			Clarity2012 = 5,
			ColorNoiseReduction = 25,
			ColorNoiseReductionDetail = 50,
			ColorNoiseReductionSmoothness = 50,
			Contrast2012 = 0,
			ConvertToGrayscale = false,
			Dehaze = 0,
			EnableCalibration = true,
			EnableColorAdjustments = true,
			EnableDetail = true,
			EnableEffects = true,
			EnableSplitToning = true,
			GrainAmount = 24,
			GrainFrequency = 50,
			GrainSize = 31,
			GreenHue = 0,
			GreenSaturation = 0,
			Highlights2012 = -51,
			HueAdjustmentAqua = -2,
			HueAdjustmentBlue = -17,
			HueAdjustmentGreen = 24,
			HueAdjustmentMagenta = 0,
			HueAdjustmentOrange = 0,
			HueAdjustmentPurple = 0,
			HueAdjustmentRed = 0,
			HueAdjustmentYellow = 11,
			LuminanceAdjustmentAqua = -6,
			LuminanceAdjustmentBlue = -2,
			LuminanceAdjustmentGreen = 0,
			LuminanceAdjustmentMagenta = 0,
			LuminanceAdjustmentOrange = 0,
			LuminanceAdjustmentPurple = 0,
			LuminanceAdjustmentRed = 2,
			LuminanceAdjustmentYellow = 2,
			LuminanceNoiseReductionContrast = 0,
			LuminanceNoiseReductionDetail = 50,
			LuminanceSmoothing = 0,
			ParametricDarks = 0,
			ParametricHighlightSplit = 75,
			ParametricHighlights = 0,
			ParametricLights = 0,
			ParametricMidtoneSplit = 50,
			ParametricShadowSplit = 25,
			ParametricShadows = 0,
			PostCropVignetteAmount = 0,
			PostCropVignetteFeather = 50,
			PostCropVignetteHighlightContrast = 0,
			PostCropVignetteMidpoint = 50,
			PostCropVignetteRoundness = 0,
			PostCropVignetteStyle = 1,
			ProcessVersion = "6.7",
			RedHue = 0,
			RedSaturation = 0,
			Saturation = -40,
			SaturationAdjustmentAqua = 0,
			SaturationAdjustmentBlue = -4,
			SaturationAdjustmentGreen = -20,
			SaturationAdjustmentMagenta = 0,
			SaturationAdjustmentOrange = 0,
			SaturationAdjustmentPurple = 0,
			SaturationAdjustmentRed = 0,
			SaturationAdjustmentYellow = 0,
			ShadowTint = 0,
			Shadows2012 = 50,
			SharpenDetail = 25,
			SharpenEdgeMasking = 0,
			SharpenRadius = 1,
			Sharpness = 25,
			SplitToningBalance = 0,
			SplitToningHighlightHue = 102,
			SplitToningHighlightSaturation = 3,
			SplitToningShadowHue = 0,
			SplitToningShadowSaturation = 5,
			ToneCurveName2012 = "Custom",
			ToneCurvePV2012 = {
				0,
				17,
				44,
				47,
				94,
				99,
				150,
				147,
				193,
				177,
				231,
				200,
				255,
				215,
			},
			ToneCurvePV2012Blue = {
				0,
				0,
				255,
				255,
			},
			ToneCurvePV2012Green = {
				0,
				0,
				255,
				255,
			},
			ToneCurvePV2012Red = {
				0,
				0,
				255,
				255,
			},
			Vibrance = 40,
			Whites2012 = -65,
		},
		uuid = "F8252CF8-9D80-4F64-9DB0-4D7A3739052D",
	},
	version = 0,
}
