Develop Presets/Archipelago - Longnecker LR/RyanLongnecker 05 C.lrtemplate
s = {
	id = "245217D2-6D91-4A4A-A818-012F250740D9",
	internalName = "RyanLongnecker 05 C-fixed",
	title = "RyanLongnecker 05 C-fixed",
	type = "Develop",
	value = {
		settings = {
			AutoLateralCA = 0,
			Blacks2012 = 17,
			BlueHue = 0,
			BlueSaturation = -5,
			CameraProfile = "Adobe Standard",
			ChromaticAberrationB = 0,
			ChromaticAberrationR = 0,
			Clarity2012 = 0,
			ColorNoiseReduction = 25,
			ColorNoiseReductionDetail = 50,
			ColorNoiseReductionSmoothness = 50,
			Contrast2012 = 31,
			ConvertToGrayscale = false,
			CropConstrainToWarp = 0,
			Defringe = 0,
			DefringeGreenAmount = 0,
			DefringeGreenHueHi = 60,
			DefringeGreenHueLo = 40,
			DefringePurpleAmount = 0,
			DefringePurpleHueHi = 70,
			DefringePurpleHueLo = 30,
			Dehaze = 0,
			EnableCalibration = true,
			EnableCircularGradientBasedCorrections = true,
			EnableColorAdjustments = true,
			EnableDetail = true,
			EnableEffects = true,
			EnableGradientBasedCorrections = true,
			EnableLensCorrections = true,
			EnableSplitToning = true,
			Exposure2012 = 0,
			GrainAmount = 17,
			GrainFrequency = 32,
			GrainSize = 27,
			GreenHue = 1,
			GreenSaturation = 0,
			Highlights2012 = -34,
			HueAdjustmentAqua = 9,
			HueAdjustmentBlue = -8,
			HueAdjustmentGreen = 10,
			HueAdjustmentMagenta = 15,
			HueAdjustmentOrange = 5,
			HueAdjustmentPurple = 0,
			HueAdjustmentRed = 10,
			HueAdjustmentYellow = -4,
			LensManualDistortionAmount = 0,
			LensProfileEnable = 1,
			LensProfileSetup = "Auto",
			LuminanceAdjustmentAqua = 20,
			LuminanceAdjustmentBlue = -15,
			LuminanceAdjustmentGreen = -20,
			LuminanceAdjustmentMagenta = 10,
			LuminanceAdjustmentOrange = -3,
			LuminanceAdjustmentPurple = 15,
			LuminanceAdjustmentRed = 0,
			LuminanceAdjustmentYellow = -15,
			LuminanceNoiseReductionContrast = 0,
			LuminanceNoiseReductionDetail = 50,
			LuminanceSmoothing = 0,
			ParametricDarks = 0,
			ParametricHighlightSplit = 75,
			ParametricHighlights = 0,
			ParametricLights = 0,
			ParametricMidtoneSplit = 50,
			ParametricShadowSplit = 25,
			ParametricShadows = 0,
			PerspectiveAspect = 0,
			PerspectiveHorizontal = 0,
			PerspectiveRotate = 0,
			PerspectiveScale = 100,
			PerspectiveUpright = 0,
			PerspectiveVertical = 0,
			PostCropVignetteAmount = 0,
			PostCropVignetteFeather = 50,
			PostCropVignetteHighlightContrast = 0,
			PostCropVignetteMidpoint = 50,
			PostCropVignetteRoundness = 0,
			PostCropVignetteStyle = 1,
			ProcessVersion = "6.7",
			RedHue = 5,
			RedSaturation = -5,
			Saturation = -1,
			SaturationAdjustmentAqua = -15,
			SaturationAdjustmentBlue = -10,
			SaturationAdjustmentGreen = -30,
			SaturationAdjustmentMagenta = -20,
			SaturationAdjustmentOrange = 1,
			SaturationAdjustmentPurple = -25,
			SaturationAdjustmentRed = -5,
			SaturationAdjustmentYellow = -15,
			ShadowTint = 3,
			Shadows2012 = 42,
			SharpenDetail = 25,
			SharpenEdgeMasking = 0,
			SharpenRadius = 1,
			Sharpness = 25,
			SplitToningBalance = 0,
			SplitToningHighlightHue = 232,
			SplitToningHighlightSaturation = 10,
			SplitToningShadowHue = 42,
			SplitToningShadowSaturation = 8,
			ToneCurveName2012 = "Custom",
			ToneCurvePV2012 = {
				0,
				15,
				23,
				22,
				75,
				70,
				116,
				113,
				255,
				237,
			},
			ToneCurvePV2012Blue = {
				0,
				0,
				29,
				20,
				116,
				134,
				181,
				194,
				255,
				244,
			},
			ToneCurvePV2012Green = {
				0,
				0,
				28,
				16,
				115,
				134,
				181,
				196,
				255,
				255,
			},
			ToneCurvePV2012Red = {
				0,
				0,
				31,
				24,
				116,
				132,
				181,
				196,
				255,
				255,
			},
			Vibrance = 0,
			VignetteAmount = -25,
			VignetteMidpoint = 40,
			WhiteBalance = "As Shot",
			Whites2012 = -22,
			orientation = "AB",
		},
		uuid = "5BBAFC8B-6580-43C5-AB54-E29C5DA6AE60",
	},
	version = 0,
}
