Develop Presets/Archipelago - Longnecker LR/RyanLongnecker 03 C.lrtemplate
s = {
	id = "D0B38E7F-F567-42B5-B381-CD6959EF9574",
	internalName = "RyanLongnecker 03 C-fixed",
	title = "RyanLongnecker 03 C-fixed",
	type = "Develop",
	value = {
		settings = {
			AutoLateralCA = 0,
			Blacks2012 = -7,
			BlueHue = 0,
			BlueSaturation = 0,
			CameraProfile = "Adobe Standard",
			ChromaticAberrationB = 0,
			ChromaticAberrationR = 0,
			Clarity2012 = 0,
			ColorNoiseReduction = 25,
			ColorNoiseReductionDetail = 50,
			ColorNoiseReductionSmoothness = 50,
			Contrast2012 = 15,
			ConvertToGrayscale = false,
			CropConstrainToWarp = 0,
			Defringe = 0,
			DefringeGreenAmount = 0,
			DefringeGreenHueHi = 60,
			DefringeGreenHueLo = 40,
			DefringePurpleAmount = 0,
			DefringePurpleHueHi = 70,
			DefringePurpleHueLo = 30,
			Dehaze = 0,
			EnableCalibration = true,
			EnableCircularGradientBasedCorrections = true,
			EnableColorAdjustments = true,
			EnableDetail = true,
			EnableEffects = true,
			EnableGradientBasedCorrections = true,
			EnableLensCorrections = true,
			EnableSplitToning = true,
			Exposure2012 = 0,
			GrainAmount = 30,
			GrainFrequency = 30,
			GrainSize = 35,
			GreenHue = 5,
			GreenSaturation = 0,
			Highlights2012 = -10,
			HueAdjustmentAqua = -12,
			HueAdjustmentBlue = 10,
			HueAdjustmentGreen = 0,
			HueAdjustmentMagenta = 25,
			HueAdjustmentOrange = -4,
			HueAdjustmentPurple = 25,
			HueAdjustmentRed = 0,
			HueAdjustmentYellow = 5,
			LensManualDistortionAmount = 0,
			LensProfileEnable = 1,
			LensProfileSetup = "Auto",
			LuminanceAdjustmentAqua = 0,
			LuminanceAdjustmentBlue = -8,
			LuminanceAdjustmentGreen = -8,
			LuminanceAdjustmentMagenta = 20,
			LuminanceAdjustmentOrange = -10,
			LuminanceAdjustmentPurple = 0,
			LuminanceAdjustmentRed = 0,
			LuminanceAdjustmentYellow = 10,
			LuminanceNoiseReductionContrast = 0,
			LuminanceNoiseReductionDetail = 50,
			LuminanceSmoothing = 0,
			ParametricDarks = 0,
			ParametricHighlightSplit = 75,
			ParametricHighlights = 0,
			ParametricLights = 0,
			ParametricMidtoneSplit = 50,
			ParametricShadowSplit = 25,
			ParametricShadows = 0,
			PerspectiveAspect = 0,
			PerspectiveHorizontal = 0,
			PerspectiveRotate = 0,
			PerspectiveScale = 100,
			PerspectiveUpright = 0,
			PerspectiveVertical = 0,
			PostCropVignetteAmount = 0,
			PostCropVignetteFeather = 50,
			PostCropVignetteHighlightContrast = 0,
			PostCropVignetteMidpoint = 50,
			PostCropVignetteRoundness = 0,
			PostCropVignetteStyle = 1,
			ProcessVersion = "6.7",
			RedHue = 0,
			RedSaturation = 0,
			Saturation = 0,
			SaturationAdjustmentAqua = 0,
			SaturationAdjustmentBlue = -10,
			SaturationAdjustmentGreen = -30,
			SaturationAdjustmentMagenta = 0,
			SaturationAdjustmentOrange = 0,
			SaturationAdjustmentPurple = -10,
			SaturationAdjustmentRed = -10,
			SaturationAdjustmentYellow = -15,
			ShadowTint = 5,
			Shadows2012 = -2,
			SharpenDetail = 25,
			SharpenEdgeMasking = 0,
			SharpenRadius = 1,
			Sharpness = 25,
			SplitToningBalance = 0,
			SplitToningHighlightHue = 55,
			SplitToningHighlightSaturation = 3,
			SplitToningShadowHue = 60,
			SplitToningShadowSaturation = 5,
			ToneCurveName2012 = "Custom",
			ToneCurvePV2012 = {
				0,
				28,
				42,
				50,
				94,
				104,
				255,
				250,
			},
			ToneCurvePV2012Blue = {
				0,
				0,
				52,
				35,
				122,
				127,
				188,
				203,
				255,
				255,
			},
			ToneCurvePV2012Green = {
				0,
				8,
				49,
				37,
				120,
				129,
				184,
				198,
				255,
				255,
			},
			ToneCurvePV2012Red = {
				0,
				9,
				48,
				37,
				122,
				130,
				170,
				184,
				255,
				253,
			},
			Vibrance = 0,
			VignetteAmount = -25,
			VignetteMidpoint = 40,
			WhiteBalance = "As Shot",
			Whites2012 = -15,
			orientation = "AB",
		},
		uuid = "4925C42E-6CB1-455E-A725-39FE18D521E3",
	},
	version = 0,
}
