Develop Presets/Archipelago - Don + Helen/~D+H 03 C.lrtemplate
s = {
	id = "8A77B958-2386-40C4-9F57-B9488CA421E2",
	internalName = "D+H 03 C",
	title = "D+H 03 C",
	type = "Develop",
	value = {
		settings = {
			Blacks2012 = 64,
			BlueHue = 0,
			BlueSaturation = 0,
			CameraProfile = "Adobe Standard",
			Clarity2012 = 10,
			Contrast2012 = -12,
			ConvertToGrayscale = false,
			EnableCalibration = true,
			EnableColorAdjustments = true,
			EnableEffects = true,
			EnableSplitToning = true,
			GrainAmount = 21,
			GrainFrequency = 55,
			GrainSize = 32,
			GreenHue = 0,
			GreenSaturation = 0,
			Highlights2012 = -42,
			HueAdjustmentAqua = -2,
			HueAdjustmentBlue = 0,
			HueAdjustmentGreen = 22,
			HueAdjustmentMagenta = -2,
			HueAdjustmentOrange = 0,
			HueAdjustmentPurple = 2,
			HueAdjustmentRed = -15,
			HueAdjustmentYellow = 74,
			LuminanceAdjustmentAqua = 0,
			LuminanceAdjustmentBlue = 0,
			LuminanceAdjustmentGreen = 7,
			LuminanceAdjustmentMagenta = 0,
			LuminanceAdjustmentOrange = 2,
			LuminanceAdjustmentPurple = 0,
			LuminanceAdjustmentRed = 4,
			LuminanceAdjustmentYellow = 4,
			ParametricDarks = 36,
			ParametricHighlightSplit = 75,
			ParametricHighlights = -14,
			ParametricLights = -12,
			ParametricMidtoneSplit = 63,
			ParametricShadowSplit = 20,
			ParametricShadows = -100,
			ProcessVersion = "6.7",
			RedHue = 0,
			RedSaturation = 0,
			Saturation = -31,
			SaturationAdjustmentAqua = -2,
			SaturationAdjustmentBlue = 0,
			SaturationAdjustmentGreen = -24,
			SaturationAdjustmentMagenta = 0,
			SaturationAdjustmentOrange = 22,
			SaturationAdjustmentPurple = 0,
			SaturationAdjustmentRed = 4,
			SaturationAdjustmentYellow = -30,
			ShadowTint = 0,
			Shadows2012 = 47,
			SplitToningBalance = -100,
			SplitToningHighlightHue = 0,
			SplitToningHighlightSaturation = 0,
			SplitToningShadowHue = 0,
			SplitToningShadowSaturation = 0,
			ToneCurveName2012 = "Custom",
			ToneCurvePV2012 = {
				0,
				17,
				36,
				38,
				85,
				74,
				143,
				143,
				207,
				206,
				255,
				238,
			},
			ToneCurvePV2012Blue = {
				0,
				0,
				255,
				255,
			},
			ToneCurvePV2012Green = {
				0,
				0,
				255,
				255,
			},
			ToneCurvePV2012Red = {
				0,
				0,
				255,
				255,
			},
			Vibrance = 40,
			Whites2012 = -46,
		},
		uuid = "EF0EE023-6944-4C4B-B2FF-E89866CB6C4E",
	},
	version = 0,
}
