Develop Presets/VSCO Film 06 Cross Process - Fuji/F - Provia 400X XP +++.lrtemplate
s = {
	id = "BFD303FC-0E3E-4049-AE10-B0FE4B520AB4",
	internalName = "F - Provia 400X XP +++",
	title = "F - Provia 400X XP +++",
	type = "Develop",
	value = {
		settings = {
			Blacks2012 = 20,
			BlueHue = -5,
			BlueSaturation = -10,
			CameraProfile = "Provia 400X XP - F",
			Clarity2012 = 0,
			Contrast2012 = 0,
			ConvertToGrayscale = false,
			EnableCalibration = true,
			EnableColorAdjustments = true,
			EnableDetail = true,
			EnableEffects = true,
			EnableSplitToning = true,
			GrainAmount = 25,
			GrainFrequency = 70,
			GrainSize = 30,
			GreenHue = 100,
			GreenSaturation = -10,
			Highlights2012 = -15,
			HueAdjustmentAqua = 5,
			HueAdjustmentBlue = -8,
			HueAdjustmentGreen = 15,
			HueAdjustmentMagenta = 20,
			HueAdjustmentOrange = 10,
			HueAdjustmentPurple = 25,
			HueAdjustmentRed = -10,
			HueAdjustmentYellow = 20,
			LuminanceAdjustmentAqua = -15,
			LuminanceAdjustmentBlue = -25,
			LuminanceAdjustmentGreen = -10,
			LuminanceAdjustmentMagenta = 0,
			LuminanceAdjustmentOrange = 5,
			LuminanceAdjustmentPurple = 0,
			LuminanceAdjustmentRed = -15,
			LuminanceAdjustmentYellow = 0,
			ParametricDarks = 0,
			ParametricHighlightSplit = 75,
			ParametricHighlights = 0,
			ParametricLights = 0,
			ParametricMidtoneSplit = 50,
			ParametricShadowSplit = 25,
			ParametricShadows = 0,
			ProcessVersion = "6.7",
			RedHue = 45,
			RedSaturation = -10,
			Saturation = 0,
			SaturationAdjustmentAqua = -35,
			SaturationAdjustmentBlue = -20,
			SaturationAdjustmentGreen = -20,
			SaturationAdjustmentMagenta = -15,
			SaturationAdjustmentOrange = -5,
			SaturationAdjustmentPurple = 0,
			SaturationAdjustmentRed = -15,
			SaturationAdjustmentYellow = -10,
			ShadowTint = 0,
			Shadows2012 = 15,
			SharpenDetail = 25,
			SharpenEdgeMasking = 0,
			SharpenRadius = 1,
			Sharpness = 25,
			SplitToningBalance = 70,
			SplitToningHighlightHue = 65,
			SplitToningHighlightSaturation = 15,
			SplitToningShadowHue = 215,
			SplitToningShadowSaturation = 20,
			ToneCurveName2012 = "Provia 400X XP +++",
			ToneCurvePV2012 = {
				0,
				44,
				28,
				48,
				73,
				76,
				136,
				138,
				255,
				255,
			},
			ToneCurvePV2012Blue = {
				0,
				0,
				61,
				39,
				119,
				124,
				177,
				193,
				255,
				255,
			},
			ToneCurvePV2012Green = {
				0,
				0,
				59,
				42,
				108,
				122,
				170,
				201,
				255,
				255,
			},
			ToneCurvePV2012Red = {
				0,
				0,
				22,
				4,
				67,
				43,
				113,
				123,
				181,
				201,
				255,
				255,
			},
			Vibrance = 0,
			Whites2012 = -10,
		},
		uuid = "1FAC3BD2-D9B4-4FAF-B5E1-A56214F9F04A",
	},
	version = 0,
}
