Develop Presets/Mastin Labs Fuji Pro - Fuji X Trans/2a. All Hard - F_.lrtemplate
s = {
	id = "2EC59BAF-7ADF-46CF-AB48-35E869443966",
	internalName = "2a. All Hard - F ",
	title = "2a. All Hard - F ",
	type = "Develop",
	value = {
		settings = {
			Blacks2012 = 75,
			Highlights2012 = -25,
			ProcessVersion = "6.7",
			Shadows2012 = -20,
			Whites2012 = -31,
		},
		uuid = "0EE550D5-C33D-4717-B973-444B099A39AF",
	},
	version = 0,
}
