Develop Presets/Mastin Labs Fuji Pro - Fuji X Trans/2d. Highlight Soft - F_.lrtemplate
s = {
	id = "A6C3BDF4-4546-4E72-B794-580FF4E9A51E",
	internalName = "2d. Highlight Soft - F ",
	title = "2d. Highlight Soft - F ",
	type = "Develop",
	value = {
		settings = {
			Blacks2012 = 82,
			Highlights2012 = -90,
			ProcessVersion = "6.7",
			Shadows2012 = 1,
			Whites2012 = -88,
		},
		uuid = "64DE86B6-FA78-491E-A258-301DB2914A77",
	},
	version = 0,
}
