Develop Presets/Heck Yeah Art Pack/Heck Yeah Art B+W.lrtemplate
s = {
	id = "09BC8DE1-2F67-49E7-915D-6CAFBE399FDD",
	internalName = "Heck Yeah Art B+W",
	title = "Heck Yeah Art B+W",
	type = "Develop",
	value = {
		settings = {
			AutoGrayscaleMix = true,
			AutoLateralCA = 0,
			Blacks2012 = -12,
			BlueHue = 0,
			BlueSaturation = -14,
			CameraProfile = "Adobe Standard",
			ChromaticAberrationB = 0,
			ChromaticAberrationR = 0,
			Clarity2012 = 0,
			Contrast2012 = 14,
			ConvertToGrayscale = true,
			CropConstrainToWarp = 0,
			Defringe = 0,
			DefringeGreenAmount = 0,
			DefringeGreenHueHi = 60,
			DefringeGreenHueLo = 40,
			DefringePurpleAmount = 0,
			DefringePurpleHueHi = 70,
			DefringePurpleHueLo = 30,
			EnableCalibration = true,
			EnableDetail = true,
			EnableGrayscaleMix = true,
			EnableLensCorrections = true,
			EnableSplitToning = true,
			GreenHue = 43,
			GreenSaturation = -36,
			Highlights2012 = -26,
			LensManualDistortionAmount = 0,
			LensProfileEnable = 1,
			LensProfileSetup = "LensDefaults",
			ParametricDarks = 0,
			ParametricHighlightSplit = 75,
			ParametricHighlights = 0,
			ParametricLights = 0,
			ParametricMidtoneSplit = 50,
			ParametricShadowSplit = 25,
			ParametricShadows = 0,
			ProcessVersion = "6.7",
			RedHue = 43,
			RedSaturation = 0,
			ShadowTint = 0,
			Shadows2012 = -23,
			SharpenDetail = 25,
			SharpenEdgeMasking = 0,
			SharpenRadius = 1,
			Sharpness = 25,
			SplitToningBalance = 0,
			SplitToningHighlightHue = 0,
			SplitToningHighlightSaturation = 0,
			SplitToningShadowHue = 0,
			SplitToningShadowSaturation = 0,
			ToneCurveName2012 = "Custom",
			ToneCurvePV2012 = {
				0,
				0,
				54,
				35,
				122,
				118,
				181,
				176,
				255,
				217,
			},
			ToneCurvePV2012Blue = {
				0,
				0,
				255,
				255,
			},
			ToneCurvePV2012Green = {
				0,
				0,
				255,
				255,
			},
			ToneCurvePV2012Red = {
				0,
				0,
				255,
				255,
			},
			VignetteAmount = 0,
			VignetteMidpoint = 50,
			Whites2012 = -23,
		},
		uuid = "1A29422C-C817-462E-A09A-23B09C6EFE09",
	},
	version = 0,
}
