Develop Presets/Heck Yeah Art Pack/Heck Yeah Art 4.lrtemplate
s = {
	id = "27D506CA-F674-4CAB-B61D-146E3738BEA8",
	internalName = "Heck Yeah Art 4",
	title = "Heck Yeah Art 4",
	type = "Develop",
	value = {
		settings = {
			AutoLateralCA = 0,
			Blacks2012 = 0,
			BlueHue = 0,
			BlueSaturation = 0,
			CameraProfile = "Adobe Standard",
			ChromaticAberrationB = 0,
			ChromaticAberrationR = 0,
			Clarity2012 = 0,
			Contrast2012 = 0,
			ConvertToGrayscale = false,
			CropConstrainToWarp = 0,
			Defringe = 0,
			DefringeGreenAmount = 0,
			DefringeGreenHueHi = 60,
			DefringeGreenHueLo = 40,
			DefringePurpleAmount = 0,
			DefringePurpleHueHi = 70,
			DefringePurpleHueLo = 30,
			EnableCalibration = true,
			EnableColorAdjustments = true,
			EnableDetail = true,
			EnableLensCorrections = true,
			EnableSplitToning = true,
			GreenHue = 0,
			GreenSaturation = 0,
			Highlights2012 = -40,
			HueAdjustmentAqua = -8,
			HueAdjustmentBlue = -9,
			HueAdjustmentGreen = -21,
			HueAdjustmentMagenta = 2,
			HueAdjustmentOrange = 7,
			HueAdjustmentPurple = 6,
			HueAdjustmentRed = 0,
			HueAdjustmentYellow = 3,
			LensManualDistortionAmount = 0,
			LensProfileEnable = 1,
			LensProfileSetup = "Auto",
			LuminanceAdjustmentAqua = -26,
			LuminanceAdjustmentBlue = -28,
			LuminanceAdjustmentGreen = 0,
			LuminanceAdjustmentMagenta = 0,
			LuminanceAdjustmentOrange = 8,
			LuminanceAdjustmentPurple = 0,
			LuminanceAdjustmentRed = 0,
			LuminanceAdjustmentYellow = 9,
			ParametricDarks = 0,
			ParametricHighlightSplit = 75,
			ParametricHighlights = 0,
			ParametricLights = 0,
			ParametricMidtoneSplit = 50,
			ParametricShadowSplit = 25,
			ParametricShadows = 0,
			ProcessVersion = "6.7",
			RedHue = 0,
			RedSaturation = 0,
			Saturation = -24,
			SaturationAdjustmentAqua = -71,
			SaturationAdjustmentBlue = -30,
			SaturationAdjustmentGreen = -63,
			SaturationAdjustmentMagenta = 0,
			SaturationAdjustmentOrange = -10,
			SaturationAdjustmentPurple = 0,
			SaturationAdjustmentRed = -7,
			SaturationAdjustmentYellow = -15,
			ShadowTint = 0,
			Shadows2012 = 26,
			SharpenDetail = 25,
			SharpenEdgeMasking = 0,
			SharpenRadius = 1,
			Sharpness = 25,
			SplitToningBalance = 0,
			SplitToningHighlightHue = 0,
			SplitToningHighlightSaturation = 0,
			SplitToningShadowHue = 65,
			SplitToningShadowSaturation = 12,
			ToneCurveName2012 = "Custom",
			ToneCurvePV2012 = {
				0,
				9,
				54,
				53,
				178,
				162,
				255,
				218,
			},
			ToneCurvePV2012Blue = {
				0,
				0,
				39,
				13,
				87,
				65,
				123,
				124,
				183,
				199,
				255,
				255,
			},
			ToneCurvePV2012Green = {
				0,
				0,
				40,
				17,
				82,
				59,
				123,
				126,
				172,
				185,
				255,
				255,
			},
			ToneCurvePV2012Red = {
				0,
				0,
				42,
				20,
				84,
				63,
				123,
				125,
				186,
				196,
				255,
				255,
			},
			Vibrance = -11,
			VignetteAmount = 0,
			VignetteMidpoint = 50,
			Whites2012 = -32,
		},
		uuid = "81AFE8F3-E961-4880-B9DC-F4BED1DDCB05",
	},
	version = 0,
}
