Develop Presets/Mastin Labs Portra - Canon/1c. Portra 800 - C.lrtemplate
s = {
	id = "ED2E28DC-60AB-44CB-90F0-18FCB894C310",
	internalName = "1cc. Portra 800 - C",
	title = "1c. Portra 800 - C",
	type = "Develop",
	value = {
		settings = {
			Blacks2012 = 77,
			BlueHue = -5,
			BlueSaturation = 0,
			CameraProfile = "Adobe Standard",
			Contrast2012 = 87,
			ConvertToGrayscale = false,
			EnableCalibration = true,
			EnableColorAdjustments = true,
			EnableSplitToning = true,
			GreenHue = 12,
			GreenSaturation = 0,
			Highlights2012 = -63,
			HueAdjustmentAqua = 0,
			HueAdjustmentBlue = -9,
			HueAdjustmentGreen = 37,
			HueAdjustmentMagenta = 0,
			HueAdjustmentOrange = -4,
			HueAdjustmentPurple = 0,
			HueAdjustmentRed = 10,
			HueAdjustmentYellow = 11,
			LuminanceAdjustmentAqua = 0,
			LuminanceAdjustmentBlue = -9,
			LuminanceAdjustmentGreen = -8,
			LuminanceAdjustmentMagenta = 0,
			LuminanceAdjustmentOrange = 8,
			LuminanceAdjustmentPurple = 0,
			LuminanceAdjustmentRed = -4,
			LuminanceAdjustmentYellow = 22,
			ParametricDarks = 0,
			ParametricHighlightSplit = 75,
			ParametricHighlights = 0,
			ParametricLights = 0,
			ParametricMidtoneSplit = 50,
			ParametricShadowSplit = 25,
			ParametricShadows = 0,
			ProcessVersion = "6.7",
			RedHue = 12,
			RedSaturation = 0,
			Saturation = 0,
			SaturationAdjustmentAqua = 0,
			SaturationAdjustmentBlue = -17,
			SaturationAdjustmentGreen = -40,
			SaturationAdjustmentMagenta = 0,
			SaturationAdjustmentOrange = 1,
			SaturationAdjustmentPurple = -63,
			SaturationAdjustmentRed = -18,
			SaturationAdjustmentYellow = -26,
			ShadowTint = -4,
			Shadows2012 = -18,
			SplitToningBalance = 0,
			SplitToningHighlightHue = 0,
			SplitToningHighlightSaturation = 0,
			SplitToningShadowHue = 0,
			SplitToningShadowSaturation = 0,
			ToneCurveName2012 = "Linear",
			ToneCurvePV2012 = {
				0,
				0,
				255,
				255,
			},
			ToneCurvePV2012Blue = {
				0,
				0,
				255,
				255,
			},
			ToneCurvePV2012Green = {
				0,
				0,
				255,
				255,
			},
			ToneCurvePV2012Red = {
				0,
				0,
				255,
				255,
			},
			Vibrance = 0,
			Whites2012 = -57,
		},
		uuid = "4B631711-4715-43BD-AE90-439D47E5137C",
	},
	version = 0,
}
