Develop Presets/Mastin Labs Portra - Canon/2a. All Hard - C.lrtemplate
s = {
	id = "6F05322C-FC9F-4DE6-9414-2807D4783BFC",
	internalName = "2. ALL HARD",
	title = "2a. All Hard - C",
	type = "Develop",
	value = {
		settings = {
			Blacks2012 = 75,
			Contrast2012 = 89,
			Highlights2012 = -25,
			ProcessVersion = "6.7",
			Shadows2012 = -15,
			Whites2012 = -31,
		},
		uuid = "68E1FFB1-2A95-40A6-812E-87F8E3697C35",
	},
	version = 0,
}
