Develop Presets/Mastin Labs Portra - Canon/2e. Shadow Hard - C.lrtemplate
s = {
	id = "DD3F5007-1A93-41D6-8906-793FE7A69627",
	internalName = "6. SHADOW HARD",
	title = "2e. Shadow Hard - C",
	type = "Develop",
	value = {
		settings = {
			Blacks2012 = 75,
			Contrast2012 = 89,
			Highlights2012 = -63,
			ProcessVersion = "6.7",
			Shadows2012 = -15,
			Whites2012 = -41,
		},
		uuid = "6D8BEF57-C21B-46B5-8426-D3046A84053B",
	},
	version = 0,
}
