Develop Presets/VSCO Film 02 LR4 Fuji/F - Kodak Portra 160 VC ++.lrtemplate
s = {
	id = "F769B5E9-DABA-4945-B42E-8F52530D4318",
	internalName = "F - Kodak Portra 160 VC ++",
	title = "F - Kodak Portra 160 VC ++",
	type = "Develop",
	value = {
		settings = {
			Blacks2012 = 25,
			BlueHue = -10,
			BlueSaturation = -5,
			CameraProfile = "Kodak Portra 160 VC F",
			Clarity2012 = 0,
			Contrast2012 = 0,
			ConvertToGrayscale = false,
			EnableCalibration = true,
			EnableColorAdjustments = true,
			EnableDetail = true,
			EnableEffects = true,
			EnableSplitToning = true,
			GrainAmount = 30,
			GrainFrequency = 40,
			GrainSize = 25,
			GreenHue = 0,
			GreenSaturation = 0,
			Highlights2012 = -10,
			HueAdjustmentAqua = 10,
			HueAdjustmentBlue = -5,
			HueAdjustmentGreen = 15,
			HueAdjustmentMagenta = 30,
			HueAdjustmentOrange = 5,
			HueAdjustmentPurple = -10,
			HueAdjustmentRed = 25,
			HueAdjustmentYellow = 15,
			LuminanceAdjustmentAqua = 5,
			LuminanceAdjustmentBlue = 5,
			LuminanceAdjustmentGreen = 0,
			LuminanceAdjustmentMagenta = 5,
			LuminanceAdjustmentOrange = 0,
			LuminanceAdjustmentPurple = 10,
			LuminanceAdjustmentRed = -15,
			LuminanceAdjustmentYellow = 0,
			ParametricDarks = 0,
			ParametricHighlightSplit = 75,
			ParametricHighlights = 0,
			ParametricLights = 0,
			ParametricMidtoneSplit = 60,
			ParametricShadowSplit = 14,
			ParametricShadows = 0,
			ProcessVersion = "6.7",
			RedHue = 5,
			RedSaturation = 5,
			Saturation = 0,
			SaturationAdjustmentAqua = -10,
			SaturationAdjustmentBlue = -35,
			SaturationAdjustmentGreen = -45,
			SaturationAdjustmentMagenta = -35,
			SaturationAdjustmentOrange = -5,
			SaturationAdjustmentPurple = -35,
			SaturationAdjustmentRed = -5,
			SaturationAdjustmentYellow = -30,
			ShadowTint = 0,
			Shadows2012 = 25,
			SharpenDetail = 25,
			SharpenEdgeMasking = 0,
			SharpenRadius = 1,
			Sharpness = 25,
			SplitToningBalance = 0,
			SplitToningHighlightHue = 0,
			SplitToningHighlightSaturation = 0,
			SplitToningShadowHue = 0,
			SplitToningShadowSaturation = 0,
			ToneCurveName2012 = "Custom",
			ToneCurvePV2012 = {
				0,
				39,
				36,
				56,
				124,
				127,
				255,
				249,
			},
			ToneCurvePV2012Blue = {
				0,
				0,
				41,
				17,
				120,
				123,
				184,
				196,
				255,
				255,
			},
			ToneCurvePV2012Green = {
				0,
				15,
				36,
				23,
				120,
				123,
				184,
				195,
				255,
				255,
			},
			ToneCurvePV2012Red = {
				0,
				15,
				38,
				28,
				120,
				123,
				183,
				197,
				255,
				255,
			},
			Vibrance = 0,
			Whites2012 = -10,
		},
		uuid = "EEE704F0-D5F6-4909-8B62-30C9C525A22B",
	},
	version = 0,
}
