Develop Presets/VSCO Film 02 LR4 Fuji/F - Kodak Portra 400 VC.lrtemplate
s = {
	id = "179016AC-37DA-4746-A458-A440B0E29167",
	internalName = "F - Kodak Portra 400 VC",
	title = "F - Kodak Portra 400 VC",
	type = "Develop",
	value = {
		settings = {
			Blacks2012 = 25,
			BlueHue = -5,
			BlueSaturation = 0,
			CameraProfile = "Kodak Portra 400 VC F",
			Clarity2012 = 0,
			Contrast2012 = 0,
			ConvertToGrayscale = false,
			EnableCalibration = true,
			EnableColorAdjustments = true,
			EnableDetail = true,
			EnableEffects = true,
			EnableSplitToning = true,
			GrainAmount = 30,
			GrainFrequency = 50,
			GrainSize = 25,
			GreenHue = 5,
			GreenSaturation = 0,
			Highlights2012 = -20,
			HueAdjustmentAqua = 0,
			HueAdjustmentBlue = -12,
			HueAdjustmentGreen = 12,
			HueAdjustmentMagenta = 30,
			HueAdjustmentOrange = 6,
			HueAdjustmentPurple = 5,
			HueAdjustmentRed = 15,
			HueAdjustmentYellow = 8,
			LuminanceAdjustmentAqua = 0,
			LuminanceAdjustmentBlue = 12,
			LuminanceAdjustmentGreen = -20,
			LuminanceAdjustmentMagenta = 0,
			LuminanceAdjustmentOrange = -5,
			LuminanceAdjustmentPurple = 10,
			LuminanceAdjustmentRed = -25,
			LuminanceAdjustmentYellow = 0,
			ParametricDarks = 0,
			ParametricHighlightSplit = 75,
			ParametricHighlights = 0,
			ParametricLights = 0,
			ParametricMidtoneSplit = 60,
			ParametricShadowSplit = 14,
			ParametricShadows = 0,
			ProcessVersion = "6.7",
			RedHue = 8,
			RedSaturation = 0,
			Saturation = 0,
			SaturationAdjustmentAqua = -50,
			SaturationAdjustmentBlue = -35,
			SaturationAdjustmentGreen = -30,
			SaturationAdjustmentMagenta = -45,
			SaturationAdjustmentOrange = -4,
			SaturationAdjustmentPurple = -50,
			SaturationAdjustmentRed = -20,
			SaturationAdjustmentYellow = -40,
			ShadowTint = 0,
			Shadows2012 = 25,
			SharpenDetail = 25,
			SharpenEdgeMasking = 0,
			SharpenRadius = 1,
			Sharpness = 25,
			SplitToningBalance = 0,
			SplitToningHighlightHue = 0,
			SplitToningHighlightSaturation = 0,
			SplitToningShadowHue = 0,
			SplitToningShadowSaturation = 0,
			ToneCurveName2012 = "Custom",
			ToneCurvePV2012 = {
				0,
				17,
				111,
				114,
				255,
				249,
			},
			ToneCurvePV2012Blue = {
				0,
				0,
				31,
				21,
				75,
				63,
				123,
				121,
				180,
				190,
				214,
				224,
				255,
				255,
			},
			ToneCurvePV2012Green = {
				0,
				0,
				34,
				20,
				83,
				69,
				120,
				117,
				182,
				194,
				255,
				255,
			},
			ToneCurvePV2012Red = {
				0,
				0,
				36,
				17,
				79,
				61,
				123,
				121,
				176,
				191,
				207,
				222,
				237,
				243,
				255,
				255,
			},
			Vibrance = 0,
			Whites2012 = -15,
		},
		uuid = "3770E586-8939-4CB0-9FF5-6113766607A9",
	},
	version = 0,
}
