Develop Presets/VSCO Film 02 LR4 Fuji/F - Fuji Superia 100 ++.lrtemplate
s = {
	id = "03C2F510-C822-4940-AE35-033746191E41",
	internalName = "F - Fuji Superia 100 ++",
	title = "F - Fuji Superia 100 ++",
	type = "Develop",
	value = {
		settings = {
			Blacks2012 = 25,
			BlueHue = 5,
			BlueSaturation = -10,
			CameraProfile = "Fuji Superia 100 F",
			Clarity2012 = 0,
			Contrast2012 = 0,
			ConvertToGrayscale = false,
			EnableCalibration = true,
			EnableColorAdjustments = true,
			EnableDetail = true,
			EnableEffects = true,
			EnableSplitToning = true,
			GrainAmount = 15,
			GrainFrequency = 30,
			GrainSize = 25,
			GreenHue = 0,
			GreenSaturation = 0,
			Highlights2012 = -15,
			HueAdjustmentAqua = 0,
			HueAdjustmentBlue = 0,
			HueAdjustmentGreen = 30,
			HueAdjustmentMagenta = 20,
			HueAdjustmentOrange = 10,
			HueAdjustmentPurple = 0,
			HueAdjustmentRed = 10,
			HueAdjustmentYellow = 8,
			LuminanceAdjustmentAqua = 20,
			LuminanceAdjustmentBlue = 20,
			LuminanceAdjustmentGreen = 30,
			LuminanceAdjustmentMagenta = -5,
			LuminanceAdjustmentOrange = 2,
			LuminanceAdjustmentPurple = 10,
			LuminanceAdjustmentRed = -20,
			LuminanceAdjustmentYellow = -5,
			ParametricDarks = 0,
			ParametricHighlightSplit = 75,
			ParametricHighlights = 0,
			ParametricLights = 0,
			ParametricMidtoneSplit = 50,
			ParametricShadowSplit = 25,
			ParametricShadows = 0,
			ProcessVersion = "6.7",
			RedHue = 10,
			RedSaturation = -10,
			Saturation = 0,
			SaturationAdjustmentAqua = -30,
			SaturationAdjustmentBlue = -10,
			SaturationAdjustmentGreen = -30,
			SaturationAdjustmentMagenta = -20,
			SaturationAdjustmentOrange = 0,
			SaturationAdjustmentPurple = -15,
			SaturationAdjustmentRed = -15,
			SaturationAdjustmentYellow = -10,
			ShadowTint = 0,
			Shadows2012 = 20,
			SharpenDetail = 25,
			SharpenEdgeMasking = 0,
			SharpenRadius = 1,
			Sharpness = 25,
			SplitToningBalance = 0,
			SplitToningHighlightHue = 0,
			SplitToningHighlightSaturation = 0,
			SplitToningShadowHue = 0,
			SplitToningShadowSaturation = 0,
			ToneCurveName2012 = "Custom",
			ToneCurvePV2012 = {
				0,
				24,
				47,
				53,
				124,
				126,
				184,
				189,
				255,
				255,
			},
			ToneCurvePV2012Blue = {
				0,
				2,
				38,
				35,
				123,
				129,
				191,
				193,
				255,
				255,
			},
			ToneCurvePV2012Green = {
				0,
				5,
				26,
				23,
				60,
				56,
				132,
				132,
				188,
				186,
				255,
				255,
			},
			ToneCurvePV2012Red = {
				0,
				0,
				26,
				19,
				66,
				58,
				121,
				121,
				181,
				183,
				255,
				255,
			},
			Vibrance = 0,
			Whites2012 = -10,
		},
		uuid = "C58764BD-47B2-415F-BB93-FAA6AAE1159E",
	},
	version = 0,
}
