Develop Presets/VSCO Film 02 LR4 Fuji/F - Fuji Superia 100 --2.lrtemplate
s = {
	id = "4C862C4D-19E7-491C-8DB1-724247D8A592",
	internalName = "F - Fuji Superia 100 -",
	title = "F - Fuji Superia 100 -",
	type = "Develop",
	value = {
		settings = {
			Blacks2012 = 25,
			BlueHue = 0,
			BlueSaturation = -10,
			CameraProfile = "Fuji Superia 100 F",
			Clarity2012 = 0,
			Contrast2012 = 0,
			ConvertToGrayscale = false,
			EnableCalibration = true,
			EnableColorAdjustments = true,
			EnableDetail = true,
			EnableEffects = true,
			EnableSplitToning = true,
			GrainAmount = 0,
			GrainFrequency = 30,
			GrainSize = 25,
			GreenHue = 0,
			GreenSaturation = 0,
			Highlights2012 = -15,
			HueAdjustmentAqua = 0,
			HueAdjustmentBlue = 0,
			HueAdjustmentGreen = 30,
			HueAdjustmentMagenta = 20,
			HueAdjustmentOrange = 10,
			HueAdjustmentPurple = 0,
			HueAdjustmentRed = 10,
			HueAdjustmentYellow = 8,
			LuminanceAdjustmentAqua = 20,
			LuminanceAdjustmentBlue = 20,
			LuminanceAdjustmentGreen = 30,
			LuminanceAdjustmentMagenta = -5,
			LuminanceAdjustmentOrange = 2,
			LuminanceAdjustmentPurple = 10,
			LuminanceAdjustmentRed = -20,
			LuminanceAdjustmentYellow = -5,
			ParametricDarks = 0,
			ParametricHighlightSplit = 75,
			ParametricHighlights = 0,
			ParametricLights = 0,
			ParametricMidtoneSplit = 50,
			ParametricShadowSplit = 25,
			ParametricShadows = 0,
			ProcessVersion = "6.7",
			RedHue = 10,
			RedSaturation = -10,
			Saturation = -5,
			SaturationAdjustmentAqua = -30,
			SaturationAdjustmentBlue = -10,
			SaturationAdjustmentGreen = -30,
			SaturationAdjustmentMagenta = -20,
			SaturationAdjustmentOrange = 0,
			SaturationAdjustmentPurple = -15,
			SaturationAdjustmentRed = -15,
			SaturationAdjustmentYellow = -10,
			ShadowTint = 0,
			Shadows2012 = 20,
			SharpenDetail = 25,
			SharpenEdgeMasking = 0,
			SharpenRadius = 1,
			Sharpness = 25,
			SplitToningBalance = 0,
			SplitToningHighlightHue = 0,
			SplitToningHighlightSaturation = 0,
			SplitToningShadowHue = 0,
			SplitToningShadowSaturation = 0,
			ToneCurveName2012 = "Custom",
			ToneCurvePV2012 = {
				0,
				0,
				51,
				58,
				125,
				125,
				255,
				255,
			},
			ToneCurvePV2012Blue = {
				0,
				0,
				128,
				128,
				192,
				193,
				255,
				255,
			},
			ToneCurvePV2012Green = {
				0,
				0,
				61,
				61,
				132,
				132,
				197,
				199,
				255,
				255,
			},
			ToneCurvePV2012Red = {
				0,
				0,
				23,
				19,
				65,
				62,
				122,
				122,
				255,
				255,
			},
			Vibrance = 0,
			Whites2012 = -10,
		},
		uuid = "BE961B16-E059-484F-BDED-9500C758BE0E",
	},
	version = 0,
}
