Develop Presets/VSCO Film 02 LR4 Fuji/F - Kodak Portra 160 NC -.lrtemplate
s = {
	id = "29E86C13-F7E0-4B94-B9DB-85AF2A687DB8",
	internalName = "F - Kodak Portra 160 NC -",
	title = "F - Kodak Portra 160 NC -",
	type = "Develop",
	value = {
		settings = {
			Blacks2012 = 25,
			BlueHue = -10,
			BlueSaturation = -5,
			CameraProfile = "Kodak Portra 160 NC F",
			Clarity2012 = 0,
			Contrast2012 = 0,
			ConvertToGrayscale = false,
			EnableCalibration = true,
			EnableColorAdjustments = true,
			EnableDetail = true,
			EnableEffects = true,
			EnableSplitToning = true,
			GrainAmount = 15,
			GrainFrequency = 50,
			GrainSize = 30,
			GreenHue = 0,
			GreenSaturation = 0,
			Highlights2012 = -15,
			HueAdjustmentAqua = 0,
			HueAdjustmentBlue = -10,
			HueAdjustmentGreen = 5,
			HueAdjustmentMagenta = 30,
			HueAdjustmentOrange = 6,
			HueAdjustmentPurple = -5,
			HueAdjustmentRed = 20,
			HueAdjustmentYellow = 20,
			LuminanceAdjustmentAqua = 5,
			LuminanceAdjustmentBlue = -5,
			LuminanceAdjustmentGreen = 0,
			LuminanceAdjustmentMagenta = 5,
			LuminanceAdjustmentOrange = 0,
			LuminanceAdjustmentPurple = 10,
			LuminanceAdjustmentRed = -20,
			LuminanceAdjustmentYellow = 0,
			ParametricDarks = 0,
			ParametricHighlightSplit = 75,
			ParametricHighlights = 0,
			ParametricLights = 0,
			ParametricMidtoneSplit = 60,
			ParametricShadowSplit = 14,
			ParametricShadows = 0,
			ProcessVersion = "6.7",
			RedHue = 5,
			RedSaturation = 0,
			Saturation = -5,
			SaturationAdjustmentAqua = -45,
			SaturationAdjustmentBlue = -40,
			SaturationAdjustmentGreen = -50,
			SaturationAdjustmentMagenta = -35,
			SaturationAdjustmentOrange = -5,
			SaturationAdjustmentPurple = -45,
			SaturationAdjustmentRed = -25,
			SaturationAdjustmentYellow = -30,
			ShadowTint = 0,
			Shadows2012 = 25,
			SharpenDetail = 25,
			SharpenEdgeMasking = 0,
			SharpenRadius = 1,
			Sharpness = 25,
			SplitToningBalance = 0,
			SplitToningHighlightHue = 0,
			SplitToningHighlightSaturation = 0,
			SplitToningShadowHue = 0,
			SplitToningShadowSaturation = 0,
			ToneCurveName2012 = "Custom",
			ToneCurvePV2012 = {
				0,
				0,
				40,
				52,
				110,
				116,
				255,
				255,
			},
			ToneCurvePV2012Blue = {
				0,
				0,
				37,
				23,
				120,
				123,
				181,
				193,
				255,
				255,
			},
			ToneCurvePV2012Green = {
				0,
				0,
				38,
				23,
				120,
				123,
				184,
				195,
				255,
				255,
			},
			ToneCurvePV2012Red = {
				0,
				0,
				41,
				23,
				119,
				123,
				184,
				196,
				255,
				255,
			},
			Vibrance = 0,
			Whites2012 = -15,
		},
		uuid = "C53137C1-4A9D-4DD8-B00A-A37530EBF0B8",
	},
	version = 0,
}
