Develop Presets/VSCO Film 02 LR4 Fuji/F - Kodak Portra 400 UC -.lrtemplate
s = {
	id = "3891F34C-41AC-4FF8-A2E6-364EF441251A",
	internalName = "F - Kodak Portra 400 UC -",
	title = "F - Kodak Portra 400 UC -",
	type = "Develop",
	value = {
		settings = {
			Blacks2012 = 25,
			BlueHue = -12,
			BlueSaturation = 0,
			CameraProfile = "Kodak Portra 400 UC F",
			Clarity2012 = 0,
			Contrast2012 = 0,
			ConvertToGrayscale = false,
			EnableCalibration = true,
			EnableColorAdjustments = true,
			EnableDetail = true,
			EnableEffects = true,
			EnableSplitToning = true,
			GrainAmount = 15,
			GrainFrequency = 50,
			GrainSize = 25,
			GreenHue = 5,
			GreenSaturation = 0,
			Highlights2012 = -20,
			HueAdjustmentAqua = 0,
			HueAdjustmentBlue = -12,
			HueAdjustmentGreen = 15,
			HueAdjustmentMagenta = 30,
			HueAdjustmentOrange = 6,
			HueAdjustmentPurple = 5,
			HueAdjustmentRed = 15,
			HueAdjustmentYellow = 10,
			LuminanceAdjustmentAqua = -10,
			LuminanceAdjustmentBlue = -15,
			LuminanceAdjustmentGreen = -10,
			LuminanceAdjustmentMagenta = 0,
			LuminanceAdjustmentOrange = -5,
			LuminanceAdjustmentPurple = 0,
			LuminanceAdjustmentRed = -15,
			LuminanceAdjustmentYellow = 0,
			ParametricDarks = 0,
			ParametricHighlightSplit = 75,
			ParametricHighlights = 0,
			ParametricLights = 0,
			ParametricMidtoneSplit = 60,
			ParametricShadowSplit = 14,
			ParametricShadows = 0,
			ProcessVersion = "6.7",
			RedHue = 5,
			RedSaturation = 0,
			Saturation = 0,
			SaturationAdjustmentAqua = -50,
			SaturationAdjustmentBlue = -30,
			SaturationAdjustmentGreen = -30,
			SaturationAdjustmentMagenta = -45,
			SaturationAdjustmentOrange = -2,
			SaturationAdjustmentPurple = -50,
			SaturationAdjustmentRed = -20,
			SaturationAdjustmentYellow = -20,
			ShadowTint = 0,
			Shadows2012 = 25,
			SharpenDetail = 25,
			SharpenEdgeMasking = 0,
			SharpenRadius = 1,
			Sharpness = 25,
			SplitToningBalance = 0,
			SplitToningHighlightHue = 0,
			SplitToningHighlightSaturation = 0,
			SplitToningShadowHue = 0,
			SplitToningShadowSaturation = 0,
			ToneCurveName2012 = "Custom",
			ToneCurvePV2012 = {
				0,
				0,
				29,
				40,
				109,
				117,
				255,
				255,
			},
			ToneCurvePV2012Blue = {
				0,
				0,
				35,
				21,
				82,
				72,
				122,
				123,
				180,
				195,
				221,
				233,
				255,
				255,
			},
			ToneCurvePV2012Green = {
				0,
				0,
				35,
				20,
				81,
				67,
				118,
				120,
				180,
				197,
				220,
				233,
				255,
				255,
			},
			ToneCurvePV2012Red = {
				0,
				0,
				38,
				19,
				91,
				81,
				120,
				123,
				177,
				197,
				226,
				236,
				255,
				255,
			},
			Vibrance = 0,
			Whites2012 = -15,
		},
		uuid = "0B64095D-176E-49D9-9CC3-BAF9049BC4A6",
	},
	version = 0,
}
