Develop Presets/Archipelago - Lukas Korynta/LKO 06.lrtemplate
s = {
	id = "1E0CE65F-25CA-4B36-9FE2-441FC9D53DDC",
	internalName = "LKO 06",
	title = "LKO 06",
	type = "Develop",
	value = {
		settings = {
			Blacks2012 = -50,
			BlueHue = 0,
			BlueSaturation = 0,
			CameraProfile = "Adobe Standard",
			Clarity2012 = 10,
			Contrast2012 = 25,
			ConvertToGrayscale = true,
			Dehaze = 0,
			EnableCalibration = true,
			EnableEffects = true,
			EnableGrayscaleMix = true,
			EnableSplitToning = true,
			GrainAmount = 25,
			GrainFrequency = 60,
			GrainSize = 60,
			GrayMixerAqua = -10,
			GrayMixerBlue = 0,
			GrayMixerGreen = -25,
			GrayMixerMagenta = 0,
			GrayMixerOrange = 10,
			GrayMixerPurple = 0,
			GrayMixerRed = 5,
			GrayMixerYellow = 10,
			GreenHue = 0,
			GreenSaturation = 0,
			Highlights2012 = -5,
			ParametricDarks = 0,
			ParametricHighlightSplit = 75,
			ParametricHighlights = 0,
			ParametricLights = 0,
			ParametricMidtoneSplit = 50,
			ParametricShadowSplit = 25,
			ParametricShadows = 0,
			PostCropVignetteAmount = 0,
			PostCropVignetteFeather = 50,
			PostCropVignetteHighlightContrast = 0,
			PostCropVignetteMidpoint = 50,
			PostCropVignetteRoundness = 0,
			PostCropVignetteStyle = 1,
			ProcessVersion = "6.7",
			RedHue = 0,
			RedSaturation = 0,
			ShadowTint = 0,
			Shadows2012 = 30,
			SplitToningBalance = 0,
			SplitToningHighlightHue = 0,
			SplitToningHighlightSaturation = 0,
			SplitToningShadowHue = 0,
			SplitToningShadowSaturation = 0,
			ToneCurveName2012 = "Custom",
			ToneCurvePV2012 = {
				0,
				11,
				48,
				28,
				87,
				70,
				181,
				163,
				255,
				222,
			},
			ToneCurvePV2012Blue = {
				0,
				0,
				255,
				255,
			},
			ToneCurvePV2012Green = {
				0,
				0,
				255,
				255,
			},
			ToneCurvePV2012Red = {
				0,
				0,
				255,
				255,
			},
			Whites2012 = 60,
		},
		uuid = "14AC1C59-FE8E-4A2B-9A48-181A48C65A7A",
	},
	version = 0,
}
