Develop Presets/Archipelago - Lukas Korynta/~LKO 03 v3.lrtemplate
s = {
	id = "41EB18D3-6B35-48DA-80C0-30F73E269233",
	internalName = "LKO 03 v3",
	title = "LKO 03 v3",
	type = "Develop",
	value = {
		settings = {
			AutoLateralCA = 0,
			Blacks2012 = 40,
			BlueHue = -15,
			BlueSaturation = -20,
			CameraProfile = "Adobe Standard",
			ChromaticAberrationB = 0,
			ChromaticAberrationR = 0,
			Clarity2012 = 0,
			ColorNoiseReduction = 25,
			ColorNoiseReductionDetail = 50,
			ColorNoiseReductionSmoothness = 50,
			Contrast2012 = -40,
			ConvertToGrayscale = false,
			CropConstrainToWarp = 0,
			Defringe = 0,
			DefringeGreenAmount = 0,
			DefringeGreenHueHi = 60,
			DefringeGreenHueLo = 40,
			DefringePurpleAmount = 0,
			DefringePurpleHueHi = 70,
			DefringePurpleHueLo = 30,
			Dehaze = 0,
			EnableCalibration = true,
			EnableColorAdjustments = true,
			EnableDetail = true,
			EnableEffects = true,
			EnableLensCorrections = true,
			EnableSplitToning = true,
			EnableTransform = true,
			GrainAmount = 20,
			GrainFrequency = 55,
			GrainSize = 55,
			GreenHue = 50,
			GreenSaturation = 0,
			Highlights2012 = -30,
			HueAdjustmentAqua = 0,
			HueAdjustmentBlue = 10,
			HueAdjustmentGreen = 20,
			HueAdjustmentMagenta = 20,
			HueAdjustmentOrange = 5,
			HueAdjustmentPurple = 20,
			HueAdjustmentRed = 10,
			HueAdjustmentYellow = -6,
			LensManualDistortionAmount = 0,
			LensProfileEnable = 0,
			LensProfileSetup = "LensDefaults",
			LuminanceAdjustmentAqua = 0,
			LuminanceAdjustmentBlue = -30,
			LuminanceAdjustmentGreen = -60,
			LuminanceAdjustmentMagenta = 0,
			LuminanceAdjustmentOrange = 5,
			LuminanceAdjustmentPurple = 0,
			LuminanceAdjustmentRed = 15,
			LuminanceAdjustmentYellow = 30,
			LuminanceNoiseReductionContrast = 0,
			LuminanceNoiseReductionDetail = 50,
			LuminanceSmoothing = 0,
			ParametricDarks = 0,
			ParametricHighlightSplit = 75,
			ParametricHighlights = 0,
			ParametricLights = 0,
			ParametricMidtoneSplit = 60,
			ParametricShadowSplit = 14,
			ParametricShadows = 0,
			PerspectiveAspect = 0,
			PerspectiveHorizontal = 0,
			PerspectiveRotate = 0,
			PerspectiveScale = 100,
			PerspectiveUpright = 0,
			PerspectiveVertical = 0,
			PerspectiveX = 0,
			PerspectiveY = 0,
			PostCropVignetteAmount = 0,
			PostCropVignetteFeather = 50,
			PostCropVignetteHighlightContrast = 0,
			PostCropVignetteMidpoint = 50,
			PostCropVignetteRoundness = 0,
			PostCropVignetteStyle = 1,
			ProcessVersion = "6.7",
			RedHue = 40,
			RedSaturation = 0,
			Saturation = -5,
			SaturationAdjustmentAqua = 0,
			SaturationAdjustmentBlue = -30,
			SaturationAdjustmentGreen = -70,
			SaturationAdjustmentMagenta = -35,
			SaturationAdjustmentOrange = -7,
			SaturationAdjustmentPurple = -35,
			SaturationAdjustmentRed = -15,
			SaturationAdjustmentYellow = -60,
			ShadowTint = 10,
			Shadows2012 = -5,
			SharpenDetail = 25,
			SharpenEdgeMasking = 0,
			SharpenRadius = 1,
			Sharpness = 0,
			SplitToningBalance = -50,
			SplitToningHighlightHue = 60,
			SplitToningHighlightSaturation = 8,
			SplitToningShadowHue = 0,
			SplitToningShadowSaturation = 0,
			ToneCurveName2012 = "Custom",
			ToneCurvePV2012 = {
				0,
				20,
				44,
				41,
				158,
				163,
				192,
				195,
				255,
				218,
			},
			ToneCurvePV2012Blue = {
				0,
				0,
				46,
				19,
				105,
				105,
				140,
				155,
				160,
				178,
				201,
				216,
				255,
				248,
			},
			ToneCurvePV2012Green = {
				0,
				0,
				46,
				19,
				105,
				108,
				146,
				164,
				165,
				184,
				202,
				216,
				255,
				248,
			},
			ToneCurvePV2012Red = {
				0,
				0,
				46,
				15,
				106,
				108,
				142,
				158,
				163,
				181,
				199,
				215,
				255,
				248,
			},
			UprightCenterMode = 0,
			UprightCenterNormX = 0.5,
			UprightCenterNormY = 0.5,
			UprightFocalLength35mm = 35,
			UprightFocalMode = 0,
			UprightFourSegmentsCount = 0,
			UprightPreview = false,
			UprightTransformCount = 6,
			UprightVersion = 151388160,
			Vibrance = -5,
			VignetteAmount = 0,
			VignetteMidpoint = 50,
			Whites2012 = -20,
			orientation = "AB",
		},
		uuid = "0177DCB5-3769-4B99-BFF8-8401983ABC7E",
	},
	version = 0,
}
