Develop Presets/VSCO Film 06 Cross Process - Standard/Precisa 100 XP Green.lrtemplate
s = {
	id = "34F72D82-FF55-4ED2-8EAD-FF622D3DDD96",
	internalName = "S - Precisa 100 XP Green",
	title = "S - Precisa 100 XP Green",
	type = "Develop",
	value = {
		settings = {
			Blacks2012 = 10,
			BlueHue = 0,
			BlueSaturation = -35,
			CameraProfile = "Adobe Standard",
			Clarity2012 = 0,
			Contrast2012 = 0,
			ConvertToGrayscale = false,
			EnableCalibration = true,
			EnableColorAdjustments = true,
			EnableDetail = true,
			EnableEffects = true,
			EnableSplitToning = true,
			GrainAmount = 30,
			GrainFrequency = 80,
			GrainSize = 25,
			GreenHue = 80,
			GreenSaturation = -35,
			Highlights2012 = -30,
			HueAdjustmentAqua = 0,
			HueAdjustmentBlue = -5,
			HueAdjustmentGreen = 20,
			HueAdjustmentMagenta = -10,
			HueAdjustmentOrange = 12,
			HueAdjustmentPurple = 0,
			HueAdjustmentRed = 10,
			HueAdjustmentYellow = 15,
			LuminanceAdjustmentAqua = -10,
			LuminanceAdjustmentBlue = -20,
			LuminanceAdjustmentGreen = 0,
			LuminanceAdjustmentMagenta = 10,
			LuminanceAdjustmentOrange = 5,
			LuminanceAdjustmentPurple = 5,
			LuminanceAdjustmentRed = -30,
			LuminanceAdjustmentYellow = 0,
			ParametricDarks = 0,
			ParametricHighlightSplit = 75,
			ParametricHighlights = 0,
			ParametricLights = 0,
			ParametricMidtoneSplit = 58,
			ParametricShadowSplit = 33,
			ParametricShadows = -20,
			ProcessVersion = "6.7",
			RedHue = 35,
			RedSaturation = 25,
			Saturation = 0,
			SaturationAdjustmentAqua = 0,
			SaturationAdjustmentBlue = -5,
			SaturationAdjustmentGreen = -35,
			SaturationAdjustmentMagenta = -25,
			SaturationAdjustmentOrange = -5,
			SaturationAdjustmentPurple = -10,
			SaturationAdjustmentRed = -30,
			SaturationAdjustmentYellow = -15,
			ShadowTint = 0,
			Shadows2012 = 10,
			SharpenDetail = 25,
			SharpenEdgeMasking = 0,
			SharpenRadius = 1,
			Sharpness = 0,
			SplitToningBalance = 0,
			SplitToningHighlightHue = 0,
			SplitToningHighlightSaturation = 0,
			SplitToningShadowHue = 0,
			SplitToningShadowSaturation = 0,
			ToneCurveName2012 = "Precisa 100 XP Green",
			ToneCurvePV2012 = {
				0,
				30,
				129,
				141,
				255,
				255,
			},
			ToneCurvePV2012Blue = {
				0,
				0,
				31,
				7,
				73,
				46,
				147,
				164,
				210,
				239,
				255,
				251,
			},
			ToneCurvePV2012Green = {
				0,
				0,
				35,
				2,
				85,
				43,
				117,
				117,
				159,
				200,
				202,
				243,
				255,
				253,
			},
			ToneCurvePV2012Red = {
				0,
				0,
				31,
				4,
				82,
				40,
				149,
				172,
				209,
				243,
				255,
				255,
			},
			Vibrance = 0,
			Whites2012 = -20,
		},
		uuid = "1CA38CB7-D533-49F2-9A9C-848C97474A75",
	},
	version = 0,
}
