Develop Presets/VSCO Film 06 Cross Process - Standard/Provia 400X XP.lrtemplate
s = {
	id = "2D7EBBB9-D1A1-4347-8958-6CA06F6F5814",
	internalName = "S - Provia 400X XP",
	title = "S - Provia 400X XP",
	type = "Develop",
	value = {
		settings = {
			Blacks2012 = 20,
			BlueHue = -5,
			BlueSaturation = -10,
			CameraProfile = "Adobe Standard",
			Clarity2012 = 0,
			Contrast2012 = 0,
			ConvertToGrayscale = false,
			EnableCalibration = true,
			EnableColorAdjustments = true,
			EnableDetail = true,
			EnableEffects = true,
			EnableSplitToning = true,
			GrainAmount = 20,
			GrainFrequency = 70,
			GrainSize = 30,
			GreenHue = 100,
			GreenSaturation = -5,
			Highlights2012 = -15,
			HueAdjustmentAqua = 5,
			HueAdjustmentBlue = -5,
			HueAdjustmentGreen = 20,
			HueAdjustmentMagenta = 20,
			HueAdjustmentOrange = 10,
			HueAdjustmentPurple = 25,
			HueAdjustmentRed = -15,
			HueAdjustmentYellow = 20,
			LuminanceAdjustmentAqua = -15,
			LuminanceAdjustmentBlue = -25,
			LuminanceAdjustmentGreen = -10,
			LuminanceAdjustmentMagenta = 0,
			LuminanceAdjustmentOrange = 5,
			LuminanceAdjustmentPurple = 0,
			LuminanceAdjustmentRed = -15,
			LuminanceAdjustmentYellow = 0,
			ParametricDarks = -8,
			ParametricHighlightSplit = 78,
			ParametricHighlights = 0,
			ParametricLights = 8,
			ParametricMidtoneSplit = 40,
			ParametricShadowSplit = 18,
			ParametricShadows = -10,
			ProcessVersion = "6.7",
			RedHue = 45,
			RedSaturation = -10,
			Saturation = 0,
			SaturationAdjustmentAqua = -35,
			SaturationAdjustmentBlue = -20,
			SaturationAdjustmentGreen = -10,
			SaturationAdjustmentMagenta = -15,
			SaturationAdjustmentOrange = -5,
			SaturationAdjustmentPurple = 0,
			SaturationAdjustmentRed = -15,
			SaturationAdjustmentYellow = -10,
			ShadowTint = 0,
			Shadows2012 = 15,
			SharpenDetail = 25,
			SharpenEdgeMasking = 0,
			SharpenRadius = 1,
			Sharpness = 25,
			SplitToningBalance = 70,
			SplitToningHighlightHue = 65,
			SplitToningHighlightSaturation = 5,
			SplitToningShadowHue = 215,
			SplitToningShadowSaturation = 20,
			ToneCurveName2012 = "Provia 400X XP",
			ToneCurvePV2012 = {
				0,
				13,
				56,
				61,
				106,
				109,
				182,
				184,
				255,
				255,
			},
			ToneCurvePV2012Blue = {
				0,
				0,
				22,
				6,
				66,
				43,
				118,
				127,
				181,
				199,
				255,
				255,
			},
			ToneCurvePV2012Green = {
				0,
				0,
				22,
				6,
				65,
				43,
				116,
				128,
				181,
				199,
				255,
				255,
			},
			ToneCurvePV2012Red = {
				0,
				0,
				22,
				5,
				66,
				42,
				116,
				128,
				181,
				201,
				255,
				255,
			},
			Vibrance = 0,
			Whites2012 = -10,
		},
		uuid = "09AAB7CB-0C3F-41D3-95B5-2F57A34CD363",
	},
	version = 0,
}
