Develop Presets/VSCO Film 06 Cross Process - Standard/Sensia 100 XP.lrtemplate
s = {
	id = "0B421A1B-D0E1-4888-94F0-9E21F8D65E5D",
	internalName = "S - Sensia 100 XP",
	title = "S - Sensia 100 XP",
	type = "Develop",
	value = {
		settings = {
			Blacks2012 = 15,
			BlueHue = -2,
			BlueSaturation = -30,
			CameraProfile = "Adobe Standard",
			Clarity2012 = 0,
			Contrast2012 = 0,
			ConvertToGrayscale = false,
			EnableCalibration = true,
			EnableColorAdjustments = true,
			EnableDetail = true,
			EnableEffects = true,
			EnableSplitToning = true,
			GrainAmount = 25,
			GrainFrequency = 90,
			GrainSize = 20,
			GreenHue = 65,
			GreenSaturation = -45,
			Highlights2012 = -15,
			HueAdjustmentAqua = 0,
			HueAdjustmentBlue = -5,
			HueAdjustmentGreen = -20,
			HueAdjustmentMagenta = 25,
			HueAdjustmentOrange = 10,
			HueAdjustmentPurple = 0,
			HueAdjustmentRed = 0,
			HueAdjustmentYellow = 0,
			LuminanceAdjustmentAqua = -12,
			LuminanceAdjustmentBlue = -15,
			LuminanceAdjustmentGreen = -15,
			LuminanceAdjustmentMagenta = 0,
			LuminanceAdjustmentOrange = 0,
			LuminanceAdjustmentPurple = 0,
			LuminanceAdjustmentRed = -20,
			LuminanceAdjustmentYellow = -15,
			ParametricDarks = -18,
			ParametricHighlightSplit = 68,
			ParametricHighlights = -12,
			ParametricLights = 18,
			ParametricMidtoneSplit = 44,
			ParametricShadowSplit = 25,
			ParametricShadows = -16,
			ProcessVersion = "6.7",
			RedHue = 50,
			RedSaturation = 35,
			Saturation = 0,
			SaturationAdjustmentAqua = 0,
			SaturationAdjustmentBlue = 0,
			SaturationAdjustmentGreen = -20,
			SaturationAdjustmentMagenta = 0,
			SaturationAdjustmentOrange = -5,
			SaturationAdjustmentPurple = 0,
			SaturationAdjustmentRed = -15,
			SaturationAdjustmentYellow = -10,
			ShadowTint = 0,
			Shadows2012 = 15,
			SharpenDetail = 25,
			SharpenEdgeMasking = 0,
			SharpenRadius = 1,
			Sharpness = 25,
			SplitToningBalance = 75,
			SplitToningHighlightHue = 0,
			SplitToningHighlightSaturation = 0,
			SplitToningShadowHue = 200,
			SplitToningShadowSaturation = 20,
			ToneCurveName2012 = "Sensia 100 XP",
			ToneCurvePV2012 = {
				0,
				13,
				48,
				54,
				128,
				131,
				255,
				255,
			},
			ToneCurvePV2012Blue = {
				0,
				0,
				36,
				24,
				107,
				104,
				177,
				190,
				255,
				255,
			},
			ToneCurvePV2012Green = {
				0,
				0,
				29,
				14,
				71,
				54,
				104,
				103,
				174,
				190,
				229,
				235,
				255,
				255,
			},
			ToneCurvePV2012Red = {
				0,
				0,
				31,
				6,
				71,
				46,
				108,
				109,
				165,
				185,
				255,
				255,
			},
			Vibrance = 0,
			Whites2012 = -15,
		},
		uuid = "113A46F1-A091-4425-AA42-2C26852ADFA2",
	},
	version = 0,
}
