Develop Presets/VSCO Film 06 Push & Pull - Fuji/F - HP5-1 +.lrtemplate
s = {
	id = "56B514AD-10B8-4509-92FB-56C39B8177E4",
	internalName = "F - HP5⁻¹ +",
	title = "F - HP5⁻¹ +",
	type = "Develop",
	value = {
		settings = {
			Blacks2012 = 25,
			BlueHue = 0,
			BlueSaturation = 30,
			CameraProfile = "HP5⁻¹ - F",
			Clarity2012 = 0,
			Contrast2012 = 0,
			ConvertToGrayscale = true,
			EnableCalibration = true,
			EnableDetail = true,
			EnableEffects = true,
			EnableGrayscaleMix = true,
			EnableSplitToning = true,
			GrainAmount = 20,
			GrainFrequency = 70,
			GrainSize = 15,
			GrayMixerAqua = -20,
			GrayMixerBlue = -5,
			GrayMixerGreen = -30,
			GrayMixerMagenta = 4,
			GrayMixerOrange = 0,
			GrayMixerPurple = 0,
			GrayMixerRed = -5,
			GrayMixerYellow = -22,
			GreenHue = 0,
			GreenSaturation = -50,
			Highlights2012 = -35,
			ParametricDarks = 0,
			ParametricHighlightSplit = 75,
			ParametricHighlights = 0,
			ParametricLights = 0,
			ParametricMidtoneSplit = 60,
			ParametricShadowSplit = 14,
			ParametricShadows = 0,
			ProcessVersion = "6.7",
			RedHue = 0,
			RedSaturation = 20,
			ShadowTint = 0,
			Shadows2012 = 20,
			SharpenDetail = 25,
			SharpenEdgeMasking = 0,
			SharpenRadius = 1,
			Sharpness = 0,
			SplitToningBalance = 0,
			SplitToningHighlightHue = 0,
			SplitToningHighlightSaturation = 0,
			SplitToningShadowHue = 0,
			SplitToningShadowSaturation = 0,
			ToneCurveName2012 = "HP5-1 +",
			ToneCurvePV2012 = {
				0,
				13,
				56,
				46,
				126,
				122,
				180,
				191,
				255,
				255,
			},
			ToneCurvePV2012Blue = {
				0,
				0,
				255,
				255,
			},
			ToneCurvePV2012Green = {
				0,
				0,
				255,
				255,
			},
			ToneCurvePV2012Red = {
				0,
				0,
				255,
				255,
			},
			Whites2012 = -10,
		},
		uuid = "6AAF9A8C-A852-4B1D-8294-5EFC389BE4B4",
	},
	version = 0,
}
