Develop Presets/VSCO Film 06 Push & Pull - Fuji/F - Portra 160+1 Over.lrtemplate
s = {
	id = "EB923C2D-F734-461C-810E-138E349097E0",
	internalName = "F - Portra 160⁺¹ Over",
	title = "F - Portra 160⁺¹ Over",
	type = "Develop",
	value = {
		settings = {
			Blacks2012 = 15,
			BlueHue = -12,
			BlueSaturation = -12,
			CameraProfile = "Portra 160⁺¹ - F",
			Clarity2012 = 0,
			Contrast2012 = 0,
			ConvertToGrayscale = false,
			EnableCalibration = true,
			EnableColorAdjustments = true,
			EnableDetail = true,
			EnableEffects = true,
			EnableSplitToning = true,
			GrainAmount = 20,
			GrainFrequency = 50,
			GrainSize = 20,
			GreenHue = 50,
			GreenSaturation = -8,
			Highlights2012 = -25,
			HueAdjustmentAqua = 5,
			HueAdjustmentBlue = -4,
			HueAdjustmentGreen = 15,
			HueAdjustmentMagenta = 25,
			HueAdjustmentOrange = 12,
			HueAdjustmentPurple = 10,
			HueAdjustmentRed = 8,
			HueAdjustmentYellow = 10,
			LuminanceAdjustmentAqua = 0,
			LuminanceAdjustmentBlue = -10,
			LuminanceAdjustmentGreen = 0,
			LuminanceAdjustmentMagenta = 0,
			LuminanceAdjustmentOrange = 0,
			LuminanceAdjustmentPurple = 0,
			LuminanceAdjustmentRed = -20,
			LuminanceAdjustmentYellow = 0,
			ParametricDarks = 0,
			ParametricHighlightSplit = 75,
			ParametricHighlights = 0,
			ParametricLights = 0,
			ParametricMidtoneSplit = 60,
			ParametricShadowSplit = 14,
			ParametricShadows = 0,
			ProcessVersion = "6.7",
			RedHue = 30,
			RedSaturation = -8,
			Saturation = 0,
			SaturationAdjustmentAqua = -10,
			SaturationAdjustmentBlue = -10,
			SaturationAdjustmentGreen = -20,
			SaturationAdjustmentMagenta = -20,
			SaturationAdjustmentOrange = -5,
			SaturationAdjustmentPurple = 0,
			SaturationAdjustmentRed = -20,
			SaturationAdjustmentYellow = -5,
			ShadowTint = 0,
			Shadows2012 = 25,
			SharpenDetail = 25,
			SharpenEdgeMasking = 0,
			SharpenRadius = 1,
			Sharpness = 0,
			SplitToningBalance = 0,
			SplitToningHighlightHue = 0,
			SplitToningHighlightSaturation = 0,
			SplitToningShadowHue = 0,
			SplitToningShadowSaturation = 0,
			ToneCurveName2012 = "Portra 160+1 Over",
			ToneCurvePV2012 = {
				0,
				7,
				92,
				96,
				165,
				171,
				255,
				248,
			},
			ToneCurvePV2012Blue = {
				0,
				0,
				45,
				17,
				80,
				63,
				117,
				122,
				179,
				200,
				217,
				228,
				255,
				251,
			},
			ToneCurvePV2012Green = {
				0,
				0,
				45,
				22,
				117,
				122,
				179,
				200,
				222,
				230,
				255,
				251,
			},
			ToneCurvePV2012Red = {
				0,
				0,
				47,
				19,
				80,
				62,
				117,
				122,
				179,
				200,
				255,
				255,
			},
			Vibrance = 0,
			Whites2012 = -25,
		},
		uuid = "43B1F42A-6B95-454A-8F3C-F3F30B41E97D",
	},
	version = 0,
}
