Develop Presets/VSCO Film 06 Push & Pull - Fuji/F - HP5+2 ++.lrtemplate
s = {
	id = "A371358D-9024-454A-BDC6-017CCD5ECA67",
	internalName = "F - HP5⁺² ++",
	title = "F - HP5⁺² ++",
	type = "Develop",
	value = {
		settings = {
			Blacks2012 = 15,
			BlueHue = 0,
			BlueSaturation = 5,
			CameraProfile = "HP5⁺¹ - F",
			Clarity2012 = 0,
			Contrast2012 = 0,
			ConvertToGrayscale = true,
			EnableCalibration = true,
			EnableDetail = true,
			EnableEffects = true,
			EnableGrayscaleMix = true,
			EnableSplitToning = true,
			GrainAmount = 25,
			GrainFrequency = 95,
			GrainSize = 15,
			GrayMixerAqua = -15,
			GrayMixerBlue = 0,
			GrayMixerGreen = -20,
			GrayMixerMagenta = 8,
			GrayMixerOrange = 0,
			GrayMixerPurple = 0,
			GrayMixerRed = -5,
			GrayMixerYellow = -15,
			GreenHue = 0,
			GreenSaturation = -50,
			Highlights2012 = -20,
			ParametricDarks = 0,
			ParametricHighlightSplit = 75,
			ParametricHighlights = 0,
			ParametricLights = 0,
			ParametricMidtoneSplit = 60,
			ParametricShadowSplit = 14,
			ParametricShadows = 0,
			ProcessVersion = "6.7",
			RedHue = 0,
			RedSaturation = 0,
			ShadowTint = 0,
			Shadows2012 = 10,
			SharpenDetail = 25,
			SharpenEdgeMasking = 0,
			SharpenRadius = 1,
			Sharpness = 0,
			SplitToningBalance = 0,
			SplitToningHighlightHue = 0,
			SplitToningHighlightSaturation = 0,
			SplitToningShadowHue = 0,
			SplitToningShadowSaturation = 0,
			ToneCurveName2012 = "HP5+2 ++",
			ToneCurvePV2012 = {
				0,
				38,
				60,
				73,
				121,
				127,
				179,
				185,
				255,
				251,
			},
			ToneCurvePV2012Blue = {
				0,
				0,
				255,
				255,
			},
			ToneCurvePV2012Green = {
				0,
				0,
				255,
				255,
			},
			ToneCurvePV2012Red = {
				0,
				0,
				255,
				255,
			},
			Whites2012 = -10,
		},
		uuid = "B82EFABF-ECCC-466F-8F8D-B70FA7FE23AB",
	},
	version = 0,
}
