Develop Presets/VSCO Film 06 Push & Pull - Fuji/F - 400H+1 -.lrtemplate
s = {
	id = "4F0C2F0D-67FD-49CC-8A7D-57296652B9B5",
	internalName = "F - 400H⁺¹ -",
	title = "F - 400H⁺¹ -",
	type = "Develop",
	value = {
		settings = {
			Blacks2012 = 15,
			BlueHue = -15,
			BlueSaturation = -10,
			CameraProfile = "400H⁺¹ - F",
			Clarity2012 = 0,
			Contrast2012 = 0,
			ConvertToGrayscale = false,
			EnableCalibration = true,
			EnableColorAdjustments = true,
			EnableDetail = true,
			EnableEffects = true,
			EnableSplitToning = true,
			GrainAmount = 10,
			GrainFrequency = 80,
			GrainSize = 30,
			GreenHue = 40,
			GreenSaturation = -25,
			Highlights2012 = -35,
			HueAdjustmentAqua = 0,
			HueAdjustmentBlue = 0,
			HueAdjustmentGreen = 20,
			HueAdjustmentMagenta = 25,
			HueAdjustmentOrange = 12,
			HueAdjustmentPurple = 4,
			HueAdjustmentRed = 0,
			HueAdjustmentYellow = 12,
			LuminanceAdjustmentAqua = 0,
			LuminanceAdjustmentBlue = -10,
			LuminanceAdjustmentGreen = 10,
			LuminanceAdjustmentMagenta = 0,
			LuminanceAdjustmentOrange = 5,
			LuminanceAdjustmentPurple = -15,
			LuminanceAdjustmentRed = 0,
			LuminanceAdjustmentYellow = 0,
			ParametricDarks = 0,
			ParametricHighlightSplit = 75,
			ParametricHighlights = 0,
			ParametricLights = 0,
			ParametricMidtoneSplit = 60,
			ParametricShadowSplit = 14,
			ParametricShadows = 0,
			ProcessVersion = "6.7",
			RedHue = 22,
			RedSaturation = 0,
			Saturation = 0,
			SaturationAdjustmentAqua = -25,
			SaturationAdjustmentBlue = -10,
			SaturationAdjustmentGreen = -25,
			SaturationAdjustmentMagenta = -20,
			SaturationAdjustmentOrange = 0,
			SaturationAdjustmentPurple = -10,
			SaturationAdjustmentRed = 0,
			SaturationAdjustmentYellow = -5,
			ShadowTint = 0,
			Shadows2012 = 20,
			SharpenDetail = 25,
			SharpenEdgeMasking = 0,
			SharpenRadius = 1,
			Sharpness = 0,
			SplitToningBalance = 0,
			SplitToningHighlightHue = 0,
			SplitToningHighlightSaturation = 0,
			SplitToningShadowHue = 0,
			SplitToningShadowSaturation = 0,
			ToneCurveName2012 = "400H+1 -",
			ToneCurvePV2012 = {
				0,
				12,
				31,
				43,
				123,
				127,
				255,
				251,
			},
			ToneCurvePV2012Blue = {
				0,
				0,
				43,
				22,
				113,
				123,
				178,
				203,
				255,
				255,
			},
			ToneCurvePV2012Green = {
				0,
				0,
				43,
				22,
				112,
				122,
				180,
				202,
				255,
				255,
			},
			ToneCurvePV2012Red = {
				0,
				0,
				44,
				22,
				113,
				123,
				178,
				203,
				255,
				255,
			},
			Vibrance = 0,
			Whites2012 = -15,
		},
		uuid = "16D0B1E4-96D8-4D2B-8061-CCDAC78A6CC0",
	},
	version = 0,
}
