Develop Presets/Kelly's Presets/Hannah + Andrew Band 2.lrtemplate
s = {
	id = "392C2F5F-9CB7-488C-88ED-1973B9101342",
	internalName = "Hannah + Andrew Band 2",
	title = "Hannah + Andrew Band 2",
	type = "Develop",
	value = {
		settings = {
			AutoLateralCA = 0,
			AutoWhiteVersion = 134348800,
			Blacks2012 = 60,
			ChromaticAberrationB = 0,
			ChromaticAberrationR = 0,
			Clarity2012 = 0,
			ColorNoiseReduction = 50,
			ColorNoiseReductionDetail = 50,
			ColorNoiseReductionSmoothness = 50,
			Contrast2012 = 28,
			ConvertToGrayscale = false,
			CropConstrainToWarp = 0,
			Defringe = 0,
			DefringeGreenAmount = 0,
			DefringeGreenHueHi = 60,
			DefringeGreenHueLo = 40,
			DefringePurpleAmount = 0,
			DefringePurpleHueHi = 70,
			DefringePurpleHueLo = 30,
			Dehaze = 0,
			EnableCircularGradientBasedCorrections = true,
			EnableColorAdjustments = true,
			EnableDetail = true,
			EnableEffects = true,
			EnableGradientBasedCorrections = true,
			EnableLensCorrections = true,
			EnableSplitToning = true,
			Exposure2012 = 0.7,
			GrainAmount = 0,
			GrainFrequency = 45,
			GrainSize = 25,
			Highlights2012 = -21,
			HueAdjustmentAqua = 5,
			HueAdjustmentBlue = -5,
			HueAdjustmentGreen = 0,
			HueAdjustmentMagenta = -15,
			HueAdjustmentOrange = 5,
			HueAdjustmentPurple = -10,
			HueAdjustmentRed = 5,
			HueAdjustmentYellow = 0,
			LensManualDistortionAmount = 0,
			LensProfileEnable = 1,
			LensProfileSetup = "LensDefaults",
			LuminanceAdjustmentAqua = -5,
			LuminanceAdjustmentBlue = -10,
			LuminanceAdjustmentGreen = 0,
			LuminanceAdjustmentMagenta = -10,
			LuminanceAdjustmentOrange = -15,
			LuminanceAdjustmentPurple = 0,
			LuminanceAdjustmentRed = -20,
			LuminanceAdjustmentYellow = -10,
			LuminanceNoiseReductionContrast = 0,
			LuminanceNoiseReductionDetail = 50,
			LuminanceSmoothing = 35,
			ParametricDarks = 0,
			ParametricHighlightSplit = 75,
			ParametricHighlights = 0,
			ParametricLights = 0,
			ParametricMidtoneSplit = 50,
			ParametricShadowSplit = 25,
			ParametricShadows = 0,
			PostCropVignetteAmount = 0,
			PostCropVignetteFeather = 50,
			PostCropVignetteHighlightContrast = 0,
			PostCropVignetteMidpoint = 50,
			PostCropVignetteRoundness = 0,
			PostCropVignetteStyle = 1,
			ProcessVersion = "6.7",
			Saturation = 0,
			SaturationAdjustmentAqua = -25,
			SaturationAdjustmentBlue = 0,
			SaturationAdjustmentGreen = -20,
			SaturationAdjustmentMagenta = -40,
			SaturationAdjustmentOrange = -26,
			SaturationAdjustmentPurple = -25,
			SaturationAdjustmentRed = -25,
			SaturationAdjustmentYellow = -10,
			Shadows2012 = 37,
			SharpenDetail = 40,
			SharpenEdgeMasking = 25,
			SharpenRadius = 1,
			Sharpness = 40,
			SplitToningBalance = 0,
			SplitToningHighlightHue = 43,
			SplitToningHighlightSaturation = 5,
			SplitToningShadowHue = 225,
			SplitToningShadowSaturation = 9,
			ToneCurveName2012 = "Provia 400X+1 Over",
			ToneCurvePV2012 = {
				0,
				22,
				38,
				51,
				112,
				121,
				255,
				255,
			},
			ToneCurvePV2012Blue = {
				0,
				0,
				65,
				35,
				126,
				121,
				169,
				178,
				255,
				230,
			},
			ToneCurvePV2012Green = {
				0,
				0,
				30,
				8,
				74,
				40,
				128,
				128,
				160,
				174,
				255,
				234,
			},
			ToneCurvePV2012Red = {
				0,
				0,
				30,
				8,
				74,
				39,
				127,
				127,
				174,
				190,
				255,
				234,
			},
			Vibrance = 0,
			VignetteAmount = 0,
			VignetteMidpoint = 50,
			WhiteBalance = "Auto",
			Whites2012 = 0,
			orientation = "AB",
		},
		uuid = "479E0026-0603-4184-8BB4-2E2298C3A33D",
	},
	version = 0,
}
