Develop Presets/Phil Chester Presets/PC-X2.lrtemplate
s = {
	id = "C6A2B955-659D-425E-9A05-23096E606116",
	internalName = "BW 03",
	title = "PC-X2",
	type = "Develop",
	value = {
		settings = {
			AutoLateralCA = 0,
			Blacks2012 = -2,
			BlueHue = 0,
			BlueSaturation = -25,
			CameraProfile = "Adobe Standard",
			ChromaticAberrationB = 0,
			ChromaticAberrationR = 0,
			Clarity2012 = 0,
			ColorNoiseReduction = 25,
			ColorNoiseReductionDetail = 50,
			ColorNoiseReductionSmoothness = 50,
			Contrast2012 = -39,
			ConvertToGrayscale = true,
			CropConstrainToWarp = 0,
			Defringe = 0,
			DefringeGreenAmount = 0,
			DefringeGreenHueHi = 60,
			DefringeGreenHueLo = 40,
			DefringePurpleAmount = 3,
			DefringePurpleHueHi = 81,
			DefringePurpleHueLo = 30,
			Dehaze = 0,
			EnableCalibration = true,
			EnableDetail = true,
			EnableEffects = true,
			EnableGrayscaleMix = true,
			EnableLensCorrections = true,
			EnableSplitToning = true,
			GrainAmount = 27,
			GrainFrequency = 75,
			GrainSize = 20,
			GrayMixerAqua = -16,
			GrayMixerBlue = 12,
			GrayMixerGreen = -19,
			GrayMixerMagenta = 10,
			GrayMixerOrange = -19,
			GrayMixerPurple = 12,
			GrayMixerRed = 0,
			GrayMixerYellow = -6,
			GreenHue = 0,
			GreenSaturation = -12,
			Highlights2012 = -25,
			LensManualDistortionAmount = 0,
			LuminanceNoiseReductionContrast = 0,
			LuminanceNoiseReductionDetail = 50,
			LuminanceSmoothing = 0,
			ParametricDarks = 0,
			ParametricHighlightSplit = 75,
			ParametricHighlights = 0,
			ParametricLights = 0,
			ParametricMidtoneSplit = 50,
			ParametricShadowSplit = 25,
			ParametricShadows = 0,
			PostCropVignetteAmount = 0,
			PostCropVignetteFeather = 50,
			PostCropVignetteHighlightContrast = 0,
			PostCropVignetteMidpoint = 50,
			PostCropVignetteRoundness = 0,
			PostCropVignetteStyle = 1,
			ProcessVersion = "6.7",
			RedHue = 19,
			RedSaturation = 17,
			ShadowTint = 0,
			Shadows2012 = 23,
			SharpenDetail = 25,
			SharpenEdgeMasking = 0,
			SharpenRadius = 1,
			Sharpness = 25,
			SplitToningBalance = 0,
			SplitToningHighlightHue = 0,
			SplitToningHighlightSaturation = 0,
			SplitToningShadowHue = 0,
			SplitToningShadowSaturation = 0,
			ToneCurveName2012 = "Custom",
			ToneCurvePV2012 = {
				0,
				16,
				26,
				14,
				55,
				30,
				112,
				146,
				186,
				201,
				255,
				232,
			},
			ToneCurvePV2012Blue = {
				0,
				0,
				255,
				255,
			},
			ToneCurvePV2012Green = {
				0,
				0,
				255,
				255,
			},
			ToneCurvePV2012Red = {
				0,
				0,
				255,
				255,
			},
			VignetteAmount = 0,
			VignetteMidpoint = 50,
			Whites2012 = 31,
		},
		uuid = "228FE34C-B4B0-40D6-8376-B213F6A7711F",
	},
	version = 0,
}
