Develop Presets/Mastin Labs Portra - Fuji X Trans/1a. Portra 160 - F.lrtemplate
s = {
	id = "D584A589-5C6F-4284-9FC0-E49D53BAFB5D",
	internalName = "1a. Portra 160 - F",
	title = "1a. Portra 160 - F",
	type = "Develop",
	value = {
		settings = {
			Blacks2012 = 70,
			BlueHue = -5,
			BlueSaturation = 0,
			CameraProfile = "Adobe Standard",
			Clarity2012 = 0,
			Contrast2012 = 84,
			ConvertToGrayscale = false,
			EnableCalibration = true,
			EnableColorAdjustments = true,
			EnableEffects = true,
			GrainAmount = 0,
			GrainFrequency = 50,
			GrainSize = 25,
			GreenHue = 2,
			GreenSaturation = 0,
			Highlights2012 = -36,
			HueAdjustmentAqua = 21,
			HueAdjustmentBlue = -20,
			HueAdjustmentGreen = 9,
			HueAdjustmentMagenta = 0,
			HueAdjustmentOrange = 0,
			HueAdjustmentPurple = 0,
			HueAdjustmentRed = 7,
			HueAdjustmentYellow = 12,
			LuminanceAdjustmentAqua = 0,
			LuminanceAdjustmentBlue = 18,
			LuminanceAdjustmentGreen = 14,
			LuminanceAdjustmentMagenta = 0,
			LuminanceAdjustmentOrange = -3,
			LuminanceAdjustmentPurple = 0,
			LuminanceAdjustmentRed = -17,
			LuminanceAdjustmentYellow = 0,
			ParametricDarks = 0,
			ParametricHighlightSplit = 75,
			ParametricHighlights = 0,
			ParametricLights = 0,
			ParametricMidtoneSplit = 50,
			ParametricShadowSplit = 25,
			ParametricShadows = 0,
			ProcessVersion = "6.7",
			RedHue = 12,
			RedSaturation = 0,
			Saturation = -5,
			SaturationAdjustmentAqua = 0,
			SaturationAdjustmentBlue = -18,
			SaturationAdjustmentGreen = -52,
			SaturationAdjustmentMagenta = 0,
			SaturationAdjustmentOrange = -12,
			SaturationAdjustmentPurple = -25,
			SaturationAdjustmentRed = -22,
			SaturationAdjustmentYellow = -7,
			ShadowTint = -8,
			Shadows2012 = -4,
			ToneCurveName2012 = "Linear",
			ToneCurvePV2012 = {
				0,
				0,
				255,
				255,
			},
			ToneCurvePV2012Blue = {
				0,
				0,
				255,
				255,
			},
			ToneCurvePV2012Green = {
				0,
				0,
				255,
				255,
			},
			ToneCurvePV2012Red = {
				0,
				0,
				255,
				255,
			},
			Vibrance = -8,
			Whites2012 = -48,
		},
		uuid = "E1827524-0FAD-4A40-99A7-ED4A9C8911E4",
	},
	version = 0,
}
