Develop Presets/Mastin Labs Portra - Fuji X Trans/2b. All Soft - F.lrtemplate
s = {
	id = "9CAAD7CA-5D82-40CB-BC06-1BB88E5A5055",
	internalName = "2b. All Soft - F",
	title = "2b. All Soft - F",
	type = "Develop",
	value = {
		settings = {
			Blacks2012 = 82,
			Highlights2012 = -90,
			ProcessVersion = "6.7",
			Shadows2012 = 34,
			Whites2012 = -88,
		},
		uuid = "B94C4BB8-431F-4E4C-9E2E-759CE559EE60",
	},
	version = 0,
}
