Develop Presets/Mastin Labs Portra - Fuji X Trans/2c. Highlight Hard - F.lrtemplate
s = {
	id = "9E82879D-9828-40E1-900A-D8BD44A9A22C",
	internalName = "2c. Highlight Hard - F",
	title = "2c. Highlight Hard - F",
	type = "Develop",
	value = {
		settings = {
			Blacks2012 = 82,
			Highlights2012 = -25,
			ProcessVersion = "6.7",
			Shadows2012 = 1,
			Whites2012 = -31,
		},
		uuid = "25C442CF-0551-4661-98A8-BABCE0DCB583",
	},
	version = 0,
}
