Develop Presets/Mastin Labs Portra - Fuji X Trans/2e. Shadow Hard - F.lrtemplate
s = {
	id = "95430C2C-0674-49E1-9ED7-8C176CEF633F",
	internalName = "2e. Shadow Hard - F",
	title = "2e. Shadow Hard - F",
	type = "Develop",
	value = {
		settings = {
			Blacks2012 = 75,
			Highlights2012 = -63,
			ProcessVersion = "6.7",
			Shadows2012 = -20,
			Whites2012 = -41,
		},
		uuid = "A19F9D77-EC10-46FC-9CF7-CFB794ED570D",
	},
	version = 0,
}
