Develop Presets/Mastin Labs Portra - Fuji X Trans/2f. Shadow Soft - F.lrtemplate
s = {
	id = "E79D6380-CF5D-4E23-BF8F-BFAE5567B0FB",
	internalName = "2f. Shadow Soft - F",
	title = "2f. Shadow Soft - F",
	type = "Develop",
	value = {
		settings = {
			Blacks2012 = 82,
			Highlights2012 = -63,
			ProcessVersion = "6.7",
			Shadows2012 = 34,
			Whites2012 = -41,
		},
		uuid = "326AD71A-59C4-4DCE-8418-1CC29472DBB4",
	},
	version = 0,
}
