Develop Presets/VSCO Film Toolkit - Color/Color- Greener Greens +.lrtemplate
s = {
	id = "CCAD47A0-DEE6-430C-8D70-7248E67A9A1B",
	internalName = "29j. Greener Greens +",
	title = "Color: Greener Greens +",
	type = "Develop",
	value = {
		settings = {
			ConvertToGrayscale = false,
			EnableColorAdjustments = true,
			HueAdjustmentGreen = 20,
		},
		uuid = "ECF30C3E-C42C-4280-9E8E-FCB980C1FF9C",
	},
	version = 0,
}
