Develop Presets/VSCO Film Toolkit - Color/Color- Saturation ++.lrtemplate
s = {
	id = "A3786F36-B861-42D5-AD28-FEEB9CF1AA2E",
	internalName = "Saturation ++ LR4",
	title = "Color: Saturation ++",
	type = "Develop",
	value = {
		settings = {
			ConvertToGrayscale = false,
			ProcessVersion = "6.7",
			Saturation = 15,
		},
		uuid = "BC822924-3331-43FC-A534-94680211188E",
	},
	version = 0,
}
