Develop Presets/VSCO Film Toolkit - Color/Tone- Kodak 3.lrtemplate
s = {
	id = "C15FDE13-37F0-4865-A2B7-B9353FC4546D",
	internalName = "Faded - Kodak 3",
	title = "Tone: Kodak 3",
	type = "Develop",
	value = {
		settings = {
			EnableSplitToning = true,
			ProcessVersion = "6.7",
			SplitToningBalance = 85,
			SplitToningHighlightHue = 45,
			SplitToningHighlightSaturation = 8,
			SplitToningShadowHue = 56,
			SplitToningShadowSaturation = 50,
		},
		uuid = "04E1DEBF-2716-42A0-A4A5-2019439BF4EB",
	},
	version = 0,
}
