Develop Presets/VSCO Film 00 - Fuji/F - TRI-X+1 ++.lrtemplate
s = {
	id = "4221B026-5D6C-4E12-A7CF-0D4319FD4CF8",
	internalName = "F - TRI-X⁺¹ ++",
	title = "F - TRI-X⁺¹ ++",
	type = "Develop",
	value = {
		settings = {
			Blacks2012 = 0,
			BlueHue = 0,
			BlueSaturation = -30,
			CameraProfile = "TRI-X⁺¹ - F",
			Clarity2012 = 0,
			Contrast2012 = 0,
			ConvertToGrayscale = true,
			EnableCalibration = true,
			EnableDetail = true,
			EnableEffects = true,
			EnableGrayscaleMix = true,
			EnableSplitToning = true,
			GrainAmount = 30,
			GrainFrequency = 75,
			GrainSize = 20,
			GrayMixerAqua = -18,
			GrayMixerBlue = 10,
			GrayMixerGreen = -18,
			GrayMixerMagenta = 12,
			GrayMixerOrange = -5,
			GrayMixerPurple = 15,
			GrayMixerRed = 0,
			GrayMixerYellow = -8,
			GreenHue = 0,
			GreenSaturation = 0,
			Highlights2012 = -20,
			ParametricDarks = 0,
			ParametricHighlightSplit = 75,
			ParametricHighlights = 0,
			ParametricLights = 0,
			ParametricMidtoneSplit = 50,
			ParametricShadowSplit = 25,
			ParametricShadows = 0,
			ProcessVersion = "6.7",
			RedHue = 0,
			RedSaturation = 20,
			ShadowTint = 0,
			Shadows2012 = 10,
			SharpenDetail = 25,
			SharpenEdgeMasking = 0,
			SharpenRadius = 1,
			Sharpness = 25,
			SplitToningBalance = 0,
			SplitToningHighlightHue = 0,
			SplitToningHighlightSaturation = 0,
			SplitToningShadowHue = 0,
			SplitToningShadowSaturation = 0,
			ToneCurveName2012 = "Custom",
			ToneCurvePV2012 = {
				0,
				42,
				57,
				66,
				107,
				110,
				193,
				195,
				255,
				247,
			},
			ToneCurvePV2012Blue = {
				0,
				0,
				255,
				255,
			},
			ToneCurvePV2012Green = {
				0,
				0,
				255,
				255,
			},
			ToneCurvePV2012Red = {
				0,
				0,
				255,
				255,
			},
			Whites2012 = -15,
		},
		uuid = "BA5FC342-3D1A-4A6C-B3B3-7E2C88165127",
	},
	version = 0,
}
