Develop Presets/Heck Yeah Film Pack/Heck Yeah Film B+W.lrtemplate
s = {
	id = "7E8B3720-B485-4E2F-A6C3-D7844F65DC67",
	internalName = "Heck Yeah Film B+W",
	title = "Heck Yeah Film B+W",
	type = "Develop",
	value = {
		settings = {
			AutoGrayscaleMix = true,
			AutoLateralCA = 0,
			Blacks2012 = -26,
			BlueHue = 0,
			BlueSaturation = 0,
			CameraProfile = "Adobe Standard",
			ChromaticAberrationB = 0,
			ChromaticAberrationR = 0,
			Clarity2012 = 0,
			Contrast2012 = 39,
			ConvertToGrayscale = true,
			CropConstrainToWarp = 0,
			Defringe = 0,
			DefringeGreenAmount = 0,
			DefringeGreenHueHi = 60,
			DefringeGreenHueLo = 40,
			DefringePurpleAmount = 0,
			DefringePurpleHueHi = 70,
			DefringePurpleHueLo = 30,
			EnableCalibration = true,
			EnableDetail = true,
			EnableGrayscaleMix = true,
			EnableLensCorrections = true,
			EnableSplitToning = true,
			GreenHue = 0,
			GreenSaturation = 0,
			Highlights2012 = 80,
			LensManualDistortionAmount = 0,
			LensProfileEnable = 1,
			LensProfileSetup = "Auto",
			ParametricDarks = -10,
			ParametricHighlightSplit = 75,
			ParametricHighlights = 0,
			ParametricLights = 10,
			ParametricMidtoneSplit = 50,
			ParametricShadowSplit = 25,
			ParametricShadows = -5,
			ProcessVersion = "6.7",
			RedHue = 0,
			RedSaturation = 0,
			ShadowTint = 0,
			Shadows2012 = -90,
			SharpenDetail = 25,
			SharpenEdgeMasking = 0,
			SharpenRadius = 1,
			Sharpness = 25,
			SplitToningBalance = -37,
			SplitToningHighlightHue = 62,
			SplitToningHighlightSaturation = 0,
			SplitToningShadowHue = 230,
			SplitToningShadowSaturation = 0,
			ToneCurveName2012 = "Custom",
			ToneCurvePV2012 = {
				0,
				30,
				34,
				46,
				69,
				77,
				136,
				136,
				187,
				177,
				255,
				226,
			},
			ToneCurvePV2012Blue = {
				0,
				0,
				255,
				255,
			},
			ToneCurvePV2012Green = {
				0,
				0,
				255,
				255,
			},
			ToneCurvePV2012Red = {
				0,
				0,
				255,
				255,
			},
			VignetteAmount = 0,
			VignetteMidpoint = 50,
			Whites2012 = -89,
		},
		uuid = "8D5EDE6B-ADEC-4ACB-8252-ACB351354E5F",
	},
	version = 0,
}
