Develop Presets/Mastin Labs Portra Pushed - Fuji X Trans/2b. All Soft - FP.lrtemplate
s = {
	id = "E4BAA029-D5BC-4F8D-9D5D-393B729F220C",
	internalName = "2b. All Soft - FP",
	title = "2b. All Soft - FP",
	type = "Develop",
	value = {
		settings = {
			Highlights2012 = -53,
			ProcessVersion = "6.7",
			Shadows2012 = 50,
			Whites2012 = -87,
		},
		uuid = "F7598DDD-DDD8-4F38-9BA4-7C492B26FFCC",
	},
	version = 0,
}
