Develop Presets/Mastin Labs Portra Pushed - Fuji X Trans/2c. Highlight Hard - FP.lrtemplate
s = {
	id = "D0687D04-9F93-4E6B-8DEC-76E40A153E37",
	internalName = "2c. Highlight Hard - FP",
	title = "2c. Highlight Hard - FP",
	type = "Develop",
	value = {
		settings = {
			Highlights2012 = -25,
			ProcessVersion = "6.7",
			Shadows2012 = 34,
			Whites2012 = -30,
		},
		uuid = "7F36ED7F-6778-446A-BBD1-90EAA38B9CAD",
	},
	version = 0,
}
