Develop Presets/Mastin Labs Portra Pushed - Fuji X Trans/2d. Highlight Soft - FP.lrtemplate
s = {
	id = "D8D0C2AE-D0D4-49E2-AE91-F245D2ADBC70",
	internalName = "2d. Highlight Soft - FP",
	title = "2d. Highlight Soft - FP",
	type = "Develop",
	value = {
		settings = {
			Highlights2012 = -53,
			ProcessVersion = "6.7",
			Shadows2012 = 34,
			Whites2012 = -87,
		},
		uuid = "5E579053-F45D-408F-AA15-F0E9BC0F7286",
	},
	version = 0,
}
