Develop Presets/VSCO Film 06 Cross Process - Canon/C - Provia 400X XP ++.lrtemplate
s = {
	id = "595787D8-D56A-4479-9E31-42ACEFF63403",
	internalName = "C - Provia 400X XP ++",
	title = "C - Provia 400X XP ++",
	type = "Develop",
	value = {
		settings = {
			Blacks2012 = 20,
			BlueHue = 0,
			BlueSaturation = -10,
			CameraProfile = "Provia 400X XP - C",
			Clarity2012 = 0,
			Contrast2012 = 0,
			ConvertToGrayscale = false,
			EnableCalibration = true,
			EnableColorAdjustments = true,
			EnableDetail = true,
			EnableEffects = true,
			EnableSplitToning = true,
			GrainAmount = 25,
			GrainFrequency = 70,
			GrainSize = 30,
			GreenHue = 100,
			GreenSaturation = -10,
			Highlights2012 = -15,
			HueAdjustmentAqua = 5,
			HueAdjustmentBlue = 0,
			HueAdjustmentGreen = 20,
			HueAdjustmentMagenta = 20,
			HueAdjustmentOrange = 10,
			HueAdjustmentPurple = 25,
			HueAdjustmentRed = -15,
			HueAdjustmentYellow = 20,
			LuminanceAdjustmentAqua = -15,
			LuminanceAdjustmentBlue = -25,
			LuminanceAdjustmentGreen = -10,
			LuminanceAdjustmentMagenta = 0,
			LuminanceAdjustmentOrange = 5,
			LuminanceAdjustmentPurple = 0,
			LuminanceAdjustmentRed = -15,
			LuminanceAdjustmentYellow = 0,
			ParametricDarks = 0,
			ParametricHighlightSplit = 75,
			ParametricHighlights = 0,
			ParametricLights = 0,
			ParametricMidtoneSplit = 50,
			ParametricShadowSplit = 25,
			ParametricShadows = 0,
			ProcessVersion = "6.7",
			RedHue = 45,
			RedSaturation = -10,
			Saturation = 0,
			SaturationAdjustmentAqua = -35,
			SaturationAdjustmentBlue = -20,
			SaturationAdjustmentGreen = -10,
			SaturationAdjustmentMagenta = -15,
			SaturationAdjustmentOrange = -5,
			SaturationAdjustmentPurple = 0,
			SaturationAdjustmentRed = -15,
			SaturationAdjustmentYellow = -10,
			ShadowTint = 0,
			Shadows2012 = 15,
			SharpenDetail = 25,
			SharpenEdgeMasking = 0,
			SharpenRadius = 1,
			Sharpness = 25,
			SplitToningBalance = 70,
			SplitToningHighlightHue = 65,
			SplitToningHighlightSaturation = 5,
			SplitToningShadowHue = 215,
			SplitToningShadowSaturation = 20,
			ToneCurveName2012 = "Provia 400X XP ++",
			ToneCurvePV2012 = {
				0,
				29,
				34,
				48,
				73,
				76,
				136,
				137,
				255,
				255,
			},
			ToneCurvePV2012Blue = {
				0,
				0,
				59,
				43,
				118,
				123,
				255,
				255,
			},
			ToneCurvePV2012Green = {
				0,
				0,
				22,
				6,
				64,
				43,
				116,
				130,
				181,
				202,
				255,
				255,
			},
			ToneCurvePV2012Red = {
				0,
				0,
				22,
				5,
				66,
				42,
				116,
				128,
				181,
				201,
				255,
				255,
			},
			Vibrance = 0,
			Whites2012 = -10,
		},
		uuid = "08701044-E056-4F0D-BEC1-5F2776AC2975",
	},
	version = 0,
}
