Develop Presets/User Presets/Carter5.lrtemplate
s = {
	id = "7D49B946-E34D-486E-8693-505D085C49B3",
	internalName = "Carter5",
	title = "Carter5",
	type = "Develop",
	value = {
		settings = {
			AutoLateralCA = 0,
			Blacks2012 = 35,
			BlueHue = -12,
			BlueSaturation = -5,
			CameraProfile = "Portra 400⁺¹ - C",
			ChromaticAberrationB = 0,
			ChromaticAberrationR = 0,
			Clarity2012 = 0,
			ColorNoiseReduction = 25,
			ColorNoiseReductionDetail = 50,
			ColorNoiseReductionSmoothness = 50,
			Contrast2012 = 0,
			ConvertToGrayscale = false,
			CropConstrainToWarp = 0,
			Defringe = 0,
			DefringeGreenAmount = 0,
			DefringeGreenHueHi = 60,
			DefringeGreenHueLo = 40,
			DefringePurpleAmount = 0,
			DefringePurpleHueHi = 70,
			DefringePurpleHueLo = 30,
			EnableCalibration = true,
			EnableColorAdjustments = true,
			EnableDetail = true,
			EnableEffects = true,
			EnableLensCorrections = true,
			EnableSplitToning = true,
			Exposure2012 = 0.05,
			GrainAmount = 0,
			GrainFrequency = 60,
			GrainSize = 20,
			GreenHue = 55,
			GreenSaturation = -18,
			Highlights2012 = 2,
			HueAdjustmentAqua = 0,
			HueAdjustmentBlue = -5,
			HueAdjustmentGreen = 10,
			HueAdjustmentMagenta = 0,
			HueAdjustmentOrange = 10,
			HueAdjustmentPurple = 0,
			HueAdjustmentRed = -5,
			HueAdjustmentYellow = 15,
			LensManualDistortionAmount = 0,
			LensProfileEnable = 0,
			LensProfileSetup = "LensDefaults",
			LuminanceAdjustmentAqua = -15,
			LuminanceAdjustmentBlue = -25,
			LuminanceAdjustmentGreen = -10,
			LuminanceAdjustmentMagenta = 0,
			LuminanceAdjustmentOrange = -10,
			LuminanceAdjustmentPurple = 0,
			LuminanceAdjustmentRed = -10,
			LuminanceAdjustmentYellow = -14,
			LuminanceNoiseReductionContrast = 0,
			LuminanceNoiseReductionDetail = 50,
			LuminanceSmoothing = 0,
			ParametricDarks = 0,
			ParametricHighlightSplit = 75,
			ParametricHighlights = 0,
			ParametricLights = 0,
			ParametricMidtoneSplit = 50,
			ParametricShadowSplit = 25,
			ParametricShadows = 0,
			PerspectiveAspect = 0,
			PerspectiveHorizontal = 0,
			PerspectiveRotate = 0,
			PerspectiveScale = 100,
			PerspectiveUpright = 0,
			PerspectiveVertical = 0,
			PostCropVignetteAmount = 0,
			PostCropVignetteFeather = 50,
			PostCropVignetteHighlightContrast = 0,
			PostCropVignetteMidpoint = 50,
			PostCropVignetteRoundness = 0,
			PostCropVignetteStyle = 1,
			ProcessVersion = "6.7",
			RedHue = 40,
			RedSaturation = 10,
			Saturation = 1,
			SaturationAdjustmentAqua = 0,
			SaturationAdjustmentBlue = 25,
			SaturationAdjustmentGreen = -10,
			SaturationAdjustmentMagenta = 0,
			SaturationAdjustmentOrange = -2,
			SaturationAdjustmentPurple = 0,
			SaturationAdjustmentRed = -15,
			SaturationAdjustmentYellow = 0,
			ShadowTint = 0,
			Shadows2012 = 35,
			SharpenDetail = 40,
			SharpenEdgeMasking = 25,
			SharpenRadius = 1,
			Sharpness = 40,
			SplitToningBalance = 0,
			SplitToningHighlightHue = 0,
			SplitToningHighlightSaturation = 0,
			SplitToningShadowHue = 0,
			SplitToningShadowSaturation = 0,
			ToneCurveName2012 = "Portra 400+1 Vibrant",
			ToneCurvePV2012 = {
				0,
				13,
				42,
				51,
				107,
				116,
				171,
				180,
				255,
				255,
			},
			ToneCurvePV2012Blue = {
				0,
				0,
				39,
				13,
				87,
				65,
				123,
				124,
				183,
				199,
				255,
				255,
			},
			ToneCurvePV2012Green = {
				0,
				0,
				40,
				14,
				83,
				59,
				123,
				126,
				170,
				187,
				255,
				255,
			},
			ToneCurvePV2012Red = {
				0,
				0,
				40,
				11,
				84,
				58,
				123,
				125,
				182,
				200,
				255,
				255,
			},
			Vibrance = 6,
			VignetteAmount = -42,
			VignetteMidpoint = 33,
			WhiteBalance = "As Shot",
			Whites2012 = -25,
			orientation = "DA",
		},
		uuid = "316C0CE7-56A1-4987-9252-B4B12018C144",
	},
	version = 0,
}
