Develop Presets/Mastin Labs Fuji Pro - Canon/1a. Pro 400H Neutral - C.lrtemplate
s = {
	id = "1CBA0349-E23F-42BC-80CA-319273176DFD",
	internalName = "1a. Pro 400H Neutral - C",
	title = "1a. Pro 400H Neutral - C",
	type = "Develop",
	value = {
		settings = {
			Blacks2012 = 80,
			BlueHue = -12,
			BlueSaturation = 8,
			CameraProfile = "Adobe Standard",
			Clarity2012 = 0,
			Contrast2012 = 89,
			ConvertToGrayscale = false,
			EnableCalibration = true,
			EnableColorAdjustments = true,
			EnableEffects = true,
			EnableSplitToning = true,
			GrainAmount = 0,
			GrainFrequency = 50,
			GrainSize = 25,
			GreenHue = 0,
			GreenSaturation = 8,
			Highlights2012 = -63,
			HueAdjustmentAqua = 3,
			HueAdjustmentBlue = -7,
			HueAdjustmentGreen = 48,
			HueAdjustmentMagenta = -25,
			HueAdjustmentOrange = 7,
			HueAdjustmentPurple = 21,
			HueAdjustmentRed = 5,
			HueAdjustmentYellow = 22,
			LuminanceAdjustmentAqua = 14,
			LuminanceAdjustmentBlue = 19,
			LuminanceAdjustmentGreen = 28,
			LuminanceAdjustmentMagenta = -12,
			LuminanceAdjustmentOrange = -2,
			LuminanceAdjustmentPurple = 18,
			LuminanceAdjustmentRed = 0,
			LuminanceAdjustmentYellow = 28,
			ParametricDarks = 0,
			ParametricHighlightSplit = 75,
			ParametricHighlights = 0,
			ParametricLights = 0,
			ParametricMidtoneSplit = 50,
			ParametricShadowSplit = 25,
			ParametricShadows = 0,
			ProcessVersion = "6.7",
			RedHue = 0,
			RedSaturation = 0,
			Saturation = -5,
			SaturationAdjustmentAqua = 7,
			SaturationAdjustmentBlue = 5,
			SaturationAdjustmentGreen = -51,
			SaturationAdjustmentMagenta = -39,
			SaturationAdjustmentOrange = -19,
			SaturationAdjustmentPurple = -11,
			SaturationAdjustmentRed = -10,
			SaturationAdjustmentYellow = -25,
			ShadowTint = 0,
			Shadows2012 = -2,
			SplitToningBalance = 0,
			SplitToningHighlightHue = 0,
			SplitToningHighlightSaturation = 0,
			SplitToningShadowHue = 0,
			SplitToningShadowSaturation = 0,
			ToneCurveName2012 = "Linear",
			ToneCurvePV2012 = {
				0,
				0,
				255,
				255,
			},
			ToneCurvePV2012Blue = {
				0,
				0,
				255,
				255,
			},
			ToneCurvePV2012Green = {
				0,
				0,
				255,
				255,
			},
			ToneCurvePV2012Red = {
				0,
				0,
				255,
				255,
			},
			Vibrance = -10,
			Whites2012 = -41,
		},
		uuid = "551DF066-F569-46F5-804A-6FF4B53D3257",
	},
	version = 0,
}
