Develop Presets/Mastin Labs Fuji Pro - Canon/2e. Shadow Hard -  C.lrtemplate
s = {
	id = "38C33578-33E7-4E77-B6E6-5CD65BA67335",
	internalName = "6. Shadow Hard -  C",
	title = "2e. Shadow Hard -  C",
	type = "Develop",
	value = {
		settings = {
			Blacks2012 = 75,
			Contrast2012 = 89,
			Highlights2012 = -63,
			ProcessVersion = "6.7",
			Shadows2012 = -20,
			Whites2012 = -41,
		},
		uuid = "3651C5FF-CC87-4971-B1A0-F3F6FD895106",
	},
	version = 0,
}
