Develop Presets/VSCO Film 00 - Standard/S - Kodak Gold 100 + Soft Highs.lrtemplate
s = {
	id = "A6999659-8285-4CE2-BA26-458F12E3133F",
	internalName = "Kodak Gold 100 + Squash",
	title = "S - Kodak Gold 100 + Soft Highs",
	type = "Develop",
	value = {
		settings = {
			Blacks2012 = 15,
			BlueHue = -5,
			BlueSaturation = 25,
			CameraProfile = "Adobe Standard",
			Clarity2012 = -5,
			Contrast2012 = 0,
			ConvertToGrayscale = false,
			EnableCalibration = true,
			EnableColorAdjustments = true,
			EnableDetail = true,
			EnableEffects = true,
			EnableSplitToning = true,
			GrainAmount = 25,
			GrainFrequency = 45,
			GrainSize = 40,
			GreenHue = 35,
			GreenSaturation = 0,
			Highlights2012 = -50,
			HueAdjustmentAqua = 10,
			HueAdjustmentBlue = -5,
			HueAdjustmentGreen = 10,
			HueAdjustmentMagenta = 20,
			HueAdjustmentOrange = 2,
			HueAdjustmentPurple = 20,
			HueAdjustmentRed = 0,
			HueAdjustmentYellow = 0,
			LuminanceAdjustmentAqua = 10,
			LuminanceAdjustmentBlue = -15,
			LuminanceAdjustmentGreen = -5,
			LuminanceAdjustmentMagenta = 20,
			LuminanceAdjustmentOrange = -4,
			LuminanceAdjustmentPurple = 20,
			LuminanceAdjustmentRed = 5,
			LuminanceAdjustmentYellow = 10,
			ParametricDarks = -5,
			ParametricHighlightSplit = 78,
			ParametricHighlights = -14,
			ParametricLights = 25,
			ParametricMidtoneSplit = 37,
			ParametricShadowSplit = 19,
			ParametricShadows = -5,
			ProcessVersion = "6.7",
			RedHue = 18,
			RedSaturation = 20,
			Saturation = -5,
			SaturationAdjustmentAqua = -50,
			SaturationAdjustmentBlue = -30,
			SaturationAdjustmentGreen = -50,
			SaturationAdjustmentMagenta = -40,
			SaturationAdjustmentOrange = -10,
			SaturationAdjustmentPurple = -50,
			SaturationAdjustmentRed = -30,
			SaturationAdjustmentYellow = -15,
			ShadowTint = -2,
			Shadows2012 = 30,
			SharpenDetail = 25,
			SharpenEdgeMasking = 0,
			SharpenRadius = 1,
			Sharpness = 0,
			SplitToningBalance = 0,
			SplitToningHighlightHue = 0,
			SplitToningHighlightSaturation = 0,
			SplitToningShadowHue = 0,
			SplitToningShadowSaturation = 0,
			ToneCurveName2012 = "Custom",
			ToneCurvePV2012 = {
				0,
				11,
				13,
				17,
				77,
				74,
				167,
				162,
				222,
				199,
				255,
				226,
			},
			ToneCurvePV2012Blue = {
				0,
				0,
				24,
				11,
				83,
				70,
				119,
				122,
				183,
				200,
				255,
				255,
			},
			ToneCurvePV2012Green = {
				0,
				0,
				26,
				11,
				120,
				124,
				181,
				196,
				220,
				225,
				255,
				255,
			},
			ToneCurvePV2012Red = {
				0,
				0,
				30,
				11,
				71,
				51,
				119,
				122,
				179,
				197,
				255,
				255,
			},
			Vibrance = 0,
			Whites2012 = -45,
		},
		uuid = "B6EC0AB9-C25B-4483-AF7E-0CFA5EC287D6",
	},
	version = 0,
}
