Develop Presets/VSCO Film 00 - Standard/S - Kodak Gold 100 Warm.lrtemplate
s = {
	id = "44BFF5E7-C256-41D3-9388-42AB286D0064",
	internalName = "Kodak Gold 100 Warm",
	title = "S - Kodak Gold 100 Warm",
	type = "Develop",
	value = {
		settings = {
			Blacks2012 = 15,
			BlueHue = -5,
			BlueSaturation = 25,
			CameraProfile = "Adobe Standard",
			Clarity2012 = 0,
			Contrast2012 = 0,
			ConvertToGrayscale = false,
			EnableCalibration = true,
			EnableColorAdjustments = true,
			EnableDetail = true,
			EnableEffects = true,
			EnableSplitToning = true,
			GrainAmount = 15,
			GrainFrequency = 45,
			GrainSize = 40,
			GreenHue = 35,
			GreenSaturation = 0,
			Highlights2012 = -50,
			HueAdjustmentAqua = 10,
			HueAdjustmentBlue = -5,
			HueAdjustmentGreen = 10,
			HueAdjustmentMagenta = 20,
			HueAdjustmentOrange = 0,
			HueAdjustmentPurple = 20,
			HueAdjustmentRed = 10,
			HueAdjustmentYellow = 0,
			LuminanceAdjustmentAqua = 10,
			LuminanceAdjustmentBlue = -15,
			LuminanceAdjustmentGreen = -5,
			LuminanceAdjustmentMagenta = 20,
			LuminanceAdjustmentOrange = -4,
			LuminanceAdjustmentPurple = 20,
			LuminanceAdjustmentRed = 5,
			LuminanceAdjustmentYellow = 10,
			ParametricDarks = -5,
			ParametricHighlightSplit = 78,
			ParametricHighlights = -14,
			ParametricLights = 25,
			ParametricMidtoneSplit = 37,
			ParametricShadowSplit = 19,
			ParametricShadows = -5,
			ProcessVersion = "6.7",
			RedHue = 25,
			RedSaturation = 20,
			Saturation = -5,
			SaturationAdjustmentAqua = -50,
			SaturationAdjustmentBlue = -30,
			SaturationAdjustmentGreen = -50,
			SaturationAdjustmentMagenta = -40,
			SaturationAdjustmentOrange = -8,
			SaturationAdjustmentPurple = -50,
			SaturationAdjustmentRed = -30,
			SaturationAdjustmentYellow = -15,
			ShadowTint = -2,
			Shadows2012 = 30,
			SharpenDetail = 25,
			SharpenEdgeMasking = 0,
			SharpenRadius = 1,
			Sharpness = 0,
			SplitToningBalance = 0,
			SplitToningHighlightHue = 50,
			SplitToningHighlightSaturation = 10,
			SplitToningShadowHue = 0,
			SplitToningShadowSaturation = 0,
			ToneCurveName2012 = "Custom",
			ToneCurvePV2012 = {
				0,
				0,
				77,
				74,
				186,
				187,
				255,
				250,
			},
			ToneCurvePV2012Blue = {
				0,
				0,
				23,
				9,
				83,
				68,
				121,
				121,
				186,
				198,
				255,
				255,
			},
			ToneCurvePV2012Green = {
				0,
				0,
				28,
				9,
				120,
				124,
				181,
				198,
				255,
				255,
			},
			ToneCurvePV2012Red = {
				0,
				0,
				30,
				11,
				71,
				51,
				118,
				123,
				180,
				198,
				255,
				255,
			},
			Vibrance = 0,
			Whites2012 = -45,
		},
		uuid = "EE699EFD-261A-4A8A-873D-9535C6CB209E",
	},
	version = 0,
}
